;FLAVOR:UltiGCode
;TIME:7710
;MATERIAL:9194
;MATERIAL2:0
;NOZZLE_DIAMETER:0.400000
;NOZZLE_DIAMETER2:0.400000

;Layer count: 78
;LAYER:0
M107
G0 F9000 X87.165 Y95.850 Z0.300
;TYPE:SKIRT
G1 F1500 X88.359 Y95.028 E0.17395
G1 X89.752 Y94.353 E0.35970
G1 X90.853 Y94.012 E0.49801
G1 X91.658 Y93.835 E0.59692
G1 X92.738 Y93.704 E0.72747
G1 X130.026 Y93.700 E5.20203
G1 X131.231 Y93.810 E5.34723
G1 X132.268 Y94.039 E5.47467
G1 X133.709 Y94.536 E5.65759
G1 X135.146 Y95.348 E5.85565
G1 X136.169 Y96.145 E6.01127
G1 X141.297 Y101.267 E6.88101
G1 X142.150 Y102.165 E7.02964
G1 X142.972 Y103.359 E7.20359
G1 X143.647 Y104.752 E7.38934
G1 X143.988 Y105.853 E7.52765
G1 X144.165 Y106.658 E7.62656
G1 X144.296 Y107.736 E7.75687
G1 X144.300 Y114.512 E8.56999
G1 X144.269 Y115.616 E8.70252
G1 X144.138 Y116.468 E8.80597
G1 X143.961 Y117.268 E8.90429
G1 X143.464 Y118.709 E9.08720
G1 X142.652 Y120.146 E9.28527
G1 X141.855 Y121.169 E9.44089
G1 X136.455 Y126.575 E10.35781
G1 X135.734 Y127.219 E10.47382
G1 X134.642 Y127.971 E10.63292
G1 X133.248 Y128.647 E10.81883
G1 X132.147 Y128.988 E10.95714
G1 X131.342 Y129.165 E11.05605
G1 X130.262 Y129.296 E11.18660
G1 X92.974 Y129.300 E15.66116
G1 X91.769 Y129.190 E15.80636
G1 X90.732 Y128.961 E15.93380
G1 X89.291 Y128.464 E16.11672
G1 X87.854 Y127.652 E16.31478
G1 X86.831 Y126.855 E16.47040
G1 X81.703 Y121.733 E17.34014
G1 X80.850 Y120.835 E17.48877
G1 X80.028 Y119.641 E17.66272
G1 X79.353 Y118.248 E17.84847
G1 X79.012 Y117.147 E17.98678
G1 X78.835 Y116.342 E18.08569
G1 X78.704 Y115.264 E18.21600
G1 X78.700 Y108.488 E19.02912
G1 X78.731 Y107.384 E19.16165
G1 X78.862 Y106.532 E19.26510
G1 X79.039 Y105.732 E19.36342
G1 X79.536 Y104.291 E19.54633
G1 X80.348 Y102.854 E19.74440
G1 X81.145 Y101.831 E19.90002
G1 X86.267 Y96.703 E20.76976
G1 X87.165 Y95.850 E20.91839
G0 F9000 X87.418 Y96.162
G1 F1500 X88.561 Y95.375 E21.08491
G1 X89.900 Y94.726 E21.26347
G1 X90.956 Y94.399 E21.39613
G1 X91.725 Y94.229 E21.49064
G1 X92.762 Y94.104 E21.61598
G1 X130.008 Y94.100 E26.08550
G1 X131.169 Y94.206 E26.22540
G1 X132.160 Y94.424 E26.34716
G1 X133.544 Y94.902 E26.52287
G1 X134.923 Y95.681 E26.71293
G1 X135.904 Y96.445 E26.86213
G1 X141.010 Y101.546 E27.72823
G1 X141.838 Y102.418 E27.87253
G1 X142.625 Y103.561 E28.03905
G1 X143.274 Y104.900 E28.21761
G1 X143.601 Y105.956 E28.35027
G1 X143.771 Y106.725 E28.44478
G1 X143.896 Y107.760 E28.56988
G1 X143.900 Y114.507 E29.37952
G1 X143.870 Y115.579 E29.50821
G1 X143.744 Y116.394 E29.60717
G1 X143.576 Y117.160 E29.70128
G1 X143.098 Y118.544 E29.87698
G1 X142.319 Y119.923 E30.06704
G1 X141.555 Y120.904 E30.21625
G1 X136.180 Y126.284 E31.12884
G1 X135.487 Y126.904 E31.24043
G1 X134.440 Y127.625 E31.39298
G1 X133.100 Y128.274 E31.57164
G1 X132.044 Y128.601 E31.70430
G1 X131.275 Y128.771 E31.79881
G1 X130.238 Y128.896 E31.92415
G1 X92.992 Y128.900 E36.39367
G1 X91.831 Y128.794 E36.53357
G1 X90.840 Y128.576 E36.65533
G1 X89.456 Y128.098 E36.83104
G1 X88.077 Y127.319 E37.02110
G1 X87.096 Y126.555 E37.17030
G1 X81.990 Y121.454 E38.03640
G1 X81.162 Y120.582 E38.18069
G1 X80.375 Y119.439 E38.34722
G1 X79.726 Y118.100 E38.52578
G1 X79.399 Y117.044 E38.65844
G1 X79.229 Y116.275 E38.75295
G1 X79.104 Y115.240 E38.87805
G1 X79.100 Y108.493 E39.68769
G1 X79.130 Y107.421 E39.81638
G1 X79.256 Y106.606 E39.91534
G1 X79.424 Y105.840 E40.00945
G1 X79.902 Y104.456 E40.18515
G1 X80.681 Y103.077 E40.37521
G1 X81.445 Y102.096 E40.52442
G1 X86.546 Y96.990 E41.39051
G1 X87.418 Y96.162 E41.53481
G0 F9000 X87.670 Y96.473
G1 F1500 X88.763 Y95.722 E41.69395
G1 X90.047 Y95.099 E41.86521
G1 X91.058 Y94.786 E41.99221
G1 X91.792 Y94.624 E42.08241
G1 X92.786 Y94.504 E42.20255
G1 X129.990 Y94.500 E46.66703
G1 X131.108 Y94.602 E46.80175
G1 X132.051 Y94.810 E46.91763
G1 X133.379 Y95.268 E47.08620
G1 X134.701 Y96.015 E47.26842
G1 X135.639 Y96.746 E47.41112
G1 X140.724 Y101.826 E48.27365
G1 X141.527 Y102.670 E48.41345
G1 X142.278 Y103.763 E48.57258
G1 X142.901 Y105.047 E48.74384
G1 X143.214 Y106.058 E48.87084
G1 X143.376 Y106.792 E48.96104
G1 X143.496 Y107.784 E49.08095
G1 X143.500 Y114.501 E49.88699
G1 X143.471 Y115.543 E50.01208
G1 X143.351 Y116.321 E50.10654
G1 X143.190 Y117.051 E50.19625
G1 X142.732 Y118.379 E50.36482
G1 X141.985 Y119.701 E50.54703
G1 X141.254 Y120.639 E50.68974
G1 X135.905 Y125.993 E51.59792
G1 X135.239 Y126.589 E51.70517
G1 X134.238 Y127.278 E51.85099
G1 X132.953 Y127.901 E52.02236
G1 X131.942 Y128.214 E52.14936
G1 X131.208 Y128.376 E52.23956
G1 X130.214 Y128.496 E52.35971
G1 X93.010 Y128.500 E56.82419
G1 X91.892 Y128.398 E56.95890
G1 X90.949 Y128.190 E57.07478
G1 X89.621 Y127.732 E57.24335
G1 X88.299 Y126.985 E57.42557
G1 X87.361 Y126.254 E57.56827
G1 X82.276 Y121.174 E58.43080
G1 X81.473 Y120.330 E58.57060
G1 X80.722 Y119.237 E58.72973
G1 X80.099 Y117.953 E58.90099
G1 X79.786 Y116.942 E59.02799
G1 X79.624 Y116.208 E59.11819
G1 X79.504 Y115.216 E59.23810
G1 X79.500 Y108.499 E60.04414
G1 X79.529 Y107.457 E60.16923
G1 X79.649 Y106.679 E60.26369
G1 X79.810 Y105.949 E60.35340
G1 X80.268 Y104.621 E60.52197
G1 X81.015 Y103.299 E60.70418
G1 X81.746 Y102.361 E60.84689
G1 X86.826 Y97.276 E61.70942
G1 X87.670 Y96.473 E61.84921
G0 F9000 X87.923 Y96.785
G1 F1500 X88.965 Y96.068 E62.00100
G1 X90.194 Y95.472 E62.16490
G1 X91.161 Y95.173 E62.28636
G1 X91.859 Y95.019 E62.37214
G1 X92.810 Y94.904 E62.48709
G1 X129.972 Y94.900 E66.94653
G1 X131.046 Y94.998 E67.07594
G1 X131.942 Y95.196 E67.18606
G1 X133.214 Y95.634 E67.34749
G1 X134.478 Y96.349 E67.52176
G1 X135.374 Y97.046 E67.65798
G1 X140.438 Y102.105 E68.51695
G1 X141.215 Y102.923 E68.65233
G1 X141.932 Y103.965 E68.80411
G1 X142.528 Y105.194 E68.96802
G1 X142.827 Y106.161 E69.08948
G1 X142.981 Y106.859 E69.17526
G1 X143.096 Y107.809 E69.29009
G1 X143.100 Y114.496 E70.09253
G1 X143.072 Y115.507 E70.21389
G1 X142.958 Y116.247 E70.30374
G1 X142.804 Y116.942 E70.38916
G1 X142.366 Y118.214 E70.55060
G1 X141.651 Y119.478 E70.72487
G1 X140.954 Y120.374 E70.86109
G1 X135.630 Y125.703 E71.76502
G1 X134.991 Y126.274 E71.86786
G1 X134.036 Y126.931 E72.00696
G1 X132.806 Y127.528 E72.17103
G1 X131.839 Y127.827 E72.29249
G1 X131.141 Y127.981 E72.37826
G1 X130.190 Y128.096 E72.49321
G1 X93.028 Y128.100 E76.95265
G1 X91.954 Y128.002 E77.08207
G1 X91.058 Y127.804 E77.19218
G1 X89.786 Y127.366 E77.35362
G1 X88.522 Y126.651 E77.52788
G1 X87.626 Y125.954 E77.66410
G1 X82.562 Y120.895 E78.52307
G1 X81.785 Y120.077 E78.65845
G1 X81.068 Y119.035 E78.81024
G1 X80.472 Y117.806 E78.97414
G1 X80.173 Y116.839 E79.09560
G1 X80.019 Y116.141 E79.18138
G1 X79.904 Y115.191 E79.29621
G1 X79.900 Y108.504 E80.09865
G1 X79.928 Y107.493 E80.22002
G1 X80.042 Y106.753 E80.30986
G1 X80.196 Y106.058 E80.39529
G1 X80.634 Y104.786 E80.55672
G1 X81.349 Y103.522 E80.73099
G1 X82.046 Y102.626 E80.86721
G1 X87.105 Y97.562 E81.72618
G1 X87.923 Y96.785 E81.86156
G0 F9000 X88.176 Y97.097
G1 F1500 X89.166 Y96.415 E82.00582
G1 X90.341 Y95.845 E82.16254
G1 X91.263 Y95.560 E82.27834
G1 X91.927 Y95.414 E82.35992
G1 X92.834 Y95.304 E82.46956
G1 X129.953 Y95.300 E86.92384
G1 X130.985 Y95.394 E87.04819
G1 X131.834 Y95.581 E87.15252
G1 X133.049 Y96.001 E87.30678
G1 X134.256 Y96.682 E87.47309
G1 X135.108 Y97.347 E87.60278
G1 X140.151 Y102.384 E88.45810
G1 X140.903 Y103.176 E88.58915
G1 X141.585 Y104.166 E88.73342
G1 X142.155 Y105.341 E88.89013
G1 X142.440 Y106.263 E89.00594
G1 X142.586 Y106.927 E89.08752
G1 X142.696 Y107.833 E89.19704
G1 X142.700 Y114.490 E89.99588
G1 X142.673 Y115.471 E90.11364
G1 X142.564 Y116.173 E90.19889
G1 X142.419 Y116.834 E90.28010
G1 X141.999 Y118.049 E90.43436
G1 X141.318 Y119.256 E90.60067
G1 X140.653 Y120.108 E90.73036
G1 X135.355 Y125.412 E91.62997
G1 X134.744 Y125.958 E91.72830
G1 X133.834 Y126.585 E91.86091
G1 X132.659 Y127.155 E92.01763
G1 X131.737 Y127.440 E92.13343
G1 X131.073 Y127.586 E92.21502
G1 X130.166 Y127.696 E92.32465
G1 X93.047 Y127.700 E96.77893
G1 X92.015 Y127.606 E96.90329
G1 X91.166 Y127.419 E97.00761
G1 X89.951 Y126.999 E97.16187
G1 X88.744 Y126.318 E97.32818
G1 X87.892 Y125.653 E97.45787
G1 X82.849 Y120.616 E98.31319
G1 X82.097 Y119.824 E98.44425
G1 X81.415 Y118.834 E98.58851
G1 X80.845 Y117.659 E98.74522
G1 X80.560 Y116.737 E98.86103
G1 X80.414 Y116.073 E98.94261
G1 X80.304 Y115.167 E99.05213
G1 X80.300 Y108.510 E99.85097
G1 X80.327 Y107.529 E99.96873
G1 X80.436 Y106.827 E100.05398
G1 X80.581 Y106.166 E100.13519
G1 X81.001 Y104.951 E100.28945
G1 X81.682 Y103.744 E100.45576
G1 X82.347 Y102.892 E100.58545
G1 X87.384 Y97.849 E101.44077
G1 X88.176 Y97.097 E101.57183
G0 F9000 X88.428 Y97.409
G1 F1500 X89.368 Y96.762 E101.70876
G1 X90.489 Y96.219 E101.85824
G1 X91.365 Y95.947 E101.96831
G1 X91.994 Y95.809 E102.04558
G1 X92.859 Y95.704 E102.15014
G1 X129.935 Y95.700 E106.59926
G1 X130.924 Y95.790 E106.71843
G1 X131.725 Y95.967 E106.81687
G1 X132.884 Y96.367 E106.96400
G1 X134.033 Y97.016 E107.12236
G1 X134.843 Y97.647 E107.24557
G1 X139.865 Y102.663 E108.09732
G1 X140.591 Y103.428 E108.22388
G1 X141.238 Y104.368 E108.36082
G1 X141.781 Y105.489 E108.51029
G1 X142.053 Y106.365 E108.62036
G1 X142.191 Y106.994 E108.69764
G1 X142.296 Y107.857 E108.80196
G1 X142.300 Y114.485 E109.59732
G1 X142.274 Y115.434 E109.71124
G1 X142.171 Y116.100 E109.79211
G1 X142.033 Y116.725 E109.86892
G1 X141.633 Y117.884 E110.01605
G1 X140.984 Y119.033 E110.17440
G1 X140.353 Y119.843 E110.29762
G1 X135.080 Y125.121 E111.19290
G1 X134.496 Y125.643 E111.28689
G1 X133.632 Y126.238 E111.41278
G1 X132.511 Y126.781 E111.56225
G1 X131.635 Y127.053 E111.67232
G1 X131.006 Y127.191 E111.74960
G1 X130.141 Y127.296 E111.85416
G1 X93.065 Y127.300 E116.30328
G1 X92.076 Y127.210 E116.42245
G1 X91.275 Y127.033 E116.52089
G1 X90.116 Y126.633 E116.66802
G1 X88.967 Y125.984 E116.82637
G1 X88.157 Y125.353 E116.94958
G1 X83.135 Y120.337 E117.80134
G1 X82.409 Y119.572 E117.92790
G1 X81.762 Y118.632 E118.06483
G1 X81.219 Y117.511 E118.21430
G1 X80.947 Y116.635 E118.32437
G1 X80.809 Y116.006 E118.40165
G1 X80.704 Y115.143 E118.50597
G1 X80.700 Y108.515 E119.30133
G1 X80.726 Y107.566 E119.41526
G1 X80.829 Y106.900 E119.49613
G1 X80.967 Y106.275 E119.57293
G1 X81.367 Y105.116 E119.72006
G1 X82.016 Y103.967 E119.87842
G1 X82.647 Y103.157 E120.00163
G1 X87.663 Y98.135 E120.85338
G1 X88.428 Y97.409 E120.97994
G0 F9000 X88.681 Y97.720
G1 F1500 X89.570 Y97.109 E121.10939
G1 X90.636 Y96.592 E121.25156
G1 X91.468 Y96.334 E121.35609
G1 X92.061 Y96.203 E121.42896
G1 X92.883 Y96.104 E121.52832
G1 X129.917 Y96.100 E125.97240
G1 X130.862 Y96.186 E126.08627
G1 X131.616 Y96.353 E126.17894
G1 X132.719 Y96.733 E126.31893
G1 X133.811 Y97.350 E126.46944
G1 X134.578 Y97.947 E126.58608
G1 X139.578 Y102.943 E127.43427
G1 X140.280 Y103.681 E127.55649
G1 X140.891 Y104.570 E127.68594
G1 X141.408 Y105.636 E127.82811
G1 X141.666 Y106.468 E127.93264
G1 X141.797 Y107.061 E128.00552
G1 X141.896 Y107.881 E128.10463
G1 X141.900 Y114.479 E128.89639
G1 X141.874 Y115.398 E129.00672
G1 X141.777 Y116.026 E129.08297
G1 X141.647 Y116.616 E129.15547
G1 X141.267 Y117.719 E129.29546
G1 X140.650 Y118.811 E129.44597
G1 X140.053 Y119.578 E129.56261
G1 X134.805 Y124.831 E130.45365
G1 X134.248 Y125.328 E130.54323
G1 X133.431 Y125.891 E130.66229
G1 X132.364 Y126.408 E130.80457
G1 X131.532 Y126.666 E130.90910
G1 X130.939 Y126.797 E130.98198
G1 X130.117 Y126.896 E131.08133
G1 X93.083 Y126.900 E135.52541
G1 X92.138 Y126.814 E135.63928
G1 X91.384 Y126.647 E135.73195
G1 X90.281 Y126.267 E135.87194
G1 X89.189 Y125.650 E136.02245
G1 X88.422 Y125.053 E136.13909
G1 X83.422 Y120.057 E136.98728
G1 X82.720 Y119.319 E137.10950
G1 X82.109 Y118.430 E137.23895
G1 X81.592 Y117.364 E137.38112
G1 X81.334 Y116.532 E137.48565
G1 X81.203 Y115.939 E137.55853
G1 X81.104 Y115.119 E137.65764
G1 X81.100 Y108.521 E138.44940
G1 X81.126 Y107.602 E138.55973
G1 X81.223 Y106.974 E138.63598
G1 X81.353 Y106.384 E138.70848
G1 X81.733 Y105.281 E138.84847
G1 X82.350 Y104.189 E138.99898
G1 X82.947 Y103.422 E139.11562
G1 X87.943 Y98.422 E139.96381
G1 X88.681 Y97.720 E140.08603
G0 F9000 X88.934 Y98.032
G1 F1500 X89.772 Y97.455 E140.20813
G1 X90.783 Y96.965 E140.34294
G1 X91.570 Y96.721 E140.44182
G1 X92.128 Y96.598 E140.51039
G1 X92.907 Y96.504 E140.60454
G1 X129.899 Y96.500 E145.04358
G1 X130.801 Y96.582 E145.15227
G1 X131.508 Y96.738 E145.23915
G1 X132.554 Y97.099 E145.37194
G1 X133.588 Y97.684 E145.51450
G1 X134.313 Y98.248 E145.62472
G1 X139.292 Y103.222 E146.46926
G1 X139.968 Y103.934 E146.58708
G1 X140.545 Y104.772 E146.70917
G1 X141.035 Y105.783 E146.84399
G1 X141.279 Y106.570 E146.94286
G1 X141.402 Y107.128 E147.01143
G1 X141.496 Y107.905 E147.10535
G1 X141.500 Y114.474 E147.89363
G1 X141.475 Y115.362 E148.00023
G1 X141.384 Y115.953 E148.07199
G1 X141.262 Y116.508 E148.14018
G1 X140.901 Y117.554 E148.27296
G1 X140.316 Y118.588 E148.41553
G1 X139.752 Y119.313 E148.52575
G1 X134.530 Y124.540 E149.41238
G1 X134.001 Y125.013 E149.49753
G1 X133.229 Y125.545 E149.61004
G1 X132.217 Y126.035 E149.74497
G1 X131.430 Y126.279 E149.84384
G1 X130.872 Y126.402 E149.91241
G1 X130.093 Y126.496 E150.00657
G1 X93.101 Y126.500 E154.44561
G1 X92.199 Y126.418 E154.55429
G1 X91.492 Y126.262 E154.64117
G1 X90.446 Y125.901 E154.77396
G1 X89.412 Y125.316 E154.91652
G1 X88.687 Y124.752 E155.02675
G1 X83.708 Y119.778 E155.87129
G1 X83.032 Y119.066 E155.98910
G1 X82.455 Y118.228 E156.11119
G1 X81.965 Y117.217 E156.24601
G1 X81.721 Y116.430 E156.34489
G1 X81.598 Y115.872 E156.41345
G1 X81.504 Y115.095 E156.50737
G1 X81.500 Y108.526 E157.29565
G1 X81.525 Y107.638 E157.40226
G1 X81.616 Y107.047 E157.47401
G1 X81.738 Y106.492 E157.54220
G1 X82.099 Y105.446 E157.67499
G1 X82.684 Y104.412 E157.81755
G1 X83.248 Y103.687 E157.92778
G1 X88.222 Y98.708 E158.77232
G1 X88.934 Y98.032 E158.89013
G0 F9000 X89.186 Y98.344
G1 F1500 X89.974 Y97.802 E159.00490
G1 X90.930 Y97.338 E159.13242
G1 X91.673 Y97.108 E159.22575
G1 X92.195 Y96.993 E159.28989
G1 X92.931 Y96.904 E159.37886
G1 X129.881 Y96.900 E163.81286
G1 X130.739 Y96.978 E163.91624
G1 X131.399 Y97.124 E163.99736
G1 X132.389 Y97.466 E164.12305
G1 X133.366 Y98.017 E164.25765
G1 X134.047 Y98.548 E164.36127
G1 X139.006 Y103.501 E165.20233
G1 X139.656 Y104.186 E165.31565
G1 X140.198 Y104.974 E165.43042
G1 X140.662 Y105.930 E165.55794
G1 X140.892 Y106.673 E165.65127
G1 X141.007 Y107.195 E165.71541
G1 X141.096 Y107.930 E165.80426
G1 X141.100 Y114.469 E166.58894
G1 X141.076 Y115.326 E166.69182
G1 X140.991 Y115.879 E166.75896
G1 X140.876 Y116.399 E166.82286
G1 X140.534 Y117.389 E166.94855
G1 X139.983 Y118.366 E167.08315
G1 X139.452 Y119.047 E167.18678
G1 X134.255 Y124.249 E168.06916
G1 X133.753 Y124.698 E168.14998
G1 X133.027 Y125.198 E168.25577
G1 X132.070 Y125.662 E168.38339
G1 X131.327 Y125.892 E168.47673
G1 X130.805 Y126.007 E168.54087
G1 X130.069 Y126.096 E168.62983
G1 X93.119 Y126.100 E173.06383
G1 X92.261 Y126.022 E173.16722
G1 X91.601 Y125.876 E173.24833
G1 X90.611 Y125.534 E173.37402
G1 X89.634 Y124.983 E173.50862
G1 X88.953 Y124.452 E173.61225
G1 X83.994 Y119.499 E174.45331
G1 X83.344 Y118.814 E174.56663
G1 X82.802 Y118.026 E174.68139
G1 X82.338 Y117.070 E174.80891
G1 X82.108 Y116.327 E174.90225
G1 X81.993 Y115.805 E174.96639
G1 X81.904 Y115.070 E175.05523
G1 X81.900 Y108.531 E175.83991
G1 X81.924 Y107.674 E175.94279
G1 X82.009 Y107.121 E176.00993
G1 X82.124 Y106.601 E176.07384
G1 X82.466 Y105.611 E176.19953
G1 X83.017 Y104.634 E176.33413
G1 X83.548 Y103.953 E176.43776
G1 X88.501 Y98.994 E177.27882
G1 X89.186 Y98.344 E177.39213
G0 F9000 X89.439 Y98.655
G1 F1500 X90.175 Y98.149 E177.49931
G1 X91.078 Y97.711 E177.61975
G1 X91.775 Y97.495 E177.70731
