;FLAVOR:RepRap
;TIME:11759
M190 S60.000000
M104 S210.000000
M109 S210.000000
;Sliced at: {day} {date} {time}
;Basic settings: Layer height: 0.1 Walls: 0.8 Fill: {fill_density}
;Print time: {print_time}
;Filament used: {filament_amount}m {filament_weight}g
;Filament cost: {filament_cost}
;M190 S{print_bed_temperature} ;Uncomment to add your own bed temperature line
;M109 S{print_temperature} ;Uncomment to add your own temperature line
G21        ;metric values
G90        ;absolute positioning
M82        ;set extruder to absolute mode
M107       ;start with the fan off
G28 X0 Y0  ;move X/Y to min endstops
G28 Z0     ;move Z to min endstops
G1 F12000 X5 Y10 ;move hotend to front left
G1 Z15.0 F{travel_speed} ;move the platform down 15mm
G92 E0                  ;zero the extruded length
G1 F200 E20              ;extrude 20mm of feed stock FAST
G1 F50 E30              ;extrude 30mm of feed stock SLOW
G92 E0                  ;zero the extruded length again
G1 F{travel_speed}
;Put printing message on LCD screen
M117 Printing...

;Generated with Cura_SteamEngine 2.1.3
;LAYER_COUNT:113
;LAYER:0
M107
G1 F1500.000000 E-6.00000
G0 F7200.00000 X109.997 Y107.024 Z0.270
;TYPE:SKIRT
G1 F1500.000 E0.00000
G1 F1200.00000 X109.331 Y107.988 E0.01736
G1 X109.203 Y108.201 E0.02104
G1 X109.167 Y108.779 E0.02962
G1 X109.634 Y110.009 E0.04911
G1 X110.446 Y110.729 E0.06518
G1 X111.501 Y110.989 E0.08128
G1 X112.551 Y110.731 E0.09729
G1 X113.366 Y110.008 E0.11343
G1 X113.784 Y108.906 E0.13089
G1 X113.799 Y108.858 E0.13164
G1 X113.629 Y107.932 E0.14558
G1 X113.003 Y107.026 E0.16190
G1 X112.041 Y106.520 E0.17800
G1 X110.957 Y106.521 E0.19406
G1 X109.997 Y107.024 E0.21011
G0 F7200.00000 X109.758 Y106.754
G1 F1200.000 X109.034 Y107.802 E0.22898
G1 X108.859 Y108.092 E0.23400
G1 X108.814 Y108.828 E0.24492
G1 X108.814 Y108.833 E0.24499
G1 X109.338 Y110.215 E0.26689
G1 X110.279 Y111.048 E0.28550
G1 X111.499 Y111.349 E0.30412
G1 X112.720 Y111.049 E0.32274
G1 X113.662 Y110.213 E0.34140
G1 X114.115 Y109.019 E0.36032
G1 X114.159 Y108.880 E0.36248
G1 X113.959 Y107.794 E0.37883
G1 X113.242 Y106.756 E0.39752
G1 X112.128 Y106.170 E0.41617
G1 X110.870 Y106.171 E0.43480
G1 X109.758 Y106.754 E0.45340
G0 F7200.00000 X109.516 Y106.490
G1 F1200.000 X108.736 Y107.620 E0.47374
G1 X108.515 Y107.984 E0.48005
G1 X108.464 Y108.824 E0.49252
G1 X108.464 Y108.897 E0.49360
G1 X109.024 Y110.372 E0.51697
G1 X109.048 Y110.425 E0.51783
G1 X110.066 Y111.327 E0.53798
G1 X110.121 Y111.370 E0.53901
G1 X111.438 Y111.695 E0.55911
G1 X111.509 Y111.708 E0.56018
G1 X112.843 Y111.379 E0.58053
G1 X112.892 Y111.364 E0.58129
G1 X113.921 Y110.451 E0.60167
G1 X113.961 Y110.411 E0.60250
G1 X114.447 Y109.131 E0.62279
G1 X114.518 Y108.902 E0.62634
G1 X114.290 Y107.656 E0.64510
G1 X113.514 Y106.534 E0.66531
G1 X113.474 Y106.482 E0.66628
G1 X112.265 Y105.848 E0.68650
G1 X112.205 Y105.820 E0.68749
G1 X110.838 Y105.821 E0.70773
G1 X110.777 Y105.825 E0.70864
G1 X109.564 Y106.461 E0.72893
G1 X109.516 Y106.490 E0.72976
G0 F7200.00000 X109.269 Y106.231
G1 F1200.000 X108.447 Y107.422 E0.75120
G1 X108.170 Y107.878 E0.75910
G1 X108.114 Y108.801 E0.77280
G1 X108.114 Y108.960 E0.77515
G1 X108.700 Y110.504 E0.79962
G1 X108.760 Y110.637 E0.80178
G1 X109.844 Y111.598 E0.82324
G1 X109.963 Y111.692 E0.82548
G1 X111.372 Y112.039 E0.84698
G1 X111.518 Y112.066 E0.84918
G1 X112.931 Y111.718 E0.87074
G1 X113.068 Y111.675 E0.87286
G1 X114.161 Y110.706 E0.89450
G1 X114.263 Y110.605 E0.89663
G1 X114.781 Y109.239 E0.91827
G1 X114.879 Y108.925 E0.92314
G1 X114.621 Y107.520 E0.94430
G1 X113.799 Y106.329 E0.96574
G1 X113.704 Y106.209 E0.96800
G1 X112.409 Y105.528 E0.98968
G1 X112.280 Y105.470 E0.99177
G1 X110.834 Y105.471 E1.01319
G1 X110.680 Y105.480 E1.01548
G1 X109.402 Y106.150 E1.03685
G1 X109.269 Y106.231 E1.03916
G0 F7200.00000 X109.024 Y105.969
G1 F1200.000 X108.150 Y107.236 E1.06196
G1 X107.847 Y107.737 E1.07064
G1 X107.824 Y107.810 E1.07177
G1 X107.764 Y108.797 E1.08642
G1 X107.764 Y109.027 E1.08982
G1 X108.375 Y110.637 E1.11533
G1 X108.470 Y110.848 E1.11876
G1 X109.620 Y111.867 E1.14152
G1 X109.805 Y112.012 E1.14500
G1 X111.307 Y112.383 E1.16792
G1 X111.530 Y112.424 E1.17128
G1 X113.022 Y112.056 E1.19404
G1 X113.245 Y111.986 E1.19751
G1 X114.394 Y110.968 E1.22025
G1 X114.563 Y110.799 E1.22379
G1 X115.110 Y109.358 E1.24662
G1 X115.238 Y108.947 E1.25300
G1 X114.952 Y107.382 E1.27656
G1 X114.084 Y106.127 E1.29917
G1 X113.933 Y105.933 E1.30281
G1 X112.572 Y105.219 E1.32558
G1 X112.355 Y105.120 E1.32911
G1 X110.813 Y105.121 E1.35195
G1 X110.585 Y105.135 E1.35533
G1 X109.228 Y105.846 E1.37803
G1 X109.024 Y105.969 E1.38156
G0 F7200.00000 X108.778 Y105.710
G1 F1200.000 X107.856 Y107.045 E1.40559
G1 X107.525 Y107.592 E1.41506
G1 X107.478 Y107.746 E1.41745
G1 X107.414 Y108.792 E1.43297
G1 X107.414 Y109.090 E1.43738
G1 X108.051 Y110.768 E1.46397
G1 X108.182 Y111.060 E1.46871
G1 X109.393 Y112.133 E1.49268
G1 X109.650 Y112.335 E1.49752
G1 X111.225 Y112.723 E1.52155
G1 X111.542 Y112.781 E1.52632
G1 X113.110 Y112.395 E1.55025
G1 X113.422 Y112.298 E1.55509
G1 X114.635 Y111.222 E1.57910
G1 X114.864 Y110.994 E1.58389
G1 X115.443 Y109.466 E1.60810
G1 X115.598 Y108.969 E1.61581
G1 X115.282 Y107.245 E1.64177
G1 X114.362 Y105.914 E1.66574
G1 X114.163 Y105.658 E1.67054
G1 X112.730 Y104.906 E1.69452
G1 X112.430 Y104.770 E1.69940
G1 X110.809 Y104.771 E1.72341
G1 X110.488 Y104.790 E1.72817
G1 X109.060 Y105.539 E1.75206
G1 X108.778 Y105.710 E1.75694
G0 F7200.00000 X108.533 Y105.448
G1 F1200.000 X107.559 Y106.859 E1.78234
G1 X107.203 Y107.448 E1.79254
G1 X107.130 Y107.686 E1.79622
G1 X107.064 Y108.770 E1.81231
G1 X107.064 Y109.153 E1.81799
G1 X107.729 Y110.906 E1.84576
G1 X107.893 Y111.272 E1.85170
G1 X109.175 Y112.408 E1.87707
G1 X109.492 Y112.657 E1.88304
G1 X111.159 Y113.068 E1.90848
G1 X111.551 Y113.140 E1.91438
G1 X113.197 Y112.734 E1.93950
G1 X113.598 Y112.610 E1.94571
G1 X114.877 Y111.475 E1.97104
G1 X115.164 Y111.189 E1.97705
G1 X115.774 Y109.579 E2.00255
G1 X115.958 Y108.990 E2.01169
G1 X115.614 Y107.109 E2.04002
G1 X114.647 Y105.709 E2.06522
G1 X114.392 Y105.383 E2.07135
G1 X112.880 Y104.589 E2.09665
G1 X112.505 Y104.420 E2.10274
G1 X110.804 Y104.421 E2.12794
G1 X110.391 Y104.446 E2.13407
G1 X108.886 Y105.235 E2.15924
G1 X108.533 Y105.448 E2.16535
G0 F7200.00000 X108.287 Y105.189
G1 F1200.000 X107.275 Y106.654 E2.19172
G1 X106.880 Y107.307 E2.20303
G1 X106.786 Y107.616 E2.20781
G1 X106.784 Y107.628 E2.20799
G1 X106.714 Y108.765 E2.22487
G1 X106.714 Y109.217 E2.23156
G1 X107.405 Y111.038 E2.26042
G1 X107.606 Y111.485 E2.26768
G1 X108.947 Y112.674 E2.29423
G1 X109.336 Y112.979 E2.30155
G1 X111.078 Y113.408 E2.32812
G1 X111.561 Y113.497 E2.33540
G1 X113.319 Y113.064 E2.36222
G1 X113.772 Y112.923 E2.36925
G1 X115.116 Y111.731 E2.39586
G1 X115.465 Y111.383 E2.40316
G1 X116.103 Y109.700 E2.42982
G1 X116.318 Y109.012 E2.44050
G1 X115.944 Y106.972 E2.47122
G1 X114.926 Y105.499 E2.49775
G1 X114.620 Y105.108 E2.50510
G1 X113.037 Y104.276 E2.53159
G1 X112.580 Y104.070 E2.53902
G1 X110.783 Y104.071 E2.56564
G1 X110.297 Y104.100 E2.57285
G1 X108.718 Y104.928 E2.59926
G1 X108.287 Y105.189 E2.60672
G0 F7200.00000 X108.042 Y104.927
G1 F1200.000 X106.977 Y106.470 E2.63450
G1 X106.559 Y107.160 E2.64645
G1 X106.444 Y107.540 E2.65233
G1 X106.434 Y107.596 E2.65317
G1 X106.364 Y108.743 E2.67019
G1 X106.363 Y109.283 E2.67819
G1 X107.080 Y111.170 E2.70809
G1 X107.316 Y111.696 E2.71663
G1 X108.720 Y112.940 E2.74442
G1 X109.180 Y113.301 E2.75308
G1 X111.000 Y113.750 E2.78085
G1 X111.573 Y113.855 E2.78948
G1 X113.407 Y113.403 E2.81746
G1 X113.946 Y113.235 E2.82583
G1 X115.366 Y111.976 E2.85394
G1 X115.765 Y111.578 E2.86229
G1 X116.434 Y109.815 E2.89022
G1 X116.676 Y109.040 E2.90225
G1 X116.677 Y109.030 E2.90240
G1 X116.275 Y106.835 E2.93545
G1 X115.205 Y105.286 E2.96334
G1 X114.850 Y104.833 E2.97186
G1 X113.181 Y103.956 E2.99979
G1 X112.657 Y103.720 E3.00831
G1 X110.779 Y103.721 E3.03613
G1 X110.199 Y103.756 E3.04473
G1 X108.544 Y104.624 E3.07242
G1 X108.042 Y104.927 E3.08110
G0 F7200.00000 X107.798 Y104.665
G1 F1200.000 X106.675 Y106.293 E3.11040
G1 X106.237 Y107.015 E3.12291
G1 X106.102 Y107.459 E3.12978
G1 X106.087 Y107.552 E3.13118
G1 X106.014 Y108.738 E3.14878
G1 X106.013 Y109.347 E3.15780
G1 X106.756 Y111.303 E3.18880
G1 X107.028 Y111.908 E3.19862
G1 X108.503 Y113.215 E3.22782
G1 X109.023 Y113.623 E3.23761
G1 X110.918 Y114.090 E3.26652
G1 X111.584 Y114.212 E3.27655
G1 X113.499 Y113.741 E3.30576
G1 X114.124 Y113.546 E3.31546
G1 X115.599 Y112.238 E3.34466
G1 X116.065 Y111.773 E3.35441
G1 X116.765 Y109.927 E3.38366
G1 X117.024 Y109.100 E3.39650
G1 X117.029 Y109.013 E3.39779
G1 X116.605 Y106.699 E3.43264
G1 X115.480 Y105.070 E3.46196
G1 X115.079 Y104.558 E3.47160
G1 X113.331 Y103.640 E3.50084
G1 X112.733 Y103.370 E3.51056
G1 X110.774 Y103.371 E3.53958
G1 X110.103 Y103.411 E3.54954
G1 X108.364 Y104.324 E3.57864
G1 X107.798 Y104.665 E3.58842
G0 F7200.00000 X107.553 Y104.405
G1 F1200.000 X106.386 Y106.095 E3.61885
G1 X105.915 Y106.873 E3.63232
G1 X105.761 Y107.378 E3.64014
G1 X105.739 Y107.510 E3.64212
G1 X105.664 Y108.733 E3.66027
G1 X105.663 Y109.410 E3.67030
G1 X106.432 Y111.434 E3.70237
G1 X106.740 Y112.120 E3.71351
G1 X108.276 Y113.481 E3.74391
G1 X108.865 Y113.944 E3.75501
G1 X110.871 Y114.438 E3.78562
G1 X111.594 Y114.571 E3.79650
G1 X113.586 Y114.080 E3.82690
G1 X114.300 Y113.858 E3.83797
G1 X115.840 Y112.493 E3.86846
G1 X116.365 Y111.968 E3.87945
G1 X117.097 Y110.040 E3.91000
G1 X117.370 Y109.164 E3.92360
G1 X117.381 Y108.986 E3.92624
G1 X116.937 Y106.563 E3.96273
G1 X115.766 Y104.868 E3.99325
G1 X115.308 Y104.282 E4.00426
G1 X113.488 Y103.327 E4.03471
G1 X112.808 Y103.020 E4.04576
G1 X110.753 Y103.021 E4.07620
G1 X110.008 Y103.066 E4.08726
G1 X108.195 Y104.017 E4.11759
G1 X107.553 Y104.405 E4.12870
G0 F7200.00000 X107.308 Y104.143
G1 F1200.000 X106.092 Y105.904 E4.16040
G1 X105.592 Y106.730 E4.17470
G1 X105.420 Y107.295 E4.18345
G1 X105.389 Y107.478 E4.18620
G1 X105.314 Y108.711 E4.20450
G1 X105.313 Y109.474 E4.21580
G1 X106.110 Y111.572 E4.24905
G1 X106.452 Y112.332 E4.26139
G1 X108.048 Y113.747 E4.29299
G1 X108.709 Y114.266 E4.30544
G1 X110.789 Y114.779 E4.33717
G1 X111.605 Y114.928 E4.34946
G1 X113.678 Y114.418 E4.38108
G1 X114.476 Y114.169 E4.39347
G1 X116.071 Y112.755 E4.42504
G1 X116.668 Y112.160 E4.43753
G1 X117.425 Y110.163 E4.46916
G1 X117.717 Y109.229 E4.48366
G1 X117.733 Y108.965 E4.48758
G1 X117.267 Y106.426 E4.52582
G1 X116.044 Y104.655 E4.55770
G1 X115.539 Y104.009 E4.56985
G1 X113.631 Y103.008 E4.60176
G1 X112.883 Y102.670 E4.61392
G1 X110.749 Y102.671 E4.64553
G1 X109.911 Y102.721 E4.65797
G1 X108.021 Y103.713 E4.68959
G1 X107.308 Y104.143 E4.70192
G0 F7200.00000 X107.062 Y103.884
G1 F1200.000 X105.796 Y105.718 E4.73493
G1 X105.270 Y106.585 E4.74996
G1 X105.079 Y107.213 E4.75968
G1 X105.042 Y107.435 E4.76301
G1 X104.964 Y108.706 E4.78188
G1 X104.963 Y109.537 E4.79419
G1 X105.792 Y111.718 E4.82875
G1 X106.162 Y112.544 E4.84216
G1 X107.830 Y114.022 E4.87517
G1 X108.552 Y114.588 E4.88876
G1 X110.708 Y115.120 E4.92165
G1 X111.617 Y115.286 E4.93534
G1 X113.765 Y114.757 E4.96811
G1 X114.652 Y114.481 E4.98187
G1 X116.321 Y113.001 E5.01492
G1 X116.968 Y112.356 E5.02845
G1 X117.754 Y110.282 E5.06131
G1 X118.064 Y109.290 E5.07670
G1 X118.085 Y108.947 E5.08179
G1 X117.598 Y106.288 E5.12184
G1 X116.328 Y104.450 E5.15493
G1 X115.768 Y103.734 E5.16839
G1 X113.795 Y102.698 E5.20141
G1 X112.957 Y102.320 E5.21502
G1 X110.728 Y102.321 E5.24804
G1 X109.819 Y102.375 E5.26153
G1 X107.840 Y103.413 E5.29463
G1 X107.062 Y103.884 E5.30811
G0 F7200.00000 X106.817 Y103.622
G1 F1200.000 X105.507 Y105.520 E5.34227
G1 X104.947 Y106.444 E5.35827
G1 X104.738 Y107.130 E5.36890
G1 X104.694 Y107.393 E5.37285
G1 X104.614 Y108.700 E5.39224
G1 X104.613 Y109.604 E5.40564
G1 X105.461 Y111.837 E5.44102
G1 X105.874 Y112.756 E5.45594
G1 X107.610 Y114.294 E5.49030
G1 X108.395 Y114.910 E5.50508
G1 X110.626 Y115.460 E5.53912
G1 X111.629 Y115.644 E5.55423
G1 X113.853 Y115.096 E5.58816
G1 X114.828 Y114.792 E5.60328
G1 X116.562 Y113.255 E5.63761
G1 X117.268 Y112.551 E5.65238
G1 X118.086 Y110.394 E5.68655
G1 X118.411 Y109.355 E5.70268
G1 X118.437 Y108.925 E5.70906
G1 X117.928 Y106.150 E5.75085
G1 X116.614 Y104.248 E5.78510
G1 X115.997 Y103.459 E5.79993
G1 X113.945 Y102.382 E5.83426
G1 X113.032 Y101.970 E5.84910
G1 X110.724 Y101.971 E5.88329
G1 X109.721 Y102.031 E5.89817
G1 X107.666 Y103.109 E5.93255
G1 X106.817 Y103.622 E5.94724
G0 F7200.00000 X106.571 Y103.363
G1 F1200.000 X105.213 Y105.329 E5.98264
G1 X104.625 Y106.300 E5.99945
G1 X104.395 Y107.055 E6.01115
G1 X104.345 Y107.351 E6.01559
G1 X104.264 Y108.675 E6.03524
G1 X104.263 Y109.629 E6.04937
G1 X104.275 Y109.698 E6.05041
G1 X105.137 Y111.968 E6.08638
G1 X105.586 Y112.968 E6.10262
G1 X107.383 Y114.560 E6.13818
G1 X108.239 Y115.232 E6.15430
G1 X110.564 Y115.805 E6.18977
G1 X111.636 Y116.002 E6.20592
G1 X113.975 Y115.426 E6.24160
G1 X115.003 Y115.105 E6.25756
G1 X116.793 Y113.518 E6.29299
G1 X117.568 Y112.744 E6.30922
G1 X118.419 Y110.502 E6.34474
G1 X118.757 Y109.420 E6.36153
G1 X118.788 Y108.900 E6.36925
G1 X118.260 Y106.014 E6.41271
G1 X116.892 Y104.035 E6.44835
G1 X116.227 Y103.184 E6.46435
G1 X114.102 Y102.068 E6.49990
G1 X113.108 Y101.620 E6.51605
G1 X110.719 Y101.621 E6.55144
G1 X109.625 Y101.687 E6.56768
G1 X107.498 Y102.802 E6.60325
G1 X106.571 Y103.363 E6.61930
G0 F7200.00000 X106.326 Y103.101
G1 F1200.000 X104.916 Y105.143 E6.65606
G1 X104.305 Y106.152 E6.67354
G1 X104.053 Y106.982 E6.68638
G1 X103.998 Y107.308 E6.69128
G1 X103.914 Y108.669 E6.71148
G1 X103.913 Y109.661 E6.72618
G1 X103.935 Y109.789 E6.72810
G1 X104.813 Y112.100 E6.76472
G1 X105.298 Y113.181 E6.78227
G1 X107.165 Y114.835 E6.81922
G1 X108.079 Y115.552 E6.83643
G1 X110.498 Y116.149 E6.87334
G1 X111.648 Y116.359 E6.89065
G1 X114.062 Y115.765 E6.92748
G1 X115.180 Y115.416 E6.94483
G1 X117.026 Y113.780 E6.98137
G1 X117.870 Y112.937 E6.99904
G1 X118.745 Y110.630 E7.03559
G1 X119.104 Y109.481 E7.05342
G1 X119.141 Y108.882 E7.06231
G1 X118.590 Y105.877 E7.10757
G1 X117.176 Y103.830 E7.14442
G1 X116.455 Y102.909 E7.16175
G1 X114.259 Y101.755 E7.19850
G1 X113.183 Y101.270 E7.21598
G1 X110.698 Y101.271 E7.25279
G1 X109.530 Y101.341 E7.27012
G1 X107.326 Y102.497 E7.30699
G1 X106.326 Y103.101 E7.32430
G0 F7200.00000 X106.100 Y102.829
G1 F1200.000 X106.064 Y102.866 E7.32506
G1 X104.622 Y104.954 E7.36265
G1 X103.982 Y106.010 E7.38094
G1 X103.712 Y106.899 E7.39470
G1 X103.650 Y107.267 E7.40023
G1 X103.564 Y108.669 E7.42104
G1 X103.563 Y109.692 E7.43619
G1 X103.596 Y109.879 E7.43901
G1 X104.497 Y112.253 E7.47662
G1 X105.001 Y113.375 E7.49484
G1 X105.027 Y113.408 E7.49546
G1 X106.938 Y115.101 E7.53328
G1 X107.907 Y115.861 E7.55153
G1 X107.951 Y115.881 E7.55224
G1 X110.417 Y116.489 E7.58987
G1 X111.639 Y116.713 E7.60827
G1 X111.687 Y116.710 E7.60898
G1 X114.150 Y116.104 E7.64655
G1 X115.335 Y115.735 E7.66494
G1 X115.379 Y115.708 E7.66570
G1 X117.276 Y114.026 E7.70326
G1 X118.154 Y113.150 E7.72163
G1 X118.180 Y113.106 E7.72239
G1 X119.084 Y110.723 E7.76014
G1 X119.451 Y109.550 E7.77835
G1 X119.492 Y108.861 E7.78858
G1 X118.924 Y105.760 E7.83528
G1 X118.904 Y105.715 E7.83601
G1 X117.462 Y103.628 E7.87358
G1 X116.697 Y102.651 E7.89196
G1 X116.658 Y102.620 E7.89270
G1 X114.409 Y101.439 E7.93033
G1 X113.279 Y100.929 E7.94870
G1 X113.228 Y100.920 E7.94946
G1 X110.694 Y100.921 E7.98700
G1 X109.454 Y100.995 E8.00540
G1 X109.409 Y101.010 E8.00610
G1 X107.156 Y102.191 E8.04379
G1 X106.100 Y102.829 E8.06206
G0 F7200.00000 X105.881 Y102.553
