;FLAVOR:UltiGCode
;TIME:3134
;MATERIAL:3028
;MATERIAL2:0
;NOZZLE_DIAMETER:0.400000
;NOZZLE_DIAMETER2:0.400000

;Layer count: 64
;LAYER:0
M107
G0 F9000 X86.543 Y94.042 Z0.200
;TYPE:SKIRT
G1 F1200 X88.039 Y92.818 E0.15463
G1 X89.733 Y91.912 E0.30832
G1 X91.583 Y91.350 E0.46300
G1 X93.123 Y91.200 E0.58678
G1 X129.880 Y91.200 E3.52734
G1 X131.418 Y91.350 E3.65096
G1 X133.268 Y91.912 E3.80564
G1 X134.962 Y92.818 E3.95933
G1 X136.458 Y94.042 E4.11396
G1 X137.682 Y95.538 E4.26859
G1 X138.588 Y97.232 E4.42228
G1 X139.150 Y99.082 E4.57696
G1 X139.300 Y100.622 E4.70074
G1 X139.300 Y122.379 E6.44130
G1 X139.150 Y123.917 E6.56492
G1 X138.588 Y125.767 E6.71960
G1 X137.682 Y127.461 E6.87329
G1 X136.458 Y128.957 E7.02792
G1 X134.962 Y130.181 E7.18256
G1 X133.268 Y131.087 E7.33624
G1 X131.428 Y131.646 E7.49008
G1 X129.890 Y131.800 E7.61374
G1 X93.111 Y131.800 E10.55606
G1 X91.573 Y131.646 E10.67971
G1 X89.733 Y131.087 E10.83356
G1 X88.039 Y130.181 E10.98724
G1 X86.543 Y128.957 E11.14188
G1 X85.319 Y127.461 E11.29651
G1 X84.413 Y125.767 E11.45019
G1 X83.851 Y123.917 E11.60487
G1 X83.701 Y122.379 E11.72850
G1 X83.700 Y101.477 E13.40066
G1 X83.702 Y100.614 E13.46970
G1 X83.851 Y99.082 E13.59284
G1 X84.413 Y97.232 E13.74751
G1 X85.319 Y95.538 E13.90120
G1 X86.543 Y94.042 E14.05583
G0 F9000 X86.827 Y94.326
G1 F1200 X88.262 Y93.152 E14.20416
G1 X89.887 Y92.283 E14.35158
G1 X91.662 Y91.744 E14.49998
G1 X93.142 Y91.600 E14.61894
G1 X129.861 Y91.600 E17.55646
G1 X131.340 Y91.744 E17.67534
G1 X133.114 Y92.283 E17.82366
G1 X134.739 Y93.152 E17.97109
G1 X136.174 Y94.326 E18.11941
G1 X137.348 Y95.761 E18.26773
G1 X138.217 Y97.386 E18.41516
G1 X138.756 Y99.161 E18.56356
G1 X138.900 Y100.641 E18.68252
G1 X138.900 Y122.360 E20.42004
G1 X138.756 Y123.839 E20.53892
G1 X138.217 Y125.613 E20.68724
G1 X137.348 Y127.238 E20.83466
G1 X136.174 Y128.673 E20.98299
G1 X134.739 Y129.847 E21.13131
G1 X133.114 Y130.716 E21.27873
G1 X131.349 Y131.252 E21.42630
G1 X129.870 Y131.400 E21.54521
G1 X93.131 Y131.400 E24.48433
G1 X91.652 Y131.252 E24.60324
G1 X89.887 Y130.716 E24.75081
G1 X88.262 Y129.847 E24.89823
G1 X86.827 Y128.673 E25.04656
G1 X85.653 Y127.238 E25.19488
G1 X84.784 Y125.613 E25.34230
G1 X84.245 Y123.839 E25.49063
G1 X84.101 Y122.360 E25.60951
G1 X84.100 Y101.478 E27.28007
G1 X84.102 Y100.634 E27.34759
G1 X84.245 Y99.161 E27.46598
G1 X84.784 Y97.386 E27.61438
G1 X85.653 Y95.761 E27.76180
G1 X86.827 Y94.326 E27.91013
G0 F9000 X87.112 Y94.611
G1 F1200 X88.485 Y93.487 E28.05208
G1 X90.041 Y92.655 E28.19324
G1 X91.740 Y92.138 E28.33531
G1 X93.162 Y92.000 E28.44961
G1 X129.841 Y92.000 E31.38393
G1 X131.262 Y92.138 E31.49814
G1 X132.960 Y92.655 E31.64014
G1 X134.516 Y93.487 E31.78130
G1 X135.889 Y94.611 E31.92325
G1 X137.013 Y95.984 E32.06520
G1 X137.845 Y97.540 E32.20636
G1 X138.362 Y99.239 E32.34843
G1 X138.500 Y100.661 E32.46273
G1 X138.500 Y122.340 E34.19705
G1 X138.362 Y123.761 E34.31126
G1 X137.845 Y125.459 E34.45326
G1 X137.013 Y127.015 E34.59442
G1 X135.889 Y128.388 E34.73637
G1 X134.516 Y129.512 E34.87832
G1 X132.960 Y130.344 E35.01948
G1 X131.270 Y130.858 E35.16079
G1 X129.850 Y131.000 E35.27496
G1 X93.151 Y131.000 E38.21088
G1 X91.731 Y130.858 E38.32505
G1 X90.041 Y130.344 E38.46636
G1 X88.485 Y129.512 E38.60752
G1 X87.112 Y128.388 E38.74947
G1 X85.988 Y127.015 E38.89142
G1 X85.156 Y125.459 E39.03258
G1 X84.639 Y123.761 E39.17458
G1 X84.501 Y122.340 E39.28879
G1 X84.500 Y101.478 E40.95775
G1 X84.502 Y100.653 E41.02375
G1 X84.639 Y99.239 E41.13740
G1 X85.156 Y97.540 E41.27948
G1 X85.988 Y95.984 E41.42063
G1 X87.112 Y94.611 E41.56259
G0 F9000 X87.396 Y94.895
G1 F1200 X88.708 Y93.821 E41.69823
G1 X90.195 Y93.026 E41.83312
G1 X91.818 Y92.532 E41.96884
G1 X93.181 Y92.400 E42.07839
G1 X129.822 Y92.400 E45.00967
G1 X131.183 Y92.533 E45.11907
G1 X132.806 Y93.026 E45.25477
G1 X134.293 Y93.821 E45.38966
G1 X135.605 Y94.895 E45.52531
G1 X136.679 Y96.207 E45.66095
G1 X137.474 Y97.694 E45.79584
G1 X137.968 Y99.317 E45.93156
G1 X138.100 Y100.680 E46.04111
G1 X138.100 Y122.321 E47.77239
G1 X137.967 Y123.682 E47.88179
G1 X137.474 Y125.305 E48.01749
G1 X136.679 Y126.792 E48.15239
G1 X135.605 Y128.104 E48.28803
G1 X134.293 Y129.178 E48.42367
G1 X132.806 Y129.973 E48.55856
G1 X131.192 Y130.464 E48.69353
G1 X129.830 Y130.600 E48.80303
G1 X93.171 Y130.600 E51.73575
G1 X91.809 Y130.464 E51.84525
G1 X90.195 Y129.973 E51.98021
G1 X88.708 Y129.178 E52.11511
G1 X87.396 Y128.104 E52.25075
G1 X86.322 Y126.792 E52.38639
G1 X85.527 Y125.305 E52.52129
G1 X85.034 Y123.682 E52.65698
G1 X84.901 Y122.321 E52.76638
G1 X84.900 Y101.478 E54.43382
G1 X84.902 Y100.673 E54.49822
G1 X85.033 Y99.317 E54.60721
G1 X85.527 Y97.694 E54.74293
G1 X86.322 Y96.207 E54.87782
G1 X87.396 Y94.895 E55.01347
G0 F9000 X87.680 Y95.179
G1 F1200 X88.931 Y94.155 E55.14280
G1 X90.349 Y93.397 E55.27143
G1 X91.897 Y92.927 E55.40085
G1 X93.200 Y92.800 E55.50559
G1 X129.802 Y92.800 E58.43375
G1 X131.105 Y92.927 E58.53848
G1 X132.652 Y93.397 E58.66782
G1 X134.070 Y94.155 E58.79646
G1 X135.321 Y95.179 E58.92579
G1 X136.345 Y96.430 E59.05512
G1 X137.103 Y97.848 E59.18375
G1 X137.573 Y99.396 E59.31317
G1 X137.700 Y100.699 E59.41791
G1 X137.700 Y122.301 E61.14607
G1 X137.573 Y123.604 E61.25080
G1 X137.103 Y125.151 E61.38015
G1 X136.345 Y126.569 E61.50878
G1 X135.321 Y127.820 E61.63811
G1 X134.070 Y128.844 E61.76744
G1 X132.652 Y129.602 E61.89607
G1 X131.113 Y130.070 E62.02476
G1 X129.810 Y130.200 E62.12952
G1 X93.191 Y130.200 E65.05904
G1 X91.888 Y130.070 E65.16379
G1 X90.349 Y129.602 E65.29248
G1 X88.931 Y128.844 E65.42111
G1 X87.680 Y127.820 E65.55044
G1 X86.656 Y126.569 E65.67978
G1 X85.898 Y125.151 E65.80841
G1 X85.428 Y123.604 E65.93775
G1 X85.301 Y122.301 E66.04249
G1 X85.300 Y101.479 E67.70825
G1 X85.302 Y100.693 E67.77113
G1 X85.428 Y99.396 E67.87538
G1 X85.898 Y97.848 E68.00480
G1 X86.656 Y96.430 E68.13343
G1 X87.680 Y95.179 E68.26276
G0 F9000 X87.964 Y95.463
G1 F1200 X89.154 Y94.490 E68.38573
G1 X90.503 Y93.769 E68.50810
G1 X91.975 Y93.321 E68.63119
G1 X93.220 Y93.200 E68.73126
G1 X129.783 Y93.200 E71.65630
G1 X131.027 Y93.321 E71.75629
G1 X132.498 Y93.769 E71.87931
G1 X133.847 Y94.490 E72.00168
G1 X135.037 Y95.463 E72.12465
G1 X136.010 Y96.653 E72.24762
G1 X136.731 Y98.002 E72.36999
G1 X137.179 Y99.474 E72.49308
G1 X137.300 Y100.719 E72.59315
G1 X137.300 Y122.282 E74.31819
G1 X137.179 Y123.526 E74.41818
G1 X136.731 Y124.997 E74.54120
G1 X136.010 Y126.346 E74.66356
G1 X135.037 Y127.536 E74.78654
G1 X133.847 Y128.509 E74.90951
G1 X132.498 Y129.230 E75.03187
G1 X131.034 Y129.676 E75.15431
G1 X129.790 Y129.800 E75.25432
G1 X93.211 Y129.800 E78.18064
G1 X91.967 Y129.676 E78.28065
G1 X90.503 Y129.230 E78.40309
G1 X89.154 Y128.509 E78.52546
G1 X87.964 Y127.536 E78.64843
G1 X86.991 Y126.346 E78.77140
G1 X86.270 Y124.997 E78.89377
G1 X85.822 Y123.526 E79.01678
G1 X85.701 Y122.282 E79.11677
G1 X85.700 Y101.479 E80.78101
G1 X85.702 Y100.713 E80.84229
G1 X85.822 Y99.474 E80.94188
G1 X86.270 Y98.002 E81.06497
G1 X86.991 Y96.653 E81.18734
G1 X87.964 Y95.463 E81.31031
G0 F9000 X88.249 Y95.748
G1 F1200 X89.377 Y94.824 E81.42696
G1 X90.657 Y94.140 E81.54306
G1 X92.053 Y93.715 E81.65981
G1 X93.239 Y93.600 E81.75513
G1 X129.763 Y93.600 E84.67705
G1 X130.948 Y93.715 E84.77230
G1 X132.344 Y94.140 E84.88904
G1 X133.624 Y94.824 E85.00514
G1 X134.752 Y95.748 E85.12179
G1 X135.676 Y96.876 E85.23844
G1 X136.360 Y98.156 E85.35455
G1 X136.785 Y99.552 E85.47129
G1 X136.900 Y100.738 E85.56661
G1 X136.900 Y122.262 E87.28853
G1 X136.785 Y123.447 E87.38378
G1 X136.360 Y124.843 E87.50052
G1 X135.676 Y126.123 E87.61662
G1 X134.752 Y127.251 E87.73327
G1 X133.624 Y128.175 E87.84992
G1 X132.344 Y128.859 E87.96603
G1 X130.955 Y129.282 E88.08218
G1 X129.770 Y129.400 E88.17745
G1 X93.231 Y129.400 E91.10057
G1 X92.046 Y129.282 E91.19584
G1 X90.657 Y128.859 E91.31200
G1 X89.377 Y128.175 E91.42810
G1 X88.249 Y127.251 E91.54476
G1 X87.325 Y126.123 E91.66141
G1 X86.641 Y124.843 E91.77751
G1 X86.216 Y123.447 E91.89425
G1 X86.101 Y122.263 E91.98942
G1 X86.100 Y101.480 E93.65206
G1 X86.102 Y100.733 E93.71182
G1 X86.216 Y99.552 E93.80674
G1 X86.641 Y98.156 E93.92348
G1 X87.325 Y96.876 E94.03958
G1 X88.249 Y95.748 E94.15623
G0 F9000 X88.533 Y96.032
G1 F1200 X89.600 Y95.158 E94.26657
G1 X90.811 Y94.511 E94.37641
G1 X92.131 Y94.110 E94.48678
G1 X93.259 Y94.000 E94.57745
G1 X129.744 Y94.000 E97.49625
G1 X130.870 Y94.110 E97.58675
G1 X132.190 Y94.511 E97.69712
G1 X133.401 Y95.158 E97.80696
G1 X134.468 Y96.032 E97.91730
G1 X135.342 Y97.099 E98.02764
G1 X135.989 Y98.310 E98.13748
G1 X136.390 Y99.630 E98.24785
G1 X136.500 Y100.758 E98.33851
G1 X136.500 Y122.243 E100.05731
G1 X136.390 Y123.369 E100.14782
G1 X135.989 Y124.689 E100.25819
G1 X135.342 Y125.900 E100.36803
G1 X134.468 Y126.967 E100.47837
G1 X133.401 Y127.841 E100.58871
G1 X132.190 Y128.488 E100.69855
G1 X130.876 Y128.887 E100.80841
G1 X129.750 Y129.000 E100.89894
G1 X93.251 Y129.000 E103.81886
G1 X92.125 Y128.887 E103.90940
G1 X90.811 Y128.488 E104.01925
G1 X89.600 Y127.841 E104.12909
G1 X88.533 Y126.967 E104.23944
G1 X87.659 Y125.900 E104.34978
G1 X87.012 Y124.689 E104.45962
G1 X86.611 Y123.369 E104.56998
G1 X86.501 Y122.243 E104.66049
G1 X86.500 Y101.480 E106.32153
G1 X86.501 Y100.752 E106.37977
G1 X86.611 Y99.630 E106.46996
G1 X87.012 Y98.310 E106.58033
G1 X87.659 Y97.099 E106.69017
G1 X88.533 Y96.032 E106.80051
G0 F9000 X88.817 Y96.316
G1 F1200 X89.823 Y95.492 E106.90454
G1 X90.965 Y94.882 E107.00812
G1 X92.210 Y94.504 E107.11220
G1 X93.278 Y94.400 E107.19805
G1 X129.725 Y94.400 E110.11381
G1 X130.792 Y94.504 E110.19957
G1 X132.036 Y94.882 E110.30359
G1 X133.178 Y95.492 E110.40716
G1 X134.184 Y96.316 E110.51119
G1 X135.008 Y97.322 E110.61522
G1 X135.618 Y98.464 E110.71880
G1 X135.996 Y99.709 E110.82289
G1 X136.100 Y100.777 E110.90873
G1 X136.100 Y122.224 E112.62449
G1 X135.996 Y123.291 E112.71026
G1 X135.618 Y124.535 E112.81427
G1 X135.008 Y125.677 E112.91785
G1 X134.184 Y126.683 E113.02188
G1 X133.178 Y127.507 E113.12591
G1 X132.036 Y128.117 E113.22949
G1 X130.797 Y128.493 E113.33307
G1 X129.730 Y128.600 E113.41886
G1 X93.271 Y128.600 E116.33558
G1 X92.204 Y128.493 E116.42137
G1 X90.965 Y128.117 E116.52495
G1 X89.823 Y127.507 E116.62853
G1 X88.817 Y126.683 E116.73256
G1 X87.993 Y125.677 E116.83659
G1 X87.383 Y124.535 E116.94017
G1 X87.005 Y123.291 E117.04418
G1 X86.901 Y122.224 E117.12994
G1 X86.900 Y101.480 E118.78946
G1 X86.901 Y100.772 E118.84610
G1 X87.005 Y99.709 E118.93155
G1 X87.383 Y98.464 E119.03564
G1 X87.993 Y97.322 E119.13922
G1 X88.817 Y96.316 E119.24325
G0 F9000 X89.101 Y96.600
G1 F1200 X90.047 Y95.827 E119.34098
G1 X91.119 Y95.254 E119.43822
G1 X92.288 Y94.898 E119.53598
G1 X93.297 Y94.800 E119.61708
G1 X129.705 Y94.800 E122.52972
G1 X130.713 Y94.898 E122.61074
G1 X131.882 Y95.254 E122.70850
G1 X132.954 Y95.827 E122.80575
G1 X133.900 Y96.600 E122.90348
G1 X134.673 Y97.546 E123.00121
G1 X135.246 Y98.618 E123.09845
G1 X135.602 Y99.787 E123.19621
G1 X135.700 Y100.796 E123.27731
G1 X135.700 Y122.204 E124.98995
G1 X135.602 Y123.212 E125.07097
G1 X135.246 Y124.381 E125.16873
G1 X134.673 Y125.453 E125.26598
G1 X133.900 Y126.399 E125.36371
G1 X132.954 Y127.172 E125.46144
G1 X131.882 Y127.745 E125.55868
G1 X130.719 Y128.099 E125.65594
G1 X129.710 Y128.200 E125.73706
G1 X93.291 Y128.200 E128.65058
G1 X92.282 Y128.099 E128.73171
G1 X91.119 Y127.745 E128.82896
G1 X90.047 Y127.172 E128.92620
G1 X89.101 Y126.399 E129.02393
G1 X88.328 Y125.453 E129.12167
G1 X87.755 Y124.381 E129.21891
G1 X87.399 Y123.212 E129.31667
G1 X87.301 Y122.204 E129.39769
G1 X87.300 Y101.481 E131.05553
G1 X87.301 Y100.792 E131.11065
G1 X87.399 Y99.787 E131.19143
G1 X87.755 Y98.618 E131.28919
G1 X88.328 Y97.546 E131.38643
G1 X89.101 Y96.600 E131.48417
G0 F9000 X89.386 Y96.885
G1 F1200 X90.270 Y96.161 E131.57558
G1 X91.273 Y95.625 E131.66656
G1 X92.366 Y95.292 E131.75797
G1 X93.317 Y95.200 E131.83440
G1 X129.686 Y95.200 E134.74392
G1 X130.635 Y95.293 E134.82020
G1 X131.728 Y95.625 E134.91159
G1 X132.731 Y96.161 E135.00257
G1 X133.615 Y96.885 E135.09398
G1 X134.339 Y97.769 E135.18539
G1 X134.875 Y98.772 E135.27637
G1 X135.208 Y99.865 E135.36778
G1 X135.300 Y100.816 E135.44421
G1 X135.300 Y122.185 E137.15373
G1 X135.207 Y123.134 E137.23002
G1 X134.875 Y124.227 E137.32140
G1 X134.339 Y125.230 E137.41238
G1 X133.615 Y126.114 E137.50379
G1 X132.731 Y126.838 E137.59520
G1 X131.728 Y127.374 E137.68618
G1 X130.640 Y127.705 E137.77716
G1 X129.691 Y127.800 E137.85346
G1 X93.310 Y127.800 E140.76394
G1 X92.361 Y127.705 E140.84024
G1 X91.273 Y127.374 E140.93122
G1 X90.270 Y126.838 E141.02220
G1 X89.386 Y126.114 E141.11361
G1 X88.662 Y125.230 E141.20502
G1 X88.126 Y124.227 E141.29600
G1 X87.794 Y123.134 E141.38738
G1 X87.701 Y122.185 E141.46367
G1 X87.700 Y101.481 E143.11999
G1 X87.701 Y100.812 E143.17351
G1 X87.793 Y99.865 E143.24962
G1 X88.126 Y98.772 E143.34103
G1 X88.662 Y97.769 E143.43201
G1 X89.386 Y96.885 E143.52342
G0 F9000 X89.670 Y97.169
G1 F1200 X90.493 Y96.495 E143.60852
G1 X91.426 Y95.996 E143.69317
G1 X92.445 Y95.687 E143.77835
G1 X93.336 Y95.600 E143.84997
G1 X129.666 Y95.600 E146.75637
G1 X130.557 Y95.687 E146.82799
G1 X131.575 Y95.996 E146.91310
G1 X132.508 Y96.495 E146.99775
G1 X133.331 Y97.169 E147.08285
G1 X134.005 Y97.992 E147.16795
G1 X134.504 Y98.925 E147.25259
G1 X134.813 Y99.944 E147.33778
G1 X134.900 Y100.835 E147.40940
G1 X134.900 Y122.165 E149.11580
G1 X134.813 Y123.056 E149.18742
G1 X134.504 Y124.074 E149.27253
G1 X134.005 Y125.007 E149.35717
G1 X133.331 Y125.830 E149.44227
G1 X132.508 Y126.504 E149.52737
G1 X131.575 Y127.003 E149.61202
G1 X130.561 Y127.311 E149.69680
G1 X129.671 Y127.400 E149.76835
G1 X93.330 Y127.400 E152.67563
G1 X92.440 Y127.311 E152.74719
G1 X91.426 Y127.003 E152.83197
G1 X90.493 Y126.504 E152.91661
G1 X89.670 Y125.830 E153.00172
G1 X88.996 Y125.007 E153.08682
G1 X88.497 Y124.074 E153.17146
G1 X88.188 Y123.056 E153.25657
G1 X88.101 Y122.165 E153.32819
G1 X88.100 Y101.482 E154.98283
G1 X88.101 Y100.832 E155.03483
G1 X88.188 Y99.944 E155.10621
G1 X88.497 Y98.925 E155.19140
G1 X88.996 Y97.992 E155.27604
G1 X89.670 Y97.169 E155.36114
G0 F9000 X89.954 Y97.453
G1 F1200 X90.716 Y96.830 E155.43988
G1 X91.580 Y96.367 E155.51830
G1 X92.523 Y96.081 E155.59713
G1 X93.356 Y96.000 E155.66409
G1 X129.647 Y96.000 E158.56737
G1 X130.478 Y96.081 E158.63416
G1 X131.421 Y96.367 E158.71300
G1 X132.285 Y96.830 E158.79142
G1 X133.047 Y97.453 E158.87016
G1 X133.670 Y98.215 E158.94890
G1 X134.133 Y99.079 E159.02732
G1 X134.419 Y100.022 E159.10615
G1 X134.500 Y100.855 E159.17311
G1 X134.500 Y122.146 E160.87639
G1 X134.419 Y122.977 E160.94318
G1 X134.133 Y123.920 E161.02201
G1 X133.670 Y124.784 E161.10043
G1 X133.047 Y125.546 E161.17917
G1 X132.285 Y126.169 E161.25791
G1 X131.421 Y126.632 E161.33633
G1 X130.482 Y126.917 E161.41484
G1 X129.651 Y127.000 E161.48165
G1 X93.350 Y127.000 E164.38573
G1 X92.519 Y126.917 E164.45254
G1 X91.580 Y126.632 E164.53104
G1 X90.716 Y126.169 E164.60946
G1 X89.954 Y125.546 E164.68820
G1 X89.331 Y124.784 E164.76694
G1 X88.868 Y123.920 E164.84536
G1 X88.582 Y122.977 E164.92420
G1 X88.501 Y122.146 E164.99099
G1 X88.500 Y101.482 E166.64411
G1 X88.501 Y100.851 E166.69459
G1 X88.582 Y100.022 E166.76123
G1 X88.868 Y99.079 E166.84006
G1 X89.331 Y98.215 E166.91848
G1 X89.954 Y97.453 E166.99722
G0 F9000 X90.238 Y97.737
G1 F1200 X90.939 Y97.164 E167.06965
G1 X91.734 Y96.739 E167.14177
G1 X92.601 Y96.475 E167.21427
G1 X93.375 Y96.400 E167.27648
G1 X129.627 Y96.400 E170.17664
G1 X130.400 Y96.475 E170.23877
G1 X131.267 Y96.739 E170.31128
G1 X132.062 Y97.164 E170.38340
G1 X132.763 Y97.737 E170.45583
G1 X133.336 Y98.438 E170.52826
G1 X133.761 Y99.233 E170.60038
G1 X134.025 Y100.100 E170.67288
G1 X134.100 Y100.874 E170.73509
G1 X134.100 Y122.126 E172.43525
G1 X134.025 Y122.899 E172.49738
G1 X133.761 Y123.766 E172.56988
G1 X133.336 Y124.561 E172.64200
G1 X132.763 Y125.262 E172.71443
G1 X132.062 Y125.835 E172.78686
G1 X131.267 Y126.260 E172.85898
G1 X130.403 Y126.523 E172.93123
G1 X129.631 Y126.600 E172.99330
G1 X93.370 Y126.600 E175.89418
G1 X92.598 Y126.523 E175.95625
