;FLAVOR:UltiGCode
;TIME:361
;MATERIAL:581
;MATERIAL2:0
;NOZZLE_DIAMETER:0.400000
;NOZZLE_DIAMETER2:0.400000

;Layer count: 20
;LAYER:0
M107
G0 F9000 X93.731 Y98.700 Z0.200
;TYPE:SKIRT
G1 F1200 X129.301 Y98.700 E2.84560
G1 X129.298 Y124.283 E4.89224
G1 X121.012 Y124.300 E5.55512
G1 X93.699 Y124.299 E7.74016
G1 X93.699 Y106.734 E9.14536
G1 X93.731 Y98.700 E9.78809
G0 F9000 X94.130 Y99.100
G1 F1200 X128.901 Y99.100 E12.56977
G1 X128.898 Y123.884 E14.55249
G1 X121.011 Y123.900 E15.18345
G1 X94.099 Y123.899 E17.33641
G1 X94.099 Y106.735 E18.70953
G1 X94.130 Y99.100 E19.32033
G0 F9000 X94.528 Y99.500
G1 F1200 X128.501 Y99.500 E22.03817
G1 X128.498 Y123.485 E23.95697
G1 X121.011 Y123.500 E24.55593
G1 X94.499 Y123.499 E26.67689
G1 X94.499 Y106.736 E28.01793
G1 X94.528 Y99.500 E28.59682
G0 F9000 X94.926 Y99.900
G1 F1200 X128.101 Y99.900 E31.25082
G1 X128.098 Y123.086 E33.10570
G1 X121.010 Y123.100 E33.67274
G1 X94.899 Y123.099 E35.76162
G1 X94.899 Y106.737 E37.07058
G1 X94.926 Y99.900 E37.61754
G0 F9000 X95.325 Y100.300
G1 F1200 X127.701 Y100.300 E40.20762
G1 X127.698 Y122.686 E41.99850
G1 X121.010 Y122.700 E42.53355
G1 X95.299 Y122.699 E44.59043
G1 X95.299 Y106.738 E45.86731
G1 X95.325 Y100.300 E46.38235
G0 F9000 X95.723 Y100.700
G1 F1200 X127.301 Y100.700 E48.90859
G1 X127.298 Y122.287 E50.63555
G1 X121.010 Y122.300 E51.13859
G1 X95.699 Y122.299 E53.16347
G1 X95.699 Y106.738 E54.40835
G1 X95.723 Y100.700 E54.89139
G0 F9000 X96.122 Y101.100
G1 F1200 X126.901 Y101.100 E57.35371
G1 X126.898 Y121.888 E59.01675
G1 X121.009 Y121.900 E59.48788
G1 X96.099 Y121.899 E61.48068
G1 X96.099 Y106.739 E62.69348
G1 X96.122 Y101.100 E63.14460
G0 F9000 X96.520 Y101.500
G1 F1200 X126.501 Y101.500 E65.54308
G1 X126.499 Y121.489 E67.14220
G1 X121.009 Y121.500 E67.58140
G1 X96.499 Y121.499 E69.54220
G1 X96.499 Y106.740 E70.72292
G1 X96.520 Y101.500 E71.14212
G0 F9000 X96.918 Y101.900
G1 F1200 X126.100 Y101.900 E73.47668
G1 X126.099 Y121.090 E75.01188
G1 X121.009 Y121.100 E75.41908
G1 X96.899 Y121.099 E77.34788
G1 X96.899 Y106.741 E78.49652
G1 X96.918 Y101.900 E78.88381
G0 F9000 X97.317 Y102.300
G1 F1200 X125.700 Y102.300 E81.15445
G1 X125.699 Y120.691 E82.62573
G1 X121.008 Y120.700 E83.00101
G1 X97.299 Y120.699 E84.89773
G1 X97.299 Y106.742 E86.01429
G1 X97.317 Y102.300 E86.36965
G0 F9000 X97.715 Y102.700
G1 F1200 X125.300 Y102.700 E88.57645
G1 X125.299 Y120.291 E89.98373
G1 X121.008 Y120.300 E90.32701
G1 X97.699 Y120.299 E92.19173
G1 X97.699 Y106.742 E93.27629
G1 X97.715 Y102.700 E93.59965
G0 F9000 X98.114 Y103.100
G1 F1200 X124.900 Y103.100 E95.74253
G1 X124.899 Y119.892 E97.08589
G1 X121.007 Y119.900 E97.39725
G1 X98.099 Y119.899 E99.22989
G1 X98.099 Y106.743 E100.28237
G1 X98.114 Y103.100 E100.57382
G0 F9000 X98.512 Y103.500
G1 F1200 X124.500 Y103.500 E102.65286
G1 X124.499 Y119.493 E103.93230
G1 X121.007 Y119.500 E104.21166
G1 X98.499 Y119.499 E106.01230
G1 X98.499 Y106.744 E107.03270
G1 X98.512 Y103.500 E107.29222
G0 F9000 X98.910 Y103.900
G1 F1200 X124.100 Y103.900 E109.30742
G1 X124.099 Y119.094 E110.52294
G1 X121.007 Y119.100 E110.77030
G1 X98.899 Y119.099 E112.53894
G1 X98.899 Y106.745 E113.52726
G1 X98.910 Y103.900 E113.75486
G0 F9000 X99.299 Y106.746
G1 F1200 X99.309 Y104.300 E113.95054
G1 X123.700 Y104.300 E115.90182
G1 X123.699 Y118.695 E117.05342
G1 X121.006 Y118.700 E117.26886
G1 X99.299 Y118.699 E119.00542
G1 X99.299 Y106.746 E119.96166
G0 F9000 X99.699 Y106.746
G1 F1200 X99.707 Y104.700 E120.12535
G1 X123.300 Y104.700 E122.01279
G1 X123.299 Y118.295 E123.10039
G1 X121.006 Y118.300 E123.28383
G1 X99.699 Y118.299 E124.98839
G1 X99.699 Y106.746 E125.91263
G0 F9000 X100.099 Y106.747
G1 F1200 X100.106 Y105.100 E126.04439
G1 X122.900 Y105.100 E127.86791
G1 X122.899 Y117.896 E128.89159
G1 X121.005 Y117.900 E129.04311
G1 X100.099 Y117.899 E130.71559
G1 X100.099 Y106.747 E131.60775
G0 F9000 X100.499 Y106.748
G1 F1200 X100.504 Y105.500 E131.70759
G1 X122.500 Y105.500 E133.46727
G1 X122.499 Y117.497 E134.42703
G1 X121.005 Y117.500 E134.54655
G1 X100.499 Y117.499 E136.18703
G1 X100.499 Y106.748 E137.04711
G0 F9000 X100.899 Y106.749
G1 F1200 X100.902 Y105.900 E137.11503
G1 X122.100 Y105.900 E138.81087
G1 X122.099 Y117.098 E139.70671
G1 X121.005 Y117.100 E139.79423
G1 X100.899 Y117.099 E141.40271
G1 X100.899 Y106.749 E142.23071
G0 F9000 X101.300 Y106.300
G1 F1200 X121.700 Y106.300 E143.86271
G1 X121.699 Y116.699 E144.69463
G1 X101.299 Y116.699 E146.32663
G1 X101.300 Y106.300 E147.15855
G0 F9000 X102.099 Y107.100
;TYPE:WALL-INNER
G1 F1200 X120.900 Y107.100 E148.66263
G1 X120.899 Y115.900 E149.36663
G1 X102.099 Y115.899 E150.87063
G1 X102.099 Y107.100 E151.57455
G0 F9000 X109.348 Y109.726
G1 F1200 X109.295 Y110.203 E151.61294
G1 X109.354 Y110.692 E151.65235
G1 X109.499 Y111.125 E151.68888
G1 X109.747 Y111.536 E151.72728
G1 X110.090 Y111.890 E151.76671
G1 X110.467 Y112.146 E151.80317
G1 X110.910 Y112.323 E151.84133
G1 X111.383 Y112.400 E151.87967
G1 X111.874 Y112.369 E151.91903
G1 X112.315 Y112.247 E151.95564
G1 X112.738 Y112.022 E151.99396
G1 X113.114 Y111.697 E152.03372
G1 X113.395 Y111.317 E152.07153
G1 X113.588 Y110.903 E152.10807
G1 X113.690 Y110.438 E152.14616
G1 X113.691 Y109.970 E152.18360
G1 X113.579 Y109.476 E152.22412
G1 X113.375 Y109.049 E152.26198
G1 X113.100 Y108.684 E152.29854
G1 X112.733 Y108.373 E152.33702
G1 X112.296 Y108.147 E152.37638
G1 X111.856 Y108.025 E152.41291
G1 X111.381 Y107.999 E152.45097
G1 X110.907 Y108.077 E152.48940
G1 X110.451 Y108.263 E152.52880
G1 X110.073 Y108.520 E152.56536
G1 X109.743 Y108.868 E152.60373
G1 X109.493 Y109.294 E152.64325
G1 X109.348 Y109.726 E152.67970
G0 F9000 X109.741 Y109.813
;TYPE:WALL-OUTER
G1 F1200 X109.698 Y110.201 E152.71093
G1 X109.746 Y110.603 E152.74332
G1 X109.864 Y110.956 E152.77310
G1 X110.066 Y111.291 E152.80439
G1 X110.349 Y111.582 E152.83686
G1 X110.656 Y111.791 E152.86657
G1 X111.017 Y111.935 E152.89767
G1 X111.403 Y111.998 E152.92896
G1 X111.807 Y111.972 E152.96134
G1 X112.166 Y111.873 E152.99114
G1 X112.511 Y111.690 E153.02238
G1 X112.819 Y111.424 E153.05493
G1 X113.050 Y111.112 E153.08599
G1 X113.207 Y110.774 E153.11581
G1 X113.290 Y110.394 E153.14692
G1 X113.291 Y110.014 E153.17732
G1 X113.199 Y109.608 E153.21063
G1 X113.032 Y109.258 E153.24165
G1 X112.807 Y108.961 E153.27146
G1 X112.509 Y108.708 E153.30273
G1 X112.149 Y108.522 E153.33515
G1 X111.791 Y108.422 E153.36488
G1 X111.402 Y108.401 E153.39605
G1 X111.016 Y108.464 E153.42734
G1 X110.641 Y108.618 E153.45977
G1 X110.334 Y108.827 E153.48948
G1 X110.065 Y109.110 E153.52072
G1 X109.859 Y109.461 E153.55328
G1 X109.741 Y109.813 E153.58298
G0 F9000 X109.457 Y109.719
G0 X101.909 Y107.000
G0 X101.700 Y106.700
G1 F1200 X121.300 Y106.700 E155.15098
G1 X121.299 Y116.299 E155.91890
G1 X101.699 Y116.299 E157.48690
G1 X101.700 Y106.700 E158.25482
G0 F9000 X102.431 Y107.239
;TYPE:SKIN
G1 F900 X110.950 Y115.759 E159.21869
G0 F9000 X110.385 Y115.759
G1 F900 X102.238 Y107.612 E160.14042
G0 F9000 X102.238 Y108.178
G1 F900 X109.819 Y115.759 E160.99811
G0 F9000 X109.253 Y115.759
G1 F900 X102.238 Y108.743 E161.79182
G0 F9000 X102.238 Y109.309
G1 F900 X108.687 Y115.759 E162.52150
G0 F9000 X108.121 Y115.758
G1 F900 X102.238 Y109.875 E163.18708
G0 F9000 X102.238 Y110.440
G1 F900 X107.555 Y115.758 E163.78869
G0 F9000 X106.990 Y115.758
G1 F900 X102.238 Y111.006 E164.32632
G0 F9000 X102.238 Y111.572
G1 F900 X106.424 Y115.758 E164.79991
G0 F9000 X105.858 Y115.758
G1 F900 X102.238 Y112.137 E165.20952
G0 F9000 X102.238 Y112.703
G1 F900 X105.293 Y115.758 E165.55516
G0 F9000 X104.727 Y115.758
G1 F900 X102.238 Y113.269 E165.83675
G0 F9000 X102.238 Y113.834
G1 F900 X104.161 Y115.758 E166.05437
G0 F9000 X103.596 Y115.758
G1 F900 X102.238 Y114.400 E166.20801
G0 F9000 X102.238 Y114.966
G1 F900 X103.030 Y115.758 E166.29762
G0 F9000 X102.464 Y115.758
G1 F900 X102.238 Y115.532 E166.32319
G0 F9000 X102.997 Y107.239
G1 F900 X111.516 Y115.759 E167.28706
G0 F9000 X112.082 Y115.759
G1 F900 X103.562 Y107.239 E168.25099
G0 F9000 X104.128 Y107.239
G1 F900 X112.647 Y115.759 E169.21486
G0 F9000 X113.213 Y115.759
G1 F900 X104.694 Y107.239 E170.17873
G0 F9000 X105.259 Y107.239
G1 F900 X109.626 Y111.606 E170.67280
G0 F9000 X110.051 Y112.031
G1 F900 X113.779 Y115.759 E171.09457
G0 F9000 X114.344 Y115.759
G1 F900 X111.077 Y112.492 E171.46419
G0 F9000 X111.672 Y112.521
G1 F900 X114.911 Y115.759 E171.83059
G0 F9000 X115.476 Y115.759
G1 F900 X112.153 Y112.436 E172.20654
G0 F9000 X112.558 Y112.275
G1 F900 X116.042 Y115.759 E172.60071
G0 F9000 X116.608 Y115.759
G1 F900 X112.908 Y112.060 E173.01926
G0 F9000 X113.212 Y111.798
G1 F900 X117.173 Y115.759 E173.46740
G0 F9000 X117.739 Y115.759
G1 F900 X113.453 Y111.473 E173.95230
G0 F9000 X113.649 Y111.103
G1 F900 X118.305 Y115.759 E174.47907
G0 F9000 X118.871 Y115.759
G1 F900 X113.781 Y110.669 E175.05494
G0 F9000 X113.830 Y110.153
G1 F900 X119.436 Y115.759 E175.68918
G0 F9000 X120.002 Y115.759
G1 F900 X113.721 Y109.479 E176.39974
G0 F9000 X112.225 Y107.982
G1 F900 X111.482 Y107.239 E176.48380
G0 F9000 X110.916 Y107.239
G1 F900 X111.544 Y107.867 E176.55485
G0 F9000 X111.025 Y107.914
G1 F900 X110.351 Y107.239 E176.63116
G0 F9000 X109.785 Y107.239
G1 F900 X110.597 Y108.051 E176.72303
G0 F9000 X110.225 Y108.246
G1 F900 X109.219 Y107.239 E176.83690
G0 F9000 X108.654 Y107.239
G1 F900 X109.905 Y108.491 E176.97849
G0 F9000 X109.631 Y108.782
G1 F900 X108.088 Y107.239 E177.15307
G0 F9000 X107.522 Y107.239
G1 F900 X109.421 Y109.139 E177.36797
G0 F9000 X109.261 Y109.544
G1 F900 X106.956 Y107.239 E177.62875
G0 F9000 X106.391 Y107.239
G1 F900 X109.175 Y110.023 E177.94372
G0 F9000 X109.204 Y110.619
G1 F900 X105.825 Y107.239 E178.32607
G0 F9000 X112.048 Y107.239
G1 F900 X120.568 Y115.759 E179.29000
G0 F9000 X120.758 Y115.384
G1 F900 X112.613 Y107.239 E180.21150
G0 F9000 X113.179 Y107.239
G1 F900 X120.758 Y114.819 E181.06902
G0 F9000 X120.758 Y114.253
G1 F900 X113.745 Y107.239 E181.86251
G0 F9000 X114.310 Y107.239
G1 F900 X120.758 Y113.687 E182.59202
G0 F9000 X120.758 Y113.122
G1 F900 X114.876 Y107.239 E183.25755
G0 F9000 X115.442 Y107.239
G1 F900 X120.758 Y112.556 E183.85904
G0 F9000 X120.758 Y111.990
G1 F900 X116.007 Y107.239 E184.39655
G0 F9000 X116.573 Y107.239
G1 F900 X120.759 Y111.425 E184.87015
G0 F9000 X120.759 Y110.860
G1 F900 X117.139 Y107.239 E185.27976
G0 F9000 X117.704 Y107.239
G1 F900 X120.759 Y110.294 E185.62539
G0 F9000 X120.759 Y109.728
G1 F900 X118.270 Y107.239 E185.90699
G0 F9000 X118.836 Y107.239
G1 F900 X120.759 Y109.163 E186.12461
G0 F9000 X120.759 Y108.597
G1 F900 X119.402 Y107.239 E186.27819
G0 F9000 X119.967 Y107.239
G1 F900 X120.759 Y108.031 E186.36780
G0 F9000 X120.759 Y107.466
G1 F900 X120.533 Y107.239 E186.39342
;LAYER:1
M106 S127
G0 F9000 X120.900 Y107.100 Z0.400
;TYPE:WALL-INNER
G1 F1500 X120.899 Y115.899 E187.09734
G1 X102.099 Y115.899 E188.60134
G1 X102.100 Y107.100 E189.30526
G1 X120.900 Y107.100 E190.80926
G0 F9000 X113.588 Y109.496
G1 F1500 X113.387 Y109.064 E190.84738
G1 X113.099 Y108.684 E190.88553
G1 X112.736 Y108.376 E190.92361
G1 X112.315 Y108.152 E190.96176
G1 X111.855 Y108.025 E190.99994
G1 X111.381 Y107.999 E191.03791
G1 X110.910 Y108.076 E191.07610
G1 X110.467 Y108.253 E191.11426
G1 X110.073 Y108.520 E191.15233
G1 X109.746 Y108.865 E191.19036
G1 X109.499 Y109.275 E191.22865
G1 X109.348 Y109.726 E191.26670
G1 X109.295 Y110.200 E191.30486
G1 X109.348 Y110.673 E191.34294
G1 X109.499 Y111.124 E191.38099
G1 X109.746 Y111.534 E191.41928
G1 X110.073 Y111.879 E191.45731
G1 X110.467 Y112.146 E191.49538
G1 X110.910 Y112.323 E191.53354
G1 X111.381 Y112.400 E191.57173
G1 X111.855 Y112.374 E191.60970
G1 X112.315 Y112.247 E191.64788
G1 X112.736 Y112.023 E191.68603
G1 X113.099 Y111.715 E191.72411
G1 X113.387 Y111.335 E191.76226
G1 X113.588 Y110.903 E191.80038
G1 X113.690 Y110.439 E191.83838
G1 X113.692 Y110.032 E191.87094
G1 X113.685 Y109.939 E191.87840
G1 X113.588 Y109.496 E191.91468
G0 F9000 X113.292 Y110.046
;TYPE:WALL-OUTER
G1 F1320 X113.288 Y109.998 E191.91854
G1 X113.207 Y109.625 E191.94907
G1 X113.042 Y109.271 E191.98032
G1 X112.807 Y108.961 E192.01144
G1 X112.510 Y108.709 E192.04260
G1 X112.166 Y108.526 E192.07377
G1 X111.790 Y108.422 E192.10498
G1 X111.402 Y108.401 E192.13607
G1 X111.017 Y108.464 E192.16727
G1 X110.656 Y108.608 E192.19837
G1 X110.334 Y108.827 E192.22952
G1 X110.066 Y109.109 E192.26064
G1 X109.864 Y109.444 E192.29194
G1 X109.741 Y109.813 E192.32306
G1 X109.698 Y110.200 E192.35421
G1 X109.741 Y110.586 E192.38528
G1 X109.864 Y110.955 E192.41639
G1 X110.066 Y111.290 E192.44769
G1 X110.334 Y111.572 E192.47881
G1 X110.656 Y111.791 E192.50997
G1 X111.017 Y111.935 E192.54106
G1 X111.402 Y111.998 E192.57227
G1 X111.790 Y111.977 E192.60335
G1 X112.166 Y111.873 E192.63456
G1 X112.510 Y111.690 E192.66573
G1 X112.807 Y111.438 E192.69689
G1 X113.042 Y111.128 E192.72802
G1 X113.207 Y110.774 E192.75926
G1 X113.290 Y110.394 E192.79038
G1 X113.292 Y110.046 E192.81822
G0 F9000 X113.591 Y110.049
G0 X121.000 Y106.910
G0 X121.300 Y106.700
G1 F1320 X121.299 Y116.299 E193.58614
G1 X101.699 Y116.299 E195.15414
G1 X101.700 Y106.700 E195.92206
G1 X121.300 Y106.700 E197.49006
G0 F9000 X120.758 Y107.495
;TYPE:SKIN
G1 F900 X112.495 Y115.759 E198.42497
G0 F9000 X113.060 Y115.759
G1 F900 X120.758 Y108.060 E199.29595
G0 F9000 X120.758 Y108.626
G1 F900 X113.626 Y115.759 E200.10290
G0 F9000 X114.192 Y115.759
G1 F900 X120.758 Y109.192 E200.84582
G0 F9000 X120.758 Y109.757
G1 F900 X114.757 Y115.759 E201.52481
G0 F9000 X115.323 Y115.759
G1 F900 X120.758 Y110.323 E202.13977
G0 F9000 X120.758 Y110.889
G1 F900 X115.889 Y115.759 E202.69069
G0 F9000 X116.454 Y115.759
G1 F900 X120.758 Y111.454 E203.17769
G0 F9000 X120.758 Y112.021
G1 F900 X117.020 Y115.759 E203.60059
G0 F9000 X117.586 Y115.759
G1 F900 X120.758 Y112.586 E203.95952
G0 F9000 X120.758 Y113.152
G1 F900 X118.151 Y115.759 E204.25447
G0 F9000 X118.717 Y115.759
G1 F900 X120.758 Y113.718 E204.48538
G0 F9000 X120.758 Y114.284
G1 F900 X119.283 Y115.759 E204.65226
G0 F9000 X119.848 Y115.759
G1 F900 X120.758 Y114.849 E204.75521
G0 F9000 X120.758 Y115.415
G1 F900 X120.414 Y115.759 E204.79413
G0 F9000 X111.929 Y115.759
G1 F900 X120.449 Y107.239 E205.75806
G0 F9000 X119.883 Y107.239
G1 F900 X111.363 Y115.759 E206.72199
G0 F9000 X110.797 Y115.759
G1 F900 X119.317 Y107.239 E207.68592
G0 F9000 X118.752 Y107.239
G1 F900 X110.232 Y115.759 E208.64984
G0 F9000 X109.666 Y115.759
G1 F900 X118.186 Y107.239 E209.61377
G0 F9000 X117.620 Y107.239
G1 F900 X113.555 Y111.304 E210.07367
G0 F9000 X113.825 Y110.468
G1 F900 X117.055 Y107.239 E210.43905
G0 F9000 X116.489 Y107.239
G1 F900 X113.820 Y109.907 E210.74096
G0 F9000 X113.719 Y109.443
G1 F900 X115.923 Y107.239 E210.99031
G0 F9000 X115.358 Y107.239
G1 F900 X113.539 Y109.057 E211.19605
G0 F9000 X113.305 Y108.726
G1 F900 X114.792 Y107.239 E211.36428
G0 F9000 X114.226 Y107.239
G1 F900 X113.025 Y108.440 E211.50016
G0 F9000 X112.700 Y108.200
G1 F900 X113.661 Y107.239 E211.60889
G0 F9000 X113.095 Y107.239
G1 F900 X112.324 Y108.009 E211.69606
G0 F9000 X111.881 Y107.887
G1 F900 X112.529 Y107.239 E211.76937
G0 F9000 X111.963 Y107.239
G1 F900 X111.338 Y107.864 E211.84008
G0 F9000 X111.398 Y107.239
G1 F900 X110.580 Y108.056 E211.93257
G0 F9000 X110.832 Y107.239
G1 F900 X102.312 Y115.759 E212.89650
G0 F9000 X102.239 Y115.266
G1 F900 X110.266 Y107.239 E213.80465
G0 F9000 X109.701 Y107.239
G1 F900 X102.239 Y114.701 E214.64888
G0 F9000 X102.239 Y114.135
G1 F900 X109.135 Y107.239 E215.42907
G0 F9000 X108.569 Y107.239
G1 F900 X102.239 Y113.569 E216.14523
G0 F9000 X102.239 Y113.004
G1 F900 X108.004 Y107.239 E216.79747
G0 F9000 X107.438 Y107.239
G1 F900 X102.239 Y112.438 E217.38567
G0 F9000 X102.239 Y111.872
G1 F900 X106.872 Y107.239 E217.90983
G0 F9000 X106.307 Y107.239
G1 F900 X102.239 Y111.306 E218.37002
G0 F9000 X102.239 Y110.740
G1 F900 X105.741 Y107.239 E218.76617
G0 F9000 X105.175 Y107.239
G1 F900 X102.239 Y110.175 E219.09834
G0 F9000 X102.239 Y109.609
G1 F900 X104.610 Y107.239 E219.36653
G0 F9000 X104.044 Y107.239
G1 F900 X102.239 Y109.043 E219.57068
G0 F9000 X102.239 Y108.477
G1 F900 X103.478 Y107.239 E219.71080
