;FLAVOR:UltiGCode
;TIME:13942
;MATERIAL:10488
;MATERIAL2:0
;NOZZLE_DIAMETER:0.400000
;NOZZLE_DIAMETER2:0.400000

;Layer count: 29
;LAYER:0
M107
G0 F9000 X21.441 Y85.085 Z0.200
;TYPE:SKIRT
G1 F1200 X22.959 Y84.784 E0.12380
G1 X24.247 Y84.700 E0.22706
G1 X198.754 Y84.700 E14.18762
G1 X200.040 Y84.784 E14.29072
G1 X201.558 Y85.085 E14.41453
G1 X203.016 Y85.581 E14.53773
G1 X204.406 Y86.264 E14.66163
G1 X205.697 Y87.127 E14.78586
G1 X206.855 Y88.144 E14.90916
G1 X207.875 Y89.305 E15.03279
G1 X208.735 Y90.595 E15.15682
G1 X209.417 Y91.980 E15.28033
G1 X209.914 Y93.441 E15.40378
G1 X210.214 Y94.952 E15.52702
G1 X210.300 Y96.239 E15.63021
G1 X210.300 Y125.040 E17.93429
G1 X210.214 Y126.325 E18.03732
G1 X209.914 Y127.836 E18.16056
G1 X209.417 Y129.299 E18.28417
G1 X208.734 Y130.688 E18.40800
G1 X207.875 Y131.972 E18.53159
G1 X206.859 Y133.132 E18.65495
G1 X205.692 Y134.156 E18.77915
G1 X204.406 Y135.013 E18.90278
G1 X203.023 Y135.696 E19.02618
G1 X201.558 Y136.194 E19.14997
G1 X200.040 Y136.495 E19.27377
G1 X198.754 Y136.579 E19.37687
G1 X189.882 Y136.579 E20.08663
G1 X189.586 Y136.809 E20.11662
G1 X187.938 Y137.645 E20.26445
G1 X186.173 Y138.158 E20.41150
G1 X184.697 Y138.300 E20.53012
G1 X23.090 Y138.300 E33.45868
G1 X21.319 Y138.061 E33.60165
G1 X19.181 Y137.182 E33.78658
G1 X18.223 Y136.443 E33.88337
G1 X17.380 Y135.811 E33.96766
G1 X16.565 Y134.754 E34.07444
G1 X15.917 Y133.891 E34.16077
G1 X15.050 Y131.791 E34.34253
G1 X14.815 Y130.012 E34.48608
G1 X14.815 Y124.901 E34.89496
G1 X14.092 Y123.924 E34.99220
G1 X13.311 Y122.322 E35.13478
G1 X12.826 Y120.597 E35.27813
G1 X12.700 Y119.170 E35.39273
G1 X12.700 Y96.247 E37.22657
G1 X12.784 Y94.959 E37.32983
G1 X13.085 Y93.441 E37.45363
G1 X13.582 Y91.980 E37.57709
G1 X14.264 Y90.595 E37.70060
G1 X15.124 Y89.305 E37.82463
G1 X16.144 Y88.144 E37.94826
G1 X17.305 Y87.124 E38.07189
G1 X18.595 Y86.264 E38.19593
G1 X19.980 Y85.582 E38.31943
G1 X21.441 Y85.085 E38.44289
G0 F9000 X21.545 Y85.473
G1 F1200 X23.011 Y85.181 E38.56247
G1 X24.260 Y85.100 E38.66260
G1 X198.741 Y85.100 E52.62108
G1 X199.988 Y85.181 E52.72105
G1 X201.454 Y85.473 E52.84064
G1 X202.863 Y85.951 E52.95967
G1 X204.206 Y86.611 E53.07938
G1 X205.453 Y87.445 E53.19939
G1 X206.572 Y88.427 E53.31850
G1 X207.557 Y89.549 E53.43794
G1 X208.388 Y90.795 E53.55775
G1 X209.047 Y92.133 E53.67707
G1 X209.526 Y93.545 E53.79635
G1 X209.816 Y95.004 E53.91536
G1 X209.900 Y96.253 E54.01550
G1 X209.900 Y125.027 E56.31742
G1 X209.816 Y126.273 E56.41733
G1 X209.527 Y127.733 E56.53640
G1 X209.047 Y129.146 E56.65578
G1 X208.386 Y130.487 E56.77539
G1 X207.557 Y131.728 E56.89478
G1 X206.575 Y132.849 E57.01400
G1 X205.448 Y133.838 E57.13396
G1 X204.206 Y134.666 E57.25337
G1 X202.869 Y135.326 E57.37265
G1 X201.454 Y135.806 E57.49219
G1 X199.988 Y136.098 E57.61177
G1 X198.741 Y136.179 E57.71174
G1 X189.745 Y136.179 E58.43142
G1 X189.371 Y136.469 E58.46928
G1 X187.790 Y137.271 E58.61111
G1 X186.097 Y137.764 E58.75217
G1 X184.677 Y137.900 E58.86629
G1 X23.117 Y137.900 E71.79109
G1 X21.423 Y137.671 E71.92785
G1 X19.383 Y136.833 E72.10428
G1 X18.466 Y136.125 E72.19696
G1 X17.663 Y135.523 E72.27725
G1 X16.883 Y134.512 E72.37940
G1 X16.267 Y133.691 E72.46151
G1 X15.439 Y131.687 E72.63498
G1 X15.215 Y129.985 E72.77231
G1 X15.215 Y124.769 E73.18959
G1 X14.436 Y123.716 E73.29438
G1 X13.686 Y122.179 E73.43120
G1 X13.222 Y120.524 E73.56870
G1 X13.100 Y119.152 E73.67889
G1 X13.100 Y96.260 E75.51025
G1 X13.181 Y95.011 E75.61038
G1 X13.473 Y93.545 E75.72997
G1 X13.952 Y92.133 E75.84925
G1 X14.611 Y90.795 E75.96857
G1 X15.442 Y89.549 E76.08839
G1 X16.427 Y88.427 E76.20783
G1 X17.549 Y87.442 E76.32727
G1 X18.795 Y86.611 E76.44708
G1 X20.133 Y85.952 E76.56640
G1 X21.545 Y85.473 E76.68569
G0 F9000 X21.649 Y85.860
G1 F1200 X23.063 Y85.579 E76.80102
G1 X24.273 Y85.500 E76.89802
G1 X198.728 Y85.500 E90.85442
G1 X199.936 Y85.579 E90.95127
G1 X201.350 Y85.860 E91.06660
G1 X202.710 Y86.321 E91.18148
G1 X204.005 Y86.958 E91.29694
G1 X205.208 Y87.763 E91.41274
G1 X206.288 Y88.711 E91.52770
G1 X207.239 Y89.793 E91.64294
G1 X208.041 Y90.996 E91.75861
G1 X208.677 Y92.286 E91.87367
G1 X209.139 Y93.649 E91.98880
G1 X209.419 Y95.057 E92.10365
G1 X209.500 Y96.266 E92.20059
G1 X209.500 Y125.013 E94.50035
G1 X209.419 Y126.220 E94.59712
G1 X209.140 Y127.629 E94.71203
G1 X208.677 Y128.993 E94.82727
G1 X208.039 Y130.287 E94.94269
G1 X207.239 Y131.484 E95.05786
G1 X206.292 Y132.565 E95.17284
G1 X205.204 Y133.520 E95.28865
G1 X204.005 Y134.319 E95.40392
G1 X202.716 Y134.956 E95.51894
G1 X201.350 Y135.419 E95.63433
G1 X199.936 Y135.700 E95.74966
G1 X198.728 Y135.779 E95.84651
G1 X189.609 Y135.779 E96.57603
G1 X189.156 Y136.130 E96.62187
G1 X187.643 Y136.898 E96.75761
G1 X186.022 Y137.369 E96.89266
G1 X184.658 Y137.500 E97.00228
G1 X23.144 Y137.500 E109.92340
G1 X21.528 Y137.282 E110.05385
G1 X19.585 Y136.483 E110.22192
G1 X18.711 Y135.810 E110.31017
G1 X17.947 Y135.236 E110.38661
G1 X17.202 Y134.270 E110.48421
G1 X16.618 Y133.492 E110.56203
G1 X15.829 Y131.583 E110.72728
G1 X15.615 Y129.959 E110.85832
G1 X15.615 Y124.637 E111.28408
G1 X14.779 Y123.507 E111.39653
G1 X14.061 Y122.036 E111.52748
G1 X13.617 Y120.452 E111.65909
G1 X13.500 Y119.135 E111.76486
G1 X13.500 Y96.273 E113.59382
G1 X13.579 Y95.063 E113.69083
G1 X13.860 Y93.649 E113.80616
G1 X14.322 Y92.286 E113.92129
G1 X14.958 Y90.996 E114.03636
G1 X15.760 Y89.793 E114.15202
G1 X16.711 Y88.711 E114.26726
G1 X17.793 Y87.760 E114.38251
G1 X18.996 Y86.958 E114.49817
G1 X20.286 Y86.322 E114.61323
G1 X21.649 Y85.860 E114.72837
G0 F9000 X21.753 Y86.247
G1 F1200 X23.116 Y85.976 E114.83954
G1 X24.286 Y85.900 E114.93334
G1 X198.715 Y85.900 E128.88766
G1 X199.884 Y85.976 E128.98138
G1 X201.246 Y86.247 E129.09247
G1 X202.557 Y86.692 E129.20323
G1 X203.805 Y87.305 E129.31446
G1 X204.964 Y88.081 E129.42605
G1 X206.005 Y88.994 E129.53682
G1 X206.921 Y90.037 E129.64787
G1 X207.694 Y91.196 E129.75932
G1 X208.306 Y92.440 E129.87023
G1 X208.752 Y93.753 E129.98117
G1 X209.022 Y95.109 E130.09177
G1 X209.100 Y96.279 E130.18558
G1 X209.100 Y125.000 E132.48326
G1 X209.022 Y126.168 E132.57691
G1 X208.752 Y127.525 E132.68760
G1 X208.306 Y128.839 E132.79861
G1 X207.692 Y130.086 E132.90981
G1 X206.921 Y131.240 E133.02083
G1 X206.008 Y132.282 E133.13167
G1 X204.960 Y133.202 E133.24323
G1 X203.805 Y133.972 E133.35428
G1 X202.562 Y134.585 E133.46515
G1 X201.246 Y135.032 E133.57634
G1 X199.884 Y135.303 E133.68744
G1 X198.715 Y135.379 E133.78116
G1 X189.471 Y135.379 E134.52068
G1 X188.941 Y135.790 E134.57433
G1 X187.495 Y136.524 E134.70406
G1 X185.946 Y136.975 E134.83313
G1 X184.639 Y137.100 E134.93816
G1 X23.171 Y137.100 E147.85560
G1 X21.632 Y136.892 E147.97984
G1 X19.786 Y136.134 E148.13949
G1 X18.944 Y135.484 E148.22458
G1 X18.230 Y134.949 E148.29596
G1 X17.520 Y134.028 E148.38899
G1 X16.968 Y133.292 E148.46259
G1 X16.219 Y131.479 E148.61952
G1 X16.015 Y129.933 E148.74427
G1 X16.015 Y124.505 E149.17851
G1 X15.123 Y123.299 E149.29852
G1 X14.437 Y121.893 E149.42367
G1 X14.012 Y120.380 E149.54940
G1 X13.900 Y119.117 E149.65083
G1 X13.900 Y96.286 E151.47731
G1 X13.976 Y95.116 E151.57111
G1 X14.247 Y93.753 E151.68228
G1 X14.693 Y92.440 E151.79322
G1 X15.305 Y91.196 E151.90413
G1 X16.078 Y90.037 E152.01558
G1 X16.994 Y88.994 E152.12663
G1 X18.037 Y88.078 E152.23768
G1 X19.196 Y87.305 E152.34913
G1 X20.440 Y86.693 E152.46004
G1 X21.753 Y86.247 E152.57098
G0 F9000 X21.856 Y86.634
G1 F1200 X23.168 Y86.374 E152.67798
G1 X24.299 Y86.300 E152.76865
G1 X198.702 Y86.300 E166.72089
G1 X199.832 Y86.374 E166.81149
G1 X201.143 Y86.634 E166.91841
G1 X202.404 Y87.062 E167.02494
G1 X203.605 Y87.653 E167.13202
G1 X204.720 Y88.399 E167.23935
G1 X205.721 Y89.278 E167.34592
G1 X206.603 Y90.281 E167.45277
G1 X207.346 Y91.396 E167.55996
G1 X207.936 Y92.593 E167.66672
G1 X208.365 Y93.856 E167.77343
G1 X208.624 Y95.162 E167.87995
G1 X208.700 Y96.293 E167.97063
G1 X208.700 Y124.987 E170.26615
G1 X208.624 Y126.115 E170.35659
G1 X208.365 Y127.422 E170.46319
G1 X207.936 Y128.686 E170.56997
G1 X207.345 Y129.886 E170.67698
G1 X206.603 Y130.996 E170.78380
G1 X205.724 Y131.999 E170.89049
G1 X204.716 Y132.884 E170.99780
G1 X203.605 Y133.625 E171.10464
G1 X202.409 Y134.215 E171.21132
G1 X201.143 Y134.645 E171.31829
G1 X199.832 Y134.905 E171.42521
G1 X198.702 Y134.979 E171.51580
G1 X189.334 Y134.979 E172.26524
G1 X188.726 Y135.451 E172.32682
G1 X187.347 Y136.150 E172.45050
G1 X185.870 Y136.580 E172.57357
G1 X184.620 Y136.700 E172.67403
G1 X23.198 Y136.700 E185.58779
G1 X21.737 Y136.503 E185.70573
G1 X19.988 Y135.784 E185.85701
G1 X19.187 Y135.166 E185.93794
G1 X18.514 Y134.661 E186.00526
G1 X17.838 Y133.786 E186.09371
G1 X17.318 Y133.093 E186.16302
G1 X16.608 Y131.374 E186.31181
G1 X16.415 Y129.907 E186.43018
G1 X16.415 Y124.347 E186.87498
G1 X16.353 Y124.289 E186.88178
G1 X15.466 Y123.091 E187.00103
G1 X14.812 Y121.750 E187.12038
G1 X14.407 Y120.307 E187.24029
G1 X14.300 Y119.099 E187.33730
G1 X14.300 Y96.299 E189.16130
G1 X14.374 Y95.168 E189.25198
G1 X14.634 Y93.856 E189.35898
G1 X15.063 Y92.593 E189.46569
G1 X15.653 Y91.396 E189.57245
G1 X16.396 Y90.281 E189.67964
G1 X17.278 Y89.278 E189.78649
G1 X18.281 Y88.396 E189.89334
G1 X19.396 Y87.653 E190.00053
G1 X20.593 Y87.063 E190.10729
G1 X21.856 Y86.634 E190.21400
G0 F9000 X21.960 Y87.022
G1 F1200 X23.220 Y86.771 E190.31678
G1 X24.312 Y86.700 E190.40433
G1 X198.689 Y86.700 E204.35449
G1 X199.779 Y86.771 E204.44187
G1 X201.039 Y87.022 E204.54465
G1 X202.251 Y87.433 E204.64704
G1 X203.404 Y88.000 E204.74982
G1 X204.476 Y88.717 E204.85300
G1 X205.438 Y89.561 E204.95538
G1 X206.285 Y90.526 E205.05810
G1 X206.999 Y91.596 E205.16101
G1 X207.566 Y92.746 E205.26358
G1 X207.977 Y93.960 E205.36612
G1 X208.227 Y95.215 E205.46849
G1 X208.300 Y96.306 E205.55596
G1 X208.300 Y124.973 E207.84932
G1 X208.227 Y126.063 E207.93672
G1 X207.978 Y127.318 E208.03908
G1 X207.566 Y128.533 E208.14171
G1 X206.998 Y129.685 E208.24447
G1 X206.285 Y130.752 E208.34713
G1 X205.441 Y131.715 E208.44957
G1 X204.472 Y132.566 E208.55274
G1 X203.404 Y133.277 E208.65538
G1 X202.255 Y133.845 E208.75792
G1 X201.039 Y134.257 E208.86063
G1 X199.779 Y134.508 E208.96341
G1 X198.689 Y134.579 E209.05080
G1 X189.197 Y134.579 E209.81016
G1 X188.511 Y135.111 E209.87961
G1 X187.200 Y135.777 E209.99725
G1 X185.795 Y136.185 E210.11429
G1 X184.601 Y136.300 E210.21025
G1 X23.225 Y136.300 E223.12033
G1 X21.841 Y136.113 E223.23206
G1 X20.190 Y135.435 E223.37484
G1 X19.432 Y134.850 E223.45144
G1 X18.797 Y134.374 E223.51493
G1 X18.157 Y133.543 E223.59884
G1 X17.669 Y132.893 E223.66386
G1 X16.998 Y131.270 E223.80436
G1 X16.815 Y129.881 E223.91644
G1 X16.815 Y124.174 E224.37300
G1 X16.653 Y124.022 E224.39077
G1 X15.809 Y122.882 E224.50425
G1 X15.188 Y121.607 E224.61770
G1 X14.802 Y120.235 E224.73172
G1 X14.700 Y119.082 E224.82432
G1 X14.700 Y96.312 E226.64592
G1 X14.771 Y95.220 E226.73347
G1 X15.022 Y93.960 E226.83625
G1 X15.433 Y92.746 E226.93878
G1 X16.000 Y91.596 E227.04136
G1 X16.714 Y90.526 E227.14427
G1 X17.561 Y89.561 E227.24699
G1 X18.526 Y88.714 E227.34971
G1 X19.596 Y88.000 E227.45261
G1 X20.746 Y87.433 E227.55519
G1 X21.960 Y87.022 E227.65772
G0 F9000 X22.064 Y87.409
G1 F1200 X23.272 Y87.168 E227.75627
G1 X24.325 Y87.100 E227.84068
G1 X198.676 Y87.100 E241.78876
G1 X199.727 Y87.168 E241.87302
G1 X200.935 Y87.409 E241.97156
G1 X202.097 Y87.803 E242.06972
G1 X203.204 Y88.347 E242.16840
G1 X204.232 Y89.034 E242.26731
G1 X205.154 Y89.845 E242.36555
G1 X205.966 Y90.770 E242.46401
G1 X206.652 Y91.797 E242.56282
G1 X207.195 Y92.899 E242.66110
G1 X207.590 Y94.064 E242.75951
G1 X207.830 Y95.267 E242.85765
G1 X207.900 Y96.320 E242.94207
G1 X207.900 Y124.960 E245.23327
G1 X207.830 Y126.010 E245.31746
G1 X207.591 Y127.214 E245.41566
G1 X207.195 Y128.380 E245.51417
G1 X206.651 Y129.485 E245.61270
G1 X205.966 Y130.508 E245.71119
G1 X205.157 Y131.432 E245.80944
G1 X204.228 Y132.247 E245.90831
G1 X203.204 Y132.930 E246.00678
G1 X202.102 Y133.474 E246.10510
G1 X200.935 Y133.870 E246.20369
G1 X199.727 Y134.111 E246.30223
G1 X198.676 Y134.179 E246.38649
G1 X189.061 Y134.179 E247.15569
G1 X188.296 Y134.772 E247.23312
G1 X187.052 Y135.403 E247.34471
G1 X185.719 Y135.791 E247.45578
G1 X184.582 Y135.900 E247.54715
G1 X23.252 Y135.900 E260.45355
G1 X21.946 Y135.723 E260.55899
G1 X20.392 Y135.085 E260.69338
G1 X19.667 Y134.526 E260.76662
G1 X19.081 Y134.087 E260.82519
G1 X18.475 Y133.301 E260.90459
G1 X18.019 Y132.694 E260.96533
G1 X17.388 Y131.166 E261.09758
G1 X17.215 Y129.854 E261.20345
G1 X17.215 Y124.002 E261.67161
G1 X16.953 Y123.756 E261.70036
G1 X16.153 Y122.674 E261.80801
G1 X15.563 Y121.464 E261.91570
G1 X15.197 Y120.163 E262.02382
G1 X15.100 Y119.064 E262.11209
G1 X15.100 Y96.325 E263.93121
G1 X15.168 Y95.272 E264.01562
G1 X15.409 Y94.064 E264.11417
G1 X15.804 Y92.899 E264.21258
G1 X16.347 Y91.797 E264.31086
G1 X17.033 Y90.770 E264.40966
G1 X17.845 Y89.845 E264.50813
G1 X18.770 Y89.033 E264.60660
G1 X19.797 Y88.347 E264.70540
G1 X20.899 Y87.804 E264.80368
G1 X22.064 Y87.409 E264.90209
G0 F9000 X22.167 Y87.796
G1 F1200 X23.324 Y87.566 E264.99646
G1 X24.338 Y87.500 E265.07776
G1 X198.663 Y87.500 E279.02376
G1 X199.675 Y87.566 E279.10489
G1 X200.832 Y87.796 E279.19926
G1 X201.944 Y88.174 E279.29322
G1 X203.004 Y88.694 E279.38767
G1 X203.987 Y89.352 E279.48230
G1 X204.871 Y90.128 E279.57641
G1 X205.648 Y91.014 E279.67068
G1 X206.305 Y91.997 E279.76527
G1 X206.825 Y93.053 E279.85944
G1 X207.203 Y94.167 E279.95355
G1 X207.432 Y95.320 E280.04759
G1 X207.500 Y96.333 E280.12881
G1 X207.500 Y124.946 E282.41785
G1 X207.432 Y125.958 E282.49899
G1 X207.203 Y127.111 E282.59304
G1 X206.825 Y128.226 E282.68722
G1 X206.303 Y129.285 E282.78167
G1 X205.648 Y130.264 E282.87591
G1 X204.873 Y131.149 E282.97002
G1 X203.984 Y131.929 E283.06463
G1 X203.004 Y132.583 E283.15889
G1 X201.948 Y133.104 E283.25309
G1 X200.832 Y133.483 E283.34738
G1 X199.675 Y133.713 E283.44175
G1 X198.663 Y133.779 E283.52288
G1 X188.924 Y133.779 E284.30200
G1 X188.081 Y134.432 E284.38731
G1 X186.905 Y135.029 E284.49281
G1 X185.643 Y135.396 E284.59796
G1 X184.562 Y135.500 E284.68484
G1 X23.279 Y135.500 E297.58748
G1 X22.050 Y135.334 E297.68669
G1 X20.593 Y134.736 E297.81268
G1 X19.908 Y134.207 E297.88192
G1 X19.364 Y133.799 E297.93632
G1 X18.793 Y133.059 E298.01110
G1 X18.370 Y132.494 E298.06756
G1 X17.778 Y131.061 E298.19160
G1 X17.615 Y129.828 E298.29110
G1 X17.615 Y123.829 E298.77102
G1 X17.253 Y123.489 E298.81075
G1 X16.496 Y122.465 E298.91262
G1 X15.938 Y121.321 E299.01445
G1 X15.593 Y120.090 E299.11672
G1 X15.500 Y119.046 E299.20057
G1 X15.500 Y96.338 E301.01721
G1 X15.566 Y95.324 E301.09851
G1 X15.796 Y94.167 E301.19288
G1 X16.174 Y93.053 E301.28699
G1 X16.694 Y91.997 E301.38116
G1 X17.351 Y91.014 E301.47574
G1 X18.128 Y90.128 E301.57002
G1 X19.014 Y89.351 E301.66429
G1 X19.997 Y88.694 E301.75888
G1 X21.053 Y88.174 E301.85305
G1 X22.167 Y87.796 E301.94716
G0 F9000 X22.271 Y88.183
G1 F1200 X23.377 Y87.963 E302.03737
G1 X24.351 Y87.900 E302.11546
G1 X198.650 Y87.900 E316.05938
G1 X199.623 Y87.963 E316.13738
G1 X200.728 Y88.183 E316.22751
G1 X201.791 Y88.544 E316.31732
G1 X202.804 Y89.042 E316.40763
G1 X203.743 Y89.670 E316.49800
G1 X204.588 Y90.411 E316.58791
G1 X205.330 Y91.258 E316.67799
G1 X205.957 Y92.197 E316.76832
G1 X206.454 Y93.206 E316.85830
G1 X206.816 Y94.271 E316.94829
G1 X207.035 Y95.372 E317.03809
G1 X207.100 Y96.346 E317.11619
G1 X207.100 Y124.933 E319.40315
G1 X207.035 Y125.905 E319.48108
G1 X206.816 Y127.007 E319.57096
G1 X206.454 Y128.073 E319.66103
G1 X205.956 Y129.084 E319.75119
G1 X205.330 Y130.020 E319.84127
G1 X204.590 Y130.866 E319.93119
G1 X203.740 Y131.611 E320.02161
G1 X202.803 Y132.236 E320.11172
G1 X201.795 Y132.734 E320.20166
G1 X200.728 Y133.096 E320.29180
G1 X199.623 Y133.316 E320.38193
G1 X198.650 Y133.379 E320.45994
G1 X188.787 Y133.379 E321.24898
G1 X187.866 Y134.093 E321.34221
G1 X186.757 Y134.656 E321.44170
G1 X185.568 Y135.002 E321.54077
G1 X184.543 Y135.100 E321.62314
G1 X23.306 Y135.100 E334.52210
G1 X22.155 Y134.944 E334.61503
G1 X20.795 Y134.386 E334.73263
