;FLAVOR:UltiGCode
;TIME:13543
;MATERIAL:10218
;MATERIAL2:0
;NOZZLE_DIAMETER:0.400000
;NOZZLE_DIAMETER2:0.400000

;Layer count: 29
;LAYER:0
M107
G0 F9000 X20.582 Y85.600 Z0.200
;TYPE:SKIRT
G1 F1200 X22.122 Y85.450 E0.12378
G1 X200.879 Y85.450 E14.42434
G1 X202.417 Y85.600 E14.54797
G1 X204.267 Y86.162 E14.70265
G1 X205.961 Y87.068 E14.85633
G1 X207.457 Y88.292 E15.01096
G1 X208.681 Y89.788 E15.16560
G1 X209.587 Y91.482 E15.31928
G1 X210.146 Y93.323 E15.47320
G1 X210.300 Y94.862 E15.59694
G1 X210.300 Y124.290 E17.95118
G1 X210.214 Y125.575 E18.05421
G1 X209.914 Y127.086 E18.17745
G1 X209.417 Y128.549 E18.30106
G1 X208.734 Y129.938 E18.42488
G1 X207.875 Y131.222 E18.54847
G1 X206.859 Y132.382 E18.67183
G1 X205.692 Y133.406 E18.79604
G1 X204.406 Y134.263 E18.91967
G1 X203.023 Y134.946 E19.04307
G1 X201.558 Y135.444 E19.16685
G1 X200.040 Y135.745 E19.29066
G1 X198.754 Y135.829 E19.39376
G1 X189.882 Y135.829 E20.10352
G1 X189.586 Y136.059 E20.13350
G1 X187.938 Y136.895 E20.28134
G1 X186.173 Y137.408 E20.42838
G1 X184.697 Y137.550 E20.54701
G1 X23.090 Y137.550 E33.47557
G1 X21.319 Y137.311 E33.61853
G1 X19.181 Y136.432 E33.80346
G1 X18.223 Y135.693 E33.90026
G1 X17.380 Y135.061 E33.98454
G1 X16.565 Y134.004 E34.09132
G1 X15.917 Y133.141 E34.17766
G1 X15.050 Y131.041 E34.35941
G1 X14.815 Y129.262 E34.50297
G1 X14.815 Y124.151 E34.91185
G1 X14.092 Y123.174 E35.00908
G1 X13.311 Y121.572 E35.15166
G1 X12.826 Y119.847 E35.29501
G1 X12.700 Y118.420 E35.40962
G1 X12.700 Y94.872 E37.29346
G1 X12.850 Y93.332 E37.41724
G1 X13.412 Y91.482 E37.57192
G1 X14.318 Y89.788 E37.72560
G1 X15.542 Y88.292 E37.88024
G1 X17.038 Y87.068 E38.03487
G1 X18.732 Y86.162 E38.18855
G1 X20.582 Y85.600 E38.34323
G0 F9000 X20.661 Y85.994
G1 F1200 X22.141 Y85.850 E38.46219
G1 X200.860 Y85.850 E52.75971
G1 X202.339 Y85.994 E52.87859
G1 X204.113 Y86.533 E53.02692
G1 X205.738 Y87.402 E53.17434
G1 X207.173 Y88.576 E53.32266
G1 X208.347 Y90.011 E53.47099
G1 X209.216 Y91.636 E53.61841
G1 X209.752 Y93.402 E53.76605
G1 X209.900 Y94.882 E53.88504
G1 X209.900 Y124.277 E56.23664
G1 X209.816 Y125.523 E56.33655
G1 X209.527 Y126.983 E56.45561
G1 X209.047 Y128.396 E56.57500
G1 X208.386 Y129.737 E56.69460
G1 X207.557 Y130.978 E56.81400
G1 X206.575 Y132.099 E56.93322
G1 X205.448 Y133.088 E57.05317
G1 X204.206 Y133.916 E57.17259
G1 X202.869 Y134.576 E57.29187
G1 X201.454 Y135.056 E57.41141
G1 X199.988 Y135.348 E57.53099
G1 X198.741 Y135.429 E57.63096
G1 X189.745 Y135.429 E58.35064
G1 X189.371 Y135.719 E58.38850
G1 X187.790 Y136.521 E58.53033
G1 X186.097 Y137.014 E58.67139
G1 X184.677 Y137.150 E58.78551
G1 X23.117 Y137.150 E71.71031
G1 X21.423 Y136.921 E71.84706
G1 X19.383 Y136.083 E72.02350
G1 X18.466 Y135.375 E72.11618
G1 X17.663 Y134.773 E72.19647
G1 X16.883 Y133.762 E72.29862
G1 X16.267 Y132.941 E72.38073
G1 X15.439 Y130.937 E72.55420
G1 X15.215 Y129.235 E72.69153
G1 X15.215 Y124.019 E73.10881
G1 X14.436 Y122.966 E73.21360
G1 X13.686 Y121.429 E73.35042
G1 X13.222 Y119.774 E73.48792
G1 X13.100 Y118.402 E73.59811
G1 X13.100 Y94.891 E75.47899
G1 X13.244 Y93.411 E75.59795
G1 X13.783 Y91.636 E75.74636
G1 X14.652 Y90.011 E75.89378
G1 X15.826 Y88.576 E76.04210
G1 X17.261 Y87.402 E76.19042
G1 X18.886 Y86.533 E76.33785
G1 X20.661 Y85.994 E76.48625
G0 F9000 X20.739 Y86.388
G1 F1200 X22.161 Y86.250 E76.60054
G1 X200.840 Y86.250 E90.89486
G1 X202.261 Y86.388 E91.00908
G1 X203.959 Y86.905 E91.15107
G1 X205.515 Y87.737 E91.29223
G1 X206.888 Y88.861 E91.43418
G1 X208.012 Y90.234 E91.57614
G1 X208.844 Y91.790 E91.71729
G1 X209.358 Y93.480 E91.85861
G1 X209.500 Y94.902 E91.97294
G1 X209.500 Y124.263 E94.32182
G1 X209.419 Y125.470 E94.41859
G1 X209.140 Y126.879 E94.53350
G1 X208.677 Y128.243 E94.64874
G1 X208.039 Y129.537 E94.76415
G1 X207.239 Y130.734 E94.87933
G1 X206.292 Y131.815 E94.99430
G1 X205.204 Y132.770 E95.11012
G1 X204.005 Y133.569 E95.22538
G1 X202.716 Y134.206 E95.34041
G1 X201.350 Y134.669 E95.45580
G1 X199.936 Y134.950 E95.57113
G1 X198.728 Y135.029 E95.66797
G1 X189.609 Y135.029 E96.39749
G1 X189.156 Y135.380 E96.44334
G1 X187.643 Y136.148 E96.57908
G1 X186.022 Y136.619 E96.71412
G1 X184.658 Y136.750 E96.82375
G1 X23.144 Y136.750 E109.74487
G1 X21.528 Y136.532 E109.87532
G1 X19.585 Y135.733 E110.04339
G1 X18.711 Y135.060 E110.13163
G1 X17.947 Y134.486 E110.20808
G1 X17.202 Y133.520 E110.30567
G1 X16.618 Y132.742 E110.38350
G1 X15.829 Y130.833 E110.54875
G1 X15.615 Y129.209 E110.67979
G1 X15.615 Y123.887 E111.10555
G1 X14.779 Y122.757 E111.21800
G1 X14.061 Y121.286 E111.34895
G1 X13.617 Y119.702 E111.48056
G1 X13.500 Y118.385 E111.58633
G1 X13.500 Y94.911 E113.46425
G1 X13.638 Y93.489 E113.57855
G1 X14.155 Y91.790 E113.72062
G1 X14.987 Y90.234 E113.86178
G1 X16.111 Y88.861 E114.00373
G1 X17.484 Y87.737 E114.14568
G1 X19.040 Y86.905 E114.28684
G1 X20.739 Y86.388 E114.42891
G0 F9000 X20.817 Y86.782
G1 F1200 X22.180 Y86.650 E114.53846
G1 X200.821 Y86.650 E128.82974
G1 X202.182 Y86.783 E128.93914
G1 X203.805 Y87.276 E129.07484
G1 X205.292 Y88.071 E129.20973
G1 X206.604 Y89.145 E129.34538
G1 X207.678 Y90.457 E129.48102
G1 X208.473 Y91.944 E129.61591
G1 X208.964 Y93.559 E129.75095
G1 X209.100 Y94.922 E129.86053
G1 X209.100 Y124.250 E132.20677
G1 X209.022 Y125.418 E132.30042
G1 X208.752 Y126.775 E132.41111
G1 X208.306 Y128.089 E132.52212
G1 X207.692 Y129.336 E132.63332
G1 X206.921 Y130.490 E132.74435
G1 X206.008 Y131.532 E132.85518
G1 X204.960 Y132.452 E132.96674
G1 X203.805 Y133.222 E133.07779
G1 X202.562 Y133.835 E133.18867
G1 X201.246 Y134.282 E133.29985
G1 X199.884 Y134.553 E133.41095
G1 X198.715 Y134.629 E133.50467
G1 X189.471 Y134.629 E134.24419
G1 X188.941 Y135.040 E134.29784
G1 X187.495 Y135.774 E134.42757
G1 X185.946 Y136.225 E134.55664
G1 X184.639 Y136.350 E134.66167
G1 X23.171 Y136.350 E147.57911
G1 X21.632 Y136.142 E147.70335
G1 X19.786 Y135.384 E147.86300
G1 X18.944 Y134.734 E147.94810
G1 X18.230 Y134.199 E148.01947
G1 X17.520 Y133.278 E148.11250
G1 X16.968 Y132.542 E148.18610
G1 X16.219 Y130.729 E148.34303
G1 X16.015 Y129.183 E148.46779
G1 X16.015 Y123.755 E148.90203
G1 X15.123 Y122.549 E149.02203
G1 X14.437 Y121.143 E149.14718
G1 X14.012 Y119.630 E149.27291
G1 X13.900 Y118.367 E149.37434
G1 X13.900 Y94.930 E151.24930
G1 X14.032 Y93.567 E151.35885
G1 X14.526 Y91.944 E151.49457
G1 X15.321 Y90.457 E151.62947
G1 X16.395 Y89.145 E151.76511
G1 X17.707 Y88.071 E151.90075
G1 X19.194 Y87.276 E152.03565
G1 X20.817 Y86.782 E152.17137
G0 F9000 X20.896 Y87.177
G1 F1200 X22.199 Y87.050 E152.27610
G1 X200.801 Y87.050 E166.56426
G1 X202.104 Y87.177 E166.66900
G1 X203.651 Y87.647 E166.79834
G1 X205.069 Y88.405 E166.92697
G1 X206.320 Y89.429 E167.05631
G1 X207.344 Y90.680 E167.18564
G1 X208.102 Y92.098 E167.31427
G1 X208.570 Y93.638 E167.44303
G1 X208.700 Y94.942 E167.54787
G1 X208.700 Y124.237 E169.89147
G1 X208.624 Y125.365 E169.98191
G1 X208.365 Y126.672 E170.08851
G1 X207.936 Y127.936 E170.19529
G1 X207.345 Y129.136 E170.30230
G1 X206.603 Y130.246 E170.40912
G1 X205.724 Y131.249 E170.51581
G1 X204.716 Y132.134 E170.62312
G1 X203.605 Y132.875 E170.72995
G1 X202.409 Y133.465 E170.83664
G1 X201.143 Y133.895 E170.94361
G1 X199.832 Y134.155 E171.05053
G1 X198.702 Y134.229 E171.14112
G1 X189.334 Y134.229 E171.89056
G1 X188.726 Y134.701 E171.95214
G1 X187.347 Y135.400 E172.07582
G1 X185.870 Y135.830 E172.19889
G1 X184.620 Y135.950 E172.29935
G1 X23.198 Y135.950 E185.21311
G1 X21.737 Y135.753 E185.33105
G1 X19.988 Y135.034 E185.48233
G1 X19.187 Y134.416 E185.56326
G1 X18.514 Y133.911 E185.63057
G1 X17.838 Y133.036 E185.71903
G1 X17.318 Y132.343 E185.78834
G1 X16.608 Y130.624 E185.93713
G1 X16.415 Y129.157 E186.05550
G1 X16.415 Y123.597 E186.50030
G1 X16.353 Y123.539 E186.50710
G1 X15.466 Y122.341 E186.62635
G1 X14.812 Y121.000 E186.74570
G1 X14.407 Y119.557 E186.86560
G1 X14.300 Y118.349 E186.96262
G1 X14.300 Y94.949 E188.83462
G1 X14.427 Y93.646 E188.93936
G1 X14.897 Y92.098 E189.06878
G1 X15.655 Y90.680 E189.19741
G1 X16.679 Y89.429 E189.32674
G1 X17.930 Y88.405 E189.45607
G1 X19.348 Y87.647 E189.58471
G1 X20.896 Y87.177 E189.71413
G0 F9000 X20.974 Y87.571
G1 F1200 X22.219 Y87.450 E189.81420
G1 X200.782 Y87.450 E204.09924
G1 X202.026 Y87.571 E204.19923
G1 X203.497 Y88.019 E204.32224
G1 X204.846 Y88.740 E204.44461
G1 X206.036 Y89.713 E204.56758
G1 X207.009 Y90.903 E204.69055
G1 X207.730 Y92.252 E204.81292
G1 X208.176 Y93.717 E204.93543
G1 X208.300 Y94.961 E205.03545
G1 X208.300 Y124.223 E207.37641
G1 X208.227 Y125.313 E207.46380
G1 X207.978 Y126.568 E207.56616
G1 X207.566 Y127.783 E207.66879
G1 X206.998 Y128.935 E207.77155
G1 X206.285 Y130.002 E207.87421
G1 X205.441 Y130.965 E207.97665
G1 X204.472 Y131.816 E208.07982
G1 X203.404 Y132.527 E208.18246
G1 X202.255 Y133.095 E208.28500
G1 X201.039 Y133.507 E208.38771
G1 X199.779 Y133.758 E208.49050
G1 X198.689 Y133.829 E208.57788
G1 X189.197 Y133.829 E209.33724
G1 X188.511 Y134.361 E209.40669
G1 X187.200 Y135.027 E209.52433
G1 X185.795 Y135.435 E209.64137
G1 X184.601 Y135.550 E209.73733
G1 X23.225 Y135.550 E222.64741
G1 X21.841 Y135.363 E222.75914
G1 X20.190 Y134.685 E222.90192
G1 X19.432 Y134.100 E222.97852
G1 X18.797 Y133.624 E223.04201
G1 X18.157 Y132.793 E223.12592
G1 X17.669 Y132.143 E223.19094
G1 X16.998 Y130.520 E223.33144
G1 X16.815 Y129.131 E223.44352
G1 X16.815 Y123.424 E223.90008
G1 X16.653 Y123.272 E223.91785
G1 X15.809 Y122.132 E224.03133
G1 X15.188 Y120.857 E224.14478
G1 X14.802 Y119.485 E224.25881
G1 X14.700 Y118.332 E224.35141
G1 X14.700 Y94.969 E226.22045
G1 X14.821 Y93.724 E226.32051
G1 X15.269 Y92.252 E226.44361
G1 X15.990 Y90.903 E226.56597
G1 X16.963 Y89.713 E226.68895
G1 X18.153 Y88.740 E226.81192
G1 X19.502 Y88.019 E226.93429
G1 X20.974 Y87.571 E227.05738
G0 F9000 X21.052 Y87.965
G1 F1200 X22.238 Y87.850 E227.15270
G1 X200.762 Y87.850 E241.43462
G1 X201.947 Y87.965 E241.52987
G1 X203.343 Y88.390 E241.64661
G1 X204.623 Y89.074 E241.76271
G1 X205.751 Y89.998 E241.87936
G1 X206.675 Y91.126 E241.99602
G1 X207.359 Y92.406 E242.11212
G1 X207.782 Y93.796 E242.22835
G1 X207.900 Y94.981 E242.32362
G1 X207.900 Y124.210 E244.66194
G1 X207.830 Y125.260 E244.74613
G1 X207.591 Y126.464 E244.84433
G1 X207.195 Y127.630 E244.94284
G1 X206.651 Y128.735 E245.04137
G1 X205.966 Y129.758 E245.13987
G1 X205.157 Y130.682 E245.23812
G1 X204.228 Y131.497 E245.33698
G1 X203.204 Y132.180 E245.43545
G1 X202.102 Y132.724 E245.53377
G1 X200.935 Y133.120 E245.63236
G1 X199.727 Y133.361 E245.73090
G1 X198.676 Y133.429 E245.81516
G1 X189.061 Y133.429 E246.58436
G1 X188.296 Y134.022 E246.66179
G1 X187.052 Y134.653 E246.77338
G1 X185.719 Y135.041 E246.88445
G1 X184.582 Y135.150 E246.97582
G1 X23.252 Y135.150 E259.88222
G1 X21.946 Y134.973 E259.98766
G1 X20.392 Y134.335 E260.12205
G1 X19.667 Y133.776 E260.19529
G1 X19.081 Y133.337 E260.25386
G1 X18.475 Y132.551 E260.33326
G1 X18.019 Y131.944 E260.39400
G1 X17.388 Y130.416 E260.52625
G1 X17.215 Y129.104 E260.63212
G1 X17.215 Y123.252 E261.10028
G1 X16.953 Y123.006 E261.12903
G1 X16.153 Y121.924 E261.23668
G1 X15.563 Y120.714 E261.34438
G1 X15.197 Y119.413 E261.45250
G1 X15.100 Y118.314 E261.54076
G1 X15.100 Y94.988 E263.40684
G1 X15.215 Y93.802 E263.50216
G1 X15.640 Y92.406 E263.61890
G1 X16.324 Y91.126 E263.73501
G1 X17.248 Y89.998 E263.85166
G1 X18.376 Y89.074 E263.96831
G1 X19.656 Y88.390 E264.08441
G1 X21.052 Y87.965 E264.20115
G0 F9000 X21.130 Y88.360
G1 F1200 X22.258 Y88.250 E264.29182
G1 X200.743 Y88.250 E278.57062
G1 X201.869 Y88.360 E278.66113
G1 X203.189 Y88.761 E278.77150
G1 X204.400 Y89.408 E278.88134
G1 X205.467 Y90.282 E278.99168
G1 X206.341 Y91.349 E279.10202
G1 X206.988 Y92.560 E279.21186
G1 X207.388 Y93.874 E279.32174
G1 X207.500 Y95.001 E279.41234
G1 X207.500 Y124.196 E281.74794
G1 X207.432 Y125.208 E281.82909
G1 X207.203 Y126.361 E281.92313
G1 X206.825 Y127.476 E282.01732
G1 X206.303 Y128.535 E282.11177
G1 X205.648 Y129.514 E282.20600
G1 X204.873 Y130.399 E282.30011
G1 X203.984 Y131.179 E282.39472
G1 X203.004 Y131.833 E282.48898
G1 X201.948 Y132.354 E282.58318
G1 X200.832 Y132.733 E282.67747
G1 X199.675 Y132.963 E282.77184
G1 X198.663 Y133.029 E282.85297
G1 X188.924 Y133.029 E283.63209
G1 X188.081 Y133.682 E283.71740
G1 X186.905 Y134.279 E283.82291
G1 X185.643 Y134.646 E283.92805
G1 X184.562 Y134.750 E284.01493
G1 X23.279 Y134.750 E296.91757
G1 X22.050 Y134.584 E297.01678
G1 X20.593 Y133.986 E297.14278
G1 X19.908 Y133.457 E297.21202
G1 X19.364 Y133.049 E297.26642
G1 X18.793 Y132.309 E297.34119
G1 X18.370 Y131.744 E297.39766
G1 X17.778 Y130.311 E297.52169
G1 X17.615 Y129.078 E297.62119
G1 X17.615 Y123.079 E298.10111
G1 X17.253 Y122.739 E298.14084
G1 X16.496 Y121.715 E298.24272
G1 X15.938 Y120.571 E298.34454
G1 X15.593 Y119.340 E298.44682
G1 X15.500 Y118.296 E298.53067
G1 X15.500 Y95.008 E300.39371
G1 X15.610 Y93.880 E300.48438
G1 X16.011 Y92.560 E300.59474
G1 X16.658 Y91.349 E300.70458
G1 X17.532 Y90.282 E300.81492
G1 X18.599 Y89.408 E300.92526
G1 X19.810 Y88.761 E301.03510
G1 X21.130 Y88.360 E301.14547
G0 F9000 X21.209 Y88.754
G1 F1200 X22.277 Y88.650 E301.23131
G1 X200.724 Y88.650 E315.50707
G1 X201.791 Y88.754 E315.59284
G1 X203.035 Y89.132 E315.69685
G1 X204.177 Y89.742 E315.80043
G1 X205.183 Y90.566 E315.90446
G1 X206.007 Y91.572 E316.00849
G1 X206.617 Y92.714 E316.11207
G1 X206.993 Y93.953 E316.21565
G1 X207.100 Y95.021 E316.30152
G1 X207.100 Y124.183 E318.63448
G1 X207.035 Y125.155 E318.71241
G1 X206.816 Y126.257 E318.80230
G1 X206.454 Y127.323 E318.89236
G1 X205.956 Y128.334 E318.98252
G1 X205.330 Y129.270 E319.07260
G1 X204.590 Y130.116 E319.16252
G1 X203.740 Y130.861 E319.25294
G1 X202.803 Y131.486 E319.34305
G1 X201.795 Y131.984 E319.43299
G1 X200.728 Y132.346 E319.52313
G1 X199.623 Y132.566 E319.61327
G1 X198.650 Y132.629 E319.69127
G1 X188.787 Y132.629 E320.48031
G1 X187.866 Y133.343 E320.57354
G1 X186.757 Y133.906 E320.67303
G1 X185.568 Y134.252 E320.77210
G1 X184.543 Y134.350 E320.85447
G1 X23.306 Y134.350 E333.75343
G1 X22.155 Y134.194 E333.84636
G1 X20.795 Y133.636 E333.96396
G1 X20.153 Y133.141 E334.02881
G1 X19.648 Y132.762 E334.07932
G1 X19.112 Y132.067 E334.14954
G1 X18.720 Y131.545 E334.20176
G1 X18.167 Y130.207 E334.31758
G1 X18.015 Y129.052 E334.41078
G1 X18.015 Y122.906 E334.90246
G1 X17.553 Y122.472 E334.95317
G1 X16.840 Y121.507 E335.04916
G1 X16.314 Y120.428 E335.14519
G1 X15.988 Y119.268 E335.24158
G1 X15.900 Y118.278 E335.32109
G1 X15.900 Y95.027 E337.18117
G1 X16.004 Y93.959 E337.26702
G1 X16.382 Y92.714 E337.37111
G1 X16.992 Y91.572 E337.47468
G1 X17.816 Y90.566 E337.57872
G1 X18.822 Y89.742 E337.68275
G1 X19.964 Y89.132 E337.78632
G1 X21.209 Y88.754 E337.89041
G0 F9000 X21.287 Y89.148
G1 F1200 X22.296 Y89.050 E337.97151
G1 X200.704 Y89.050 E352.24415
G1 X201.712 Y89.148 E352.32517
G1 X202.881 Y89.504 E352.42293
G1 X203.953 Y90.077 E352.52018
G1 X204.899 Y90.850 E352.61791
G1 X205.672 Y91.796 E352.71564
G1 X206.245 Y92.868 E352.81288
G1 X206.599 Y94.032 E352.91021
G1 X206.700 Y95.041 E352.99134
G1 X206.700 Y124.170 E355.32166
G1 X206.637 Y125.103 E355.39647
G1 X206.429 Y126.153 E355.48210
G1 X206.084 Y127.170 E355.56801
G1 X205.609 Y128.134 E355.65399
G1 X205.012 Y129.026 E355.73986
G1 X204.306 Y129.832 E355.82557
G1 X203.497 Y130.543 E355.91174
G1 X202.603 Y131.139 E355.99769
G1 X201.641 Y131.613 E356.08349
G1 X200.624 Y131.959 E356.16943
G1 X199.570 Y132.168 E356.25539
G1 X198.637 Y132.229 E356.33019
G1 X188.629 Y132.229 E357.13083
G1 X188.582 Y132.282 E357.13650
G1 X187.651 Y133.003 E357.23070
G1 X186.609 Y133.532 E357.32419
G1 X185.492 Y133.857 E357.41725
G1 X184.524 Y133.950 E357.49505
G1 X23.333 Y133.950 E370.39033
G1 X22.259 Y133.805 E370.47703
G1 X20.997 Y133.286 E370.58619
G1 X20.420 Y132.841 E370.64449
G1 X19.931 Y132.474 E370.69340
G1 X19.430 Y131.825 E370.75899
G1 X19.070 Y131.345 E370.80699
G1 X18.557 Y130.103 E370.91449
G1 X18.415 Y129.026 E371.00140
G1 X18.415 Y122.732 E371.50492
G1 X17.854 Y122.205 E371.56649
G1 X17.183 Y121.299 E371.65669
G1 X16.689 Y120.285 E371.74692
G1 X16.383 Y119.196 E371.83741
G1 X16.300 Y118.261 E371.91251
G1 X16.300 Y95.046 E373.76971
G1 X16.398 Y94.037 E373.85081
