;FLAVOR:UltiGCode
;TIME:6998
;MATERIAL:5410
;MATERIAL2:0
;NOZZLE_DIAMETER:0.400000
;NOZZLE_DIAMETER2:0.400000

;Layer count: 29
;LAYER:0
M107
G0 F9000 X45.960 Y90.588 Z0.200
;TYPE:SKIRT
G1 F1200 X47.441 Y90.085 E0.12513
G1 X48.959 Y89.784 E0.24893
G1 X50.247 Y89.700 E0.35219
G1 X172.754 Y89.700 E10.15275
G1 X174.040 Y89.784 E10.25585
G1 X175.558 Y90.085 E10.37965
G1 X177.016 Y90.581 E10.50286
G1 X178.406 Y91.264 E10.62676
G1 X179.697 Y92.127 E10.75099
G1 X180.855 Y93.144 E10.87428
G1 X181.875 Y94.305 E10.99792
G1 X182.735 Y95.595 E11.12195
G1 X183.417 Y96.980 E11.24545
G1 X183.914 Y98.441 E11.36891
G1 X184.214 Y99.952 E11.49215
G1 X184.300 Y101.239 E11.59534
G1 X184.300 Y121.581 E13.22270
G1 X184.256 Y122.439 E13.29143
G1 X184.207 Y123.082 E13.34302
G1 X183.914 Y124.558 E13.46340
G1 X183.418 Y126.016 E13.58661
G1 X182.735 Y127.406 E13.71051
G1 X181.872 Y128.697 E13.83474
G1 X180.855 Y129.855 E13.95803
G1 X179.697 Y130.872 E14.08133
G1 X178.406 Y131.735 E14.20556
G1 X177.016 Y132.418 E14.32946
G1 X175.558 Y132.914 E14.45266
G1 X174.048 Y133.214 E14.57582
G1 X172.761 Y133.300 E14.67901
G1 X50.239 Y133.300 E24.48077
G1 X48.952 Y133.214 E24.58396
G1 X47.441 Y132.914 E24.70720
G1 X45.980 Y132.417 E24.83066
G1 X44.595 Y131.735 E24.95416
G1 X43.305 Y130.875 E25.07819
G1 X42.144 Y129.855 E25.20183
G1 X41.127 Y128.697 E25.32512
G1 X40.264 Y127.406 E25.44935
G1 X39.581 Y126.016 E25.57325
G1 X39.085 Y124.558 E25.69646
G1 X38.784 Y123.040 E25.82026
G1 X38.700 Y121.754 E25.92336
G1 X38.700 Y101.734 E27.52496
G1 X38.738 Y100.626 E27.61365
G1 X38.792 Y99.917 E27.67054
G1 X39.085 Y98.441 E27.79092
G1 X39.582 Y96.980 E27.91438
G1 X40.264 Y95.595 E28.03788
G1 X41.124 Y94.305 E28.16191
G1 X42.144 Y93.144 E28.28555
G1 X43.304 Y92.126 E28.40902
G1 X44.556 Y91.289 E28.52950
G1 X45.960 Y90.588 E28.65504
G0 F9000 X46.115 Y90.958
G1 F1200 X47.545 Y90.473 E28.77584
G1 X49.011 Y90.181 E28.89542
G1 X50.260 Y90.100 E28.99555
G1 X172.741 Y90.100 E38.79403
G1 X173.988 Y90.181 E38.89400
G1 X175.454 Y90.473 E39.01359
G1 X176.863 Y90.951 E39.13262
G1 X178.206 Y91.611 E39.25233
G1 X179.453 Y92.445 E39.37235
G1 X180.572 Y93.427 E39.49145
G1 X181.557 Y94.549 E39.61089
G1 X182.388 Y95.795 E39.73070
G1 X183.047 Y97.133 E39.85002
G1 X183.526 Y98.545 E39.96931
G1 X183.816 Y100.004 E40.08831
G1 X183.900 Y101.253 E40.18846
G1 X183.900 Y121.570 E41.81382
G1 X183.857 Y122.414 E41.88142
G1 X183.810 Y123.027 E41.93061
G1 X183.526 Y124.454 E42.04701
G1 X183.048 Y125.863 E42.16604
G1 X182.388 Y127.206 E42.28575
G1 X181.554 Y128.453 E42.40576
G1 X180.572 Y129.572 E42.52487
G1 X179.453 Y130.554 E42.64397
G1 X178.206 Y131.388 E42.76398
G1 X176.863 Y132.048 E42.88370
G1 X175.454 Y132.526 E43.00273
G1 X173.995 Y132.816 E43.12173
G1 X172.748 Y132.900 E43.22172
G1 X50.253 Y132.900 E53.02132
G1 X49.004 Y132.816 E53.12146
G1 X47.545 Y132.526 E53.24047
G1 X46.133 Y132.047 E53.35975
G1 X44.795 Y131.388 E53.47907
G1 X43.549 Y130.557 E53.59888
G1 X42.427 Y129.572 E53.71832
G1 X41.445 Y128.453 E53.83743
G1 X40.611 Y127.206 E53.95744
G1 X39.951 Y125.863 E54.07716
G1 X39.473 Y124.454 E54.19619
G1 X39.181 Y122.988 E54.31577
G1 X39.100 Y121.741 E54.41574
G1 X39.100 Y101.740 E56.01582
G1 X39.138 Y100.648 E56.10323
G1 X39.189 Y99.972 E56.15747
G1 X39.473 Y98.545 E56.27386
G1 X39.952 Y97.133 E56.39315
G1 X40.611 Y95.795 E56.51247
G1 X41.442 Y94.549 E56.63228
G1 X42.427 Y93.427 E56.75172
G1 X43.548 Y92.444 E56.87100
G1 X44.757 Y91.635 E56.98738
G1 X46.115 Y90.958 E57.10877
G0 F9000 X46.269 Y91.328
G1 F1200 X47.649 Y90.860 E57.22534
G1 X49.063 Y90.579 E57.34067
G1 X50.273 Y90.500 E57.43768
G1 X172.728 Y90.500 E67.23408
G1 X173.936 Y90.579 E67.33093
G1 X175.350 Y90.860 E67.44626
G1 X176.710 Y91.321 E67.56114
G1 X178.005 Y91.958 E67.67660
G1 X179.208 Y92.763 E67.79239
G1 X180.288 Y93.711 E67.90736
G1 X181.239 Y94.793 E68.02260
G1 X182.041 Y95.996 E68.13827
G1 X182.677 Y97.286 E68.25333
G1 X183.139 Y98.649 E68.36846
G1 X183.419 Y100.057 E68.48331
G1 X183.500 Y101.266 E68.58024
G1 X183.500 Y121.560 E70.20376
G1 X183.457 Y122.388 E70.27009
G1 X183.413 Y122.973 E70.31703
G1 X183.139 Y124.350 E70.42935
G1 X182.678 Y125.710 E70.54423
G1 X182.041 Y127.005 E70.65968
G1 X181.236 Y128.208 E70.77548
G1 X180.288 Y129.288 E70.89044
G1 X179.208 Y130.236 E71.00541
G1 X178.005 Y131.041 E71.12121
G1 X176.710 Y131.678 E71.23666
G1 X175.350 Y132.139 E71.35154
G1 X173.943 Y132.419 E71.46631
G1 X172.734 Y132.500 E71.56325
G1 X50.266 Y132.500 E81.36069
G1 X49.057 Y132.419 E81.45762
G1 X47.649 Y132.139 E81.57247
G1 X46.286 Y131.677 E81.68760
G1 X44.996 Y131.041 E81.80266
G1 X43.793 Y130.239 E81.91833
G1 X42.711 Y129.288 E82.03357
G1 X41.763 Y128.208 E82.14854
G1 X40.958 Y127.005 E82.26434
G1 X40.321 Y125.710 E82.37979
G1 X39.860 Y124.350 E82.49467
G1 X39.579 Y122.936 E82.61000
G1 X39.500 Y121.728 E82.70685
G1 X39.500 Y101.747 E84.30533
G1 X39.537 Y100.670 E84.39154
G1 X39.586 Y100.026 E84.44321
G1 X39.860 Y98.649 E84.55553
G1 X40.322 Y97.286 E84.67066
G1 X40.958 Y95.996 E84.78572
G1 X41.760 Y94.793 E84.90139
G1 X42.711 Y93.711 E85.01663
G1 X43.792 Y92.762 E85.13171
G1 X44.959 Y91.982 E85.24400
G1 X46.269 Y91.328 E85.36114
G0 F9000 X46.423 Y91.698
G1 F1200 X47.753 Y91.247 E85.47349
G1 X49.116 Y90.976 E85.58466
G1 X50.286 Y90.900 E85.67846
G1 X172.715 Y90.900 E95.47278
G1 X173.884 Y90.976 E95.56650
G1 X175.246 Y91.247 E95.67759
G1 X176.557 Y91.692 E95.78835
G1 X177.805 Y92.305 E95.89958
G1 X178.964 Y93.081 E96.01117
G1 X180.005 Y93.994 E96.12194
G1 X180.921 Y95.037 E96.23299
G1 X181.694 Y96.196 E96.34444
G1 X182.306 Y97.440 E96.45535
G1 X182.752 Y98.753 E96.56629
G1 X183.022 Y100.109 E96.67690
G1 X183.100 Y101.279 E96.77070
G1 X183.100 Y121.550 E98.39238
G1 X183.058 Y122.363 E98.45751
G1 X183.016 Y122.919 E98.50212
G1 X182.752 Y124.246 E98.61036
G1 X182.307 Y125.557 E98.72111
G1 X181.694 Y126.805 E98.83235
G1 X180.918 Y127.964 E98.94393
G1 X180.005 Y129.005 E99.05470
G1 X178.964 Y129.918 E99.16548
G1 X177.805 Y130.694 E99.27706
G1 X176.557 Y131.307 E99.38829
G1 X175.246 Y131.752 E99.49905
G1 X173.890 Y132.022 E99.60966
G1 X172.721 Y132.100 E99.70339
G1 X50.279 Y132.100 E109.49875
G1 X49.109 Y132.022 E109.59256
G1 X47.753 Y131.752 E109.70317
G1 X46.440 Y131.306 E109.81410
G1 X45.196 Y130.694 E109.92501
G1 X44.037 Y129.921 E110.03646
G1 X42.994 Y129.005 E110.14751
G1 X42.081 Y127.964 E110.25828
G1 X41.305 Y126.805 E110.36987
G1 X40.692 Y125.557 E110.48110
G1 X40.247 Y124.246 E110.59186
G1 X39.976 Y122.884 E110.70295
G1 X39.900 Y121.715 E110.79667
G1 X39.900 Y101.754 E112.39355
G1 X39.937 Y100.692 E112.47856
G1 X39.983 Y100.080 E112.52766
G1 X40.247 Y98.753 E112.63590
G1 X40.693 Y97.440 E112.74684
G1 X41.305 Y96.196 E112.85775
G1 X42.078 Y95.037 E112.96920
G1 X42.994 Y93.994 E113.08025
G1 X44.036 Y93.080 E113.19113
G1 X45.160 Y92.329 E113.29928
G1 X46.423 Y91.698 E113.41223
G0 F9000 X46.578 Y92.068
G1 F1200 X47.856 Y91.634 E113.52020
G1 X49.168 Y91.374 E113.62720
G1 X50.299 Y91.300 E113.71787
G1 X172.702 Y91.300 E123.51011
G1 X173.832 Y91.374 E123.60071
G1 X175.143 Y91.634 E123.70763
G1 X176.404 Y92.062 E123.81416
G1 X177.605 Y92.653 E123.92125
G1 X178.720 Y93.399 E124.02857
G1 X179.721 Y94.278 E124.13514
G1 X180.603 Y95.281 E124.24199
G1 X181.346 Y96.396 E124.34918
G1 X181.936 Y97.593 E124.45594
G1 X182.365 Y98.856 E124.56265
G1 X182.624 Y100.162 E124.66917
G1 X182.700 Y101.293 E124.75985
G1 X182.700 Y121.540 E126.37961
G1 X182.659 Y122.337 E126.44346
G1 X182.619 Y122.864 E126.48574
G1 X182.365 Y124.143 E126.59006
G1 X181.937 Y125.404 E126.69659
G1 X181.346 Y126.605 E126.80367
G1 X180.600 Y127.720 E126.91100
G1 X179.721 Y128.721 E127.01757
G1 X178.720 Y129.600 E127.12414
G1 X177.605 Y130.346 E127.23146
G1 X176.404 Y130.937 E127.33855
G1 X175.143 Y131.365 E127.44508
G1 X173.837 Y131.624 E127.55159
G1 X172.708 Y131.700 E127.64212
G1 X50.293 Y131.700 E137.43532
G1 X49.162 Y131.624 E137.52600
G1 X47.856 Y131.365 E137.63252
G1 X46.593 Y130.936 E137.73923
G1 X45.396 Y130.346 E137.84599
G1 X44.281 Y129.603 E137.95318
G1 X43.278 Y128.721 E138.06003
G1 X42.399 Y127.720 E138.16660
G1 X41.653 Y126.605 E138.27393
G1 X41.062 Y125.404 E138.38101
G1 X40.634 Y124.143 E138.48754
G1 X40.374 Y122.832 E138.59446
G1 X40.300 Y121.702 E138.68506
G1 X40.300 Y101.761 E140.28034
G1 X40.336 Y100.714 E140.36415
G1 X40.380 Y100.135 E140.41060
G1 X40.634 Y98.856 E140.51492
G1 X41.063 Y97.593 E140.62163
G1 X41.653 Y96.396 E140.72839
G1 X42.396 Y95.281 E140.83558
G1 X43.278 Y94.278 E140.94243
G1 X44.280 Y93.398 E141.04912
G1 X45.361 Y92.675 E141.15315
G1 X46.578 Y92.068 E141.26195
G0 F9000 X46.732 Y92.438
G1 F1200 X47.960 Y92.022 E141.36568
G1 X49.220 Y91.771 E141.46846
G1 X50.312 Y91.700 E141.55600
G1 X172.689 Y91.700 E151.34616
G1 X173.779 Y91.771 E151.43355
G1 X175.039 Y92.022 E151.53633
G1 X176.251 Y92.433 E151.63871
G1 X177.404 Y93.000 E151.74150
G1 X178.476 Y93.717 E151.84467
G1 X179.438 Y94.561 E151.94706
G1 X180.285 Y95.526 E152.04977
G1 X180.999 Y96.596 E152.15268
G1 X181.566 Y97.746 E152.25526
G1 X181.977 Y98.960 E152.35779
G1 X182.227 Y100.215 E152.46016
G1 X182.300 Y101.306 E152.54764
G1 X182.300 Y121.529 E154.16548
G1 X182.260 Y122.312 E154.22820
G1 X182.222 Y122.810 E154.26816
G1 X181.977 Y124.039 E154.36841
G1 X181.566 Y125.251 E154.47080
G1 X180.999 Y126.404 E154.57359
G1 X180.282 Y127.476 E154.67676
G1 X179.438 Y128.438 E154.77914
G1 X178.476 Y129.282 E154.88152
G1 X177.404 Y129.999 E154.98470
G1 X176.251 Y130.566 E155.08748
G1 X175.039 Y130.977 E155.18987
G1 X173.785 Y131.227 E155.29216
G1 X172.694 Y131.300 E155.37964
G1 X50.306 Y131.300 E165.17068
G1 X49.215 Y131.227 E165.25815
G1 X47.960 Y130.977 E165.36053
G1 X46.746 Y130.566 E165.46306
G1 X45.596 Y129.999 E165.56563
G1 X44.526 Y129.285 E165.66854
G1 X43.561 Y128.438 E165.77126
G1 X42.717 Y127.476 E165.87364
G1 X42.000 Y126.404 E165.97682
G1 X41.433 Y125.251 E166.07961
G1 X41.022 Y124.039 E166.18199
G1 X40.771 Y122.779 E166.28477
G1 X40.700 Y121.689 E166.37216
G1 X40.700 Y101.768 E167.96584
G1 X40.736 Y100.736 E168.04845
G1 X40.777 Y100.189 E168.09233
G1 X41.022 Y98.960 E168.19258
G1 X41.433 Y97.746 E168.29512
G1 X42.000 Y96.596 E168.39769
G1 X42.714 Y95.526 E168.50060
G1 X43.561 Y94.561 E168.60332
G1 X44.524 Y93.716 E168.70581
G1 X45.562 Y93.022 E168.80570
G1 X46.732 Y92.438 E168.91032
G0 F9000 X46.886 Y92.808
G1 F1200 X48.064 Y92.409 E169.00981
G1 X49.272 Y92.168 E169.10836
G1 X50.325 Y92.100 E169.19277
G1 X172.676 Y92.100 E178.98085
G1 X173.727 Y92.168 E179.06511
G1 X174.935 Y92.409 E179.16366
G1 X176.097 Y92.803 E179.26181
G1 X177.204 Y93.347 E179.36049
G1 X178.232 Y94.034 E179.45940
G1 X179.154 Y94.845 E179.55764
G1 X179.966 Y95.770 E179.65610
G1 X180.652 Y96.797 E179.75491
G1 X181.195 Y97.899 E179.85319
G1 X181.590 Y99.064 E179.95160
G1 X181.830 Y100.267 E180.04974
G1 X181.900 Y101.320 E180.13416
G1 X181.900 Y121.519 E181.75008
G1 X181.860 Y122.286 E181.81153
G1 X181.825 Y122.756 E181.84923
G1 X181.590 Y123.935 E181.94541
G1 X181.196 Y125.097 E182.04356
G1 X180.652 Y126.204 E182.14224
G1 X179.965 Y127.232 E182.24115
G1 X179.154 Y128.154 E182.33939
G1 X178.232 Y128.965 E182.43762
G1 X177.204 Y129.652 E182.53654
G1 X176.097 Y130.196 E182.63521
G1 X174.935 Y130.590 E182.73337
G1 X173.732 Y130.830 E182.83151
G1 X172.681 Y130.900 E182.91577
G1 X50.320 Y130.900 E192.70465
G1 X49.267 Y130.830 E192.78908
G1 X48.064 Y130.590 E192.88722
G1 X46.899 Y130.195 E192.98563
G1 X45.797 Y129.652 E193.08391
G1 X44.770 Y128.966 E193.18271
G1 X43.845 Y128.154 E193.28118
G1 X43.034 Y127.232 E193.37941
G1 X42.347 Y126.204 E193.47833
G1 X41.803 Y125.097 E193.57700
G1 X41.409 Y123.935 E193.67516
G1 X41.168 Y122.727 E193.77371
G1 X41.100 Y121.676 E193.85796
G1 X41.100 Y101.775 E195.45004
G1 X41.135 Y100.758 E195.53145
G1 X41.174 Y100.243 E195.57277
G1 X41.409 Y99.064 E195.66894
G1 X41.804 Y97.899 E195.76735
G1 X42.347 Y96.797 E195.86564
G1 X43.033 Y95.770 E195.96444
G1 X43.845 Y94.845 E196.06291
G1 X44.768 Y94.034 E196.16120
G1 X45.764 Y93.369 E196.25701
G1 X46.886 Y92.808 E196.35736
G0 F9000 X47.040 Y93.178
G1 F1200 X48.167 Y92.796 E196.45256
G1 X49.324 Y92.566 E196.54693
G1 X50.338 Y92.500 E196.62822
G1 X172.663 Y92.500 E206.41422
G1 X173.675 Y92.566 E206.49536
G1 X174.832 Y92.796 E206.58973
G1 X175.944 Y93.174 E206.68369
G1 X177.004 Y93.694 E206.77814
G1 X177.987 Y94.352 E206.87277
G1 X178.871 Y95.128 E206.96688
G1 X179.648 Y96.014 E207.06115
G1 X180.305 Y96.997 E207.15574
G1 X180.825 Y98.053 E207.24991
G1 X181.203 Y99.167 E207.34402
G1 X181.432 Y100.320 E207.43806
G1 X181.500 Y101.333 E207.51928
G1 X181.500 Y121.509 E209.13336
G1 X181.461 Y122.261 E209.19360
G1 X181.428 Y122.701 E209.22890
G1 X181.203 Y123.832 E209.32115
G1 X180.825 Y124.944 E209.41511
G1 X180.305 Y126.004 E209.50957
G1 X179.647 Y126.987 E209.60420
G1 X178.871 Y127.871 E209.69830
G1 X177.987 Y128.647 E209.79240
G1 X177.004 Y129.305 E209.88704
G1 X175.944 Y129.825 E209.98149
G1 X174.832 Y130.203 E210.07545
G1 X173.680 Y130.432 E210.16941
G1 X172.667 Y130.500 E210.25063
G1 X50.333 Y130.500 E220.03735
G1 X49.320 Y130.432 E220.11858
G1 X48.167 Y130.203 E220.21262
G1 X47.053 Y129.825 E220.30673
G1 X45.997 Y129.305 E220.40090
G1 X45.014 Y128.648 E220.49548
G1 X44.128 Y127.871 E220.58976
G1 X43.352 Y126.987 E220.68386
G1 X42.694 Y126.004 E220.77849
G1 X42.174 Y124.944 E220.87295
G1 X41.796 Y123.832 E220.96691
G1 X41.566 Y122.675 E221.06128
G1 X41.500 Y121.663 E221.14241
G1 X41.500 Y101.782 E222.73289
G1 X41.535 Y100.780 E222.81310
G1 X41.571 Y100.298 E222.85177
G1 X41.796 Y99.167 E222.94402
G1 X42.174 Y98.053 E223.03813
G1 X42.694 Y96.997 E223.13230
G1 X43.351 Y96.014 E223.22688
G1 X44.128 Y95.128 E223.32116
G1 X45.012 Y94.352 E223.41526
G1 X45.965 Y93.715 E223.50697
G1 X47.040 Y93.178 E223.60310
G0 F9000 X47.195 Y93.548
G1 F1200 X48.271 Y93.183 E223.69400
G1 X49.377 Y92.963 E223.78421
G1 X50.351 Y92.900 E223.86229
G1 X172.650 Y92.900 E233.64621
G1 X173.623 Y92.963 E233.72422
G1 X174.728 Y93.183 E233.81435
G1 X175.791 Y93.544 E233.90416
G1 X176.804 Y94.042 E233.99446
G1 X177.743 Y94.670 E234.08484
G1 X178.588 Y95.411 E234.17475
G1 X179.330 Y96.258 E234.26483
G1 X179.957 Y97.197 E234.35516
G1 X180.454 Y98.206 E234.44514
G1 X180.816 Y99.271 E234.53513
G1 X181.035 Y100.372 E234.62493
G1 X181.100 Y101.346 E234.70302
G1 X181.100 Y121.498 E236.31518
G1 X181.062 Y122.236 E236.37430
G1 X181.031 Y122.647 E236.40728
G1 X180.816 Y123.728 E236.49545
G1 X180.455 Y124.791 E236.58526
G1 X179.957 Y125.804 E236.67556
G1 X179.329 Y126.743 E236.76593
G1 X178.588 Y127.588 E236.85585
G1 X177.743 Y128.329 E236.94576
G1 X176.804 Y128.957 E237.03613
G1 X175.791 Y129.455 E237.12643
G1 X174.728 Y129.816 E237.21624
G1 X173.627 Y130.035 E237.30605
G1 X172.654 Y130.100 E237.38406
G1 X50.346 Y130.100 E247.16870
G1 X49.372 Y130.035 E247.24679
G1 X48.271 Y129.816 E247.33660
G1 X47.206 Y129.454 E247.42659
G1 X46.197 Y128.957 E247.51657
G1 X45.258 Y128.330 E247.60689
G1 X44.411 Y127.588 E247.69698
G1 X43.670 Y126.743 E247.78689
G1 X43.042 Y125.804 E247.87726
G1 X42.544 Y124.791 E247.96756
G1 X42.183 Y123.728 E248.05737
G1 X41.963 Y122.623 E248.14751
G1 X41.900 Y121.650 E248.22551
G1 X41.900 Y101.789 E249.81439
G1 X41.934 Y100.802 E249.89340
G1 X41.968 Y100.352 E249.92950
G1 X42.183 Y99.271 E250.01768
G1 X42.545 Y98.206 E250.10766
G1 X43.042 Y97.197 E250.19764
G1 X43.669 Y96.258 E250.28797
G1 X44.411 Y95.411 E250.37805
G1 X45.257 Y94.669 E250.46808
G1 X46.166 Y94.062 E250.55552
G1 X47.195 Y93.548 E250.64754
G0 F9000 X47.349 Y93.919
G1 F1200 X48.375 Y93.570 E250.73424
G1 X49.429 Y93.361 E250.82020
G1 X50.364 Y93.300 E250.89516
G1 X172.637 Y93.300 E260.67700
G1 X173.570 Y93.361 E260.75180
G1 X174.624 Y93.570 E260.83776
G1 X175.638 Y93.914 E260.92342
G1 X176.603 Y94.389 E261.00947
G1 X177.499 Y94.988 E261.09569
G1 X178.304 Y95.695 E261.18140
G1 X179.012 Y96.502 E261.26728
G1 X179.610 Y97.397 E261.35340
G1 X180.084 Y98.359 E261.43919
G1 X180.429 Y99.375 E261.52503
G1 X180.637 Y100.425 E261.61066
G1 X180.700 Y101.360 E261.68563
G1 X180.700 Y121.488 E263.29587
G1 X180.663 Y122.210 E263.35371
G1 X180.634 Y122.593 E263.38443
