;FLAVOR:UltiGCode
;TIME:4741
;MATERIAL:8008
;MATERIAL2:0
;NOZZLE_DIAMETER:0.400000
;NOZZLE_DIAMETER2:0.400000

;Layer count: 220
;LAYER:0
M107
G0 F9000 X25.200 Y93.200 Z0.200
;TYPE:SKIRT
G1 F1200 X197.784 Y93.200 E13.80672
G1 X197.800 Y101.518 E14.47216
G1 X197.799 Y129.800 E16.73472
G1 X125.201 Y129.800 E22.54256
G1 X125.200 Y113.800 E23.82256
G1 X120.800 Y113.800 E24.17456
G1 X120.799 Y121.750 E24.81056
G1 X120.831 Y129.800 E25.45457
G1 X95.201 Y129.800 E27.50497
G1 X95.200 Y113.800 E28.78497
G1 X90.800 Y113.800 E29.13697
G1 X90.799 Y121.750 E29.77297
G1 X90.831 Y129.800 E30.41697
G1 X65.201 Y129.800 E32.46737
G1 X65.200 Y113.800 E33.74737
G1 X60.800 Y113.800 E34.09937
G1 X60.799 Y121.750 E34.73537
G1 X60.831 Y129.800 E35.37938
G1 X25.200 Y129.800 E38.22986
G1 X25.200 Y93.200 E41.15786
G0 F9000 X25.600 Y93.600
G1 F1200 X197.385 Y93.600 E54.90066
G1 X197.400 Y101.518 E55.53410
G1 X197.399 Y129.400 E57.76466
G1 X125.600 Y129.400 E63.50858
G1 X125.599 Y113.400 E64.78858
G1 X120.400 Y113.400 E65.20450
G1 X120.399 Y121.750 E65.87250
G1 X120.430 Y129.400 E66.48450
G1 X95.600 Y129.400 E68.47090
G1 X95.599 Y113.400 E69.75090
G1 X90.400 Y113.400 E70.16682
G1 X90.399 Y121.750 E70.83482
G1 X90.430 Y129.400 E71.44683
G1 X65.600 Y129.400 E73.43323
G1 X65.599 Y113.400 E74.71323
G1 X60.400 Y113.400 E75.12915
G1 X60.399 Y121.750 E75.79715
G1 X60.430 Y129.400 E76.40915
G1 X25.600 Y129.400 E79.19555
G1 X25.600 Y93.600 E82.05955
G0 F9000 X26.000 Y94.000
G1 F1200 X196.986 Y94.000 E95.73843
G1 X197.000 Y101.519 E96.33995
G1 X196.999 Y129.000 E98.53843
G1 X126.000 Y129.000 E104.21835
G1 X125.999 Y113.000 E105.49835
G1 X120.000 Y113.000 E105.97827
G1 X119.999 Y121.750 E106.67827
G1 X120.028 Y129.000 E107.25828
G1 X96.000 Y129.000 E109.18052
G1 X95.999 Y113.000 E110.46052
G1 X90.000 Y113.000 E110.94044
G1 X89.999 Y121.750 E111.64044
G1 X90.028 Y129.000 E112.22044
G1 X66.000 Y129.000 E114.14268
G1 X65.999 Y113.000 E115.42268
G1 X60.000 Y113.000 E115.90260
G1 X59.999 Y121.750 E116.60260
G1 X60.028 Y129.000 E117.18261
G1 X26.000 Y129.000 E119.90485
G1 X26.000 Y94.000 E122.70485
G0 F9000 X26.400 Y94.400
G1 F1200 X196.586 Y94.400 E136.31973
G1 X196.600 Y101.519 E136.88925
G1 X196.599 Y128.600 E139.05573
G1 X126.400 Y128.600 E144.67165
G1 X126.399 Y112.600 E145.95165
G1 X119.600 Y112.600 E146.49557
G1 X119.599 Y121.750 E147.22757
G1 X119.626 Y128.600 E147.77557
G1 X96.400 Y128.600 E149.63365
G1 X96.399 Y112.600 E150.91365
G1 X89.600 Y112.600 E151.45757
G1 X89.599 Y121.750 E152.18957
G1 X89.626 Y128.600 E152.73758
G1 X66.400 Y128.600 E154.59566
G1 X66.399 Y112.600 E155.87566
G1 X59.600 Y112.600 E156.41958
G1 X59.599 Y121.750 E157.15158
G1 X59.626 Y128.600 E157.69958
G1 X26.400 Y128.600 E160.35766
G1 X26.400 Y94.400 E163.09366
G0 F9000 X26.800 Y94.800
G1 F1200 X196.187 Y94.800 E176.64462
G1 X196.200 Y101.519 E177.18214
G1 X196.199 Y128.200 E179.31662
G1 X126.800 Y128.200 E184.86854
G1 X126.799 Y112.200 E186.14854
G1 X119.200 Y112.200 E186.75646
G1 X119.199 Y121.750 E187.52046
G1 X119.225 Y128.200 E188.03647
G1 X96.800 Y128.200 E189.83047
G1 X96.799 Y112.200 E191.11047
G1 X89.200 Y112.200 E191.71839
G1 X89.199 Y121.750 E192.48239
G1 X89.225 Y128.200 E192.99839
G1 X66.800 Y128.200 E194.79239
G1 X66.799 Y112.200 E196.07239
G1 X59.200 Y112.200 E196.68031
G1 X59.199 Y121.750 E197.44431
G1 X59.225 Y128.200 E197.96032
G1 X26.800 Y128.200 E200.55432
G1 X26.800 Y94.800 E203.22632
G0 F9000 X27.200 Y95.200
G1 F1200 X195.788 Y95.200 E216.71336
G1 X195.800 Y101.520 E217.21896
G1 X195.799 Y127.800 E219.32136
G1 X127.200 Y127.800 E224.80928
G1 X127.199 Y111.800 E226.08928
G1 X118.800 Y111.800 E226.76120
G1 X118.799 Y121.750 E227.55720
G1 X118.823 Y127.800 E228.04120
G1 X97.200 Y127.800 E229.77104
G1 X97.199 Y111.800 E231.05104
G1 X88.800 Y111.800 E231.72296
G1 X88.799 Y121.750 E232.51896
G1 X88.823 Y127.800 E233.00296
G1 X67.200 Y127.800 E234.73280
G1 X67.199 Y111.800 E236.01280
G1 X58.800 Y111.800 E236.68472
G1 X58.799 Y121.750 E237.48072
G1 X58.823 Y127.800 E237.96473
G1 X27.200 Y127.800 E240.49457
G1 X27.200 Y95.200 E243.10257
G0 F9000 X27.600 Y95.600
G1 F1200 X195.389 Y95.600 E256.52569
G1 X195.400 Y101.520 E256.99929
G1 X195.399 Y127.400 E259.06969
G1 X127.600 Y127.400 E264.49361
G1 X127.599 Y111.400 E265.77361
G1 X118.400 Y111.400 E266.50953
G1 X118.399 Y121.750 E267.33753
G1 X118.422 Y127.400 E267.78953
G1 X97.600 Y127.400 E269.45529
G1 X97.599 Y111.400 E270.73529
G1 X88.400 Y111.400 E271.47121
G1 X88.399 Y121.750 E272.29921
G1 X88.422 Y127.400 E272.75122
G1 X67.600 Y127.400 E274.41698
G1 X67.599 Y111.400 E275.69698
G1 X58.400 Y111.400 E276.43290
G1 X58.399 Y121.750 E277.26090
G1 X58.422 Y127.400 E277.71290
G1 X27.600 Y127.400 E280.17866
G1 X27.600 Y95.600 E282.72266
G0 F9000 X28.000 Y96.000
G1 F1200 X194.989 Y96.000 E296.08178
G1 X195.000 Y101.520 E296.52338
G1 X194.999 Y127.000 E298.56178
G1 X128.000 Y127.000 E303.92170
G1 X127.999 Y111.000 E305.20170
G1 X118.000 Y111.000 E306.00162
G1 X117.999 Y121.750 E306.86162
G1 X118.020 Y127.000 E307.28162
G1 X98.000 Y127.000 E308.88322
G1 X97.999 Y111.000 E310.16322
G1 X88.000 Y111.000 E310.96314
G1 X87.999 Y121.750 E311.82314
G1 X88.020 Y127.000 E312.24315
G1 X68.000 Y127.000 E313.84475
G1 X67.999 Y111.000 E315.12475
G1 X58.000 Y111.000 E315.92467
G1 X57.999 Y121.750 E316.78467
G1 X58.020 Y127.000 E317.20467
G1 X28.000 Y127.000 E319.60627
G1 X28.000 Y96.000 E322.08627
G0 F9000 X28.400 Y96.400
G1 F1200 X194.590 Y96.400 E335.38147
G1 X194.600 Y101.521 E335.79115
G1 X194.599 Y126.600 E337.79747
G1 X128.400 Y126.600 E343.09339
G1 X128.399 Y110.600 E344.37339
G1 X117.600 Y110.600 E345.23731
G1 X117.599 Y121.750 E346.12931
G1 X117.618 Y126.600 E346.51731
G1 X98.400 Y126.600 E348.05475
G1 X98.399 Y110.600 E349.33475
G1 X87.600 Y110.600 E350.19867
G1 X87.599 Y121.750 E351.09067
G1 X87.618 Y126.600 E351.47868
G1 X68.400 Y126.600 E353.01612
G1 X68.399 Y110.600 E354.29612
G1 X57.600 Y110.600 E355.16004
G1 X57.599 Y121.750 E356.05204
G1 X57.618 Y126.600 E356.44004
G1 X28.400 Y126.600 E358.77748
G1 X28.400 Y96.400 E361.19348
G0 F9000 X28.800 Y96.800
G1 F1200 X194.191 Y96.800 E374.42476
G1 X194.200 Y101.521 E374.80244
G1 X194.199 Y126.200 E376.77676
G1 X128.800 Y126.200 E382.00868
G1 X128.799 Y110.200 E383.28868
G1 X117.200 Y110.200 E384.21660
G1 X117.199 Y121.750 E385.14060
G1 X117.217 Y126.200 E385.49660
G1 X98.800 Y126.200 E386.96996
G1 X98.799 Y110.200 E388.24996
G1 X87.200 Y110.200 E389.17788
G1 X87.199 Y121.750 E390.10188
G1 X87.217 Y126.200 E390.45789
G1 X68.800 Y126.200 E391.93125
G1 X68.799 Y110.200 E393.21125
G1 X57.200 Y110.200 E394.13917
G1 X57.199 Y121.750 E395.06317
G1 X57.217 Y126.200 E395.41917
G1 X28.800 Y126.200 E397.69253
G1 X28.800 Y96.800 E400.04453
G0 F9000 X29.200 Y97.200
G1 F1200 X193.792 Y97.200 E413.21189
G1 X193.800 Y101.521 E413.55757
G1 X193.799 Y125.800 E415.49989
G1 X129.200 Y125.800 E420.66781
G1 X129.199 Y109.800 E421.94781
G1 X116.800 Y109.800 E422.93973
G1 X116.799 Y121.750 E423.89573
G1 X116.815 Y125.800 E424.21973
G1 X99.200 Y125.800 E425.62893
G1 X99.199 Y109.800 E426.90893
G1 X86.800 Y109.800 E427.90085
G1 X86.799 Y121.750 E428.85685
G1 X86.815 Y125.800 E429.18086
G1 X69.200 Y125.800 E430.59006
G1 X69.199 Y109.800 E431.87006
G1 X56.800 Y109.800 E432.86198
G1 X56.799 Y121.750 E433.81798
G1 X56.815 Y125.800 E434.14198
G1 X29.200 Y125.800 E436.35118
G1 X29.200 Y97.200 E438.63918
G0 F9000 X29.600 Y97.600
G1 F1200 X193.393 Y97.600 E451.74262
G1 X193.400 Y101.522 E452.05638
G1 X193.399 Y125.400 E453.96662
G1 X129.600 Y125.400 E459.07054
G1 X129.599 Y109.400 E460.35054
G1 X116.400 Y109.400 E461.40646
G1 X116.399 Y121.750 E462.39446
G1 X116.414 Y125.400 E462.68646
G1 X99.600 Y125.400 E464.03158
G1 X99.599 Y109.400 E465.31158
G1 X86.400 Y109.400 E466.36750
G1 X86.399 Y121.750 E467.35550
G1 X86.414 Y125.400 E467.64750
G1 X69.600 Y125.400 E468.99262
G1 X69.599 Y109.400 E470.27262
G1 X56.400 Y109.400 E471.32854
G1 X56.399 Y121.750 E472.31654
G1 X56.414 Y125.400 E472.60855
G1 X29.600 Y125.400 E474.75367
G1 X29.600 Y97.600 E476.97767
G0 F9000 X30.000 Y98.000
G1 F1200 X192.993 Y98.000 E490.01711
G1 X193.000 Y101.522 E490.29887
G1 X192.999 Y125.000 E492.17711
G1 X130.000 Y125.000 E497.21703
G1 X129.999 Y109.000 E498.49703
G1 X116.000 Y109.000 E499.61695
G1 X115.999 Y121.750 E500.63695
G1 X116.012 Y125.000 E500.89695
G1 X100.000 Y125.000 E502.17791
G1 X99.999 Y109.000 E503.45791
G1 X86.000 Y109.000 E504.57783
G1 X85.999 Y121.750 E505.59783
G1 X86.012 Y125.000 E505.85783
G1 X70.000 Y125.000 E507.13879
G1 X69.999 Y109.000 E508.41879
G1 X56.000 Y109.000 E509.53871
G1 X55.999 Y121.750 E510.55871
G1 X56.012 Y125.000 E510.81871
G1 X30.000 Y125.000 E512.89967
G1 X30.000 Y98.000 E515.05967
G0 F9000 X30.400 Y98.400
G1 F1200 X192.594 Y98.400 E528.03519
G1 X192.600 Y101.523 E528.28503
G1 X192.599 Y124.600 E530.13119
G1 X130.400 Y124.600 E535.10711
G1 X130.399 Y108.600 E536.38711
G1 X115.600 Y108.600 E537.57103
G1 X115.599 Y121.750 E538.62303
G1 X115.610 Y124.600 E538.85103
G1 X100.400 Y124.600 E540.06783
G1 X100.399 Y108.600 E541.34783
G1 X85.600 Y108.600 E542.53175
G1 X85.599 Y121.750 E543.58375
G1 X85.610 Y124.600 E543.81176
G1 X70.400 Y124.600 E545.02856
G1 X70.399 Y108.600 E546.30856
G1 X55.600 Y108.600 E547.49248
G1 X55.599 Y121.750 E548.54448
G1 X55.610 Y124.600 E548.77248
G1 X30.400 Y124.600 E550.78928
G1 X30.400 Y98.400 E552.88528
G0 F9000 X30.800 Y98.800
G1 F1200 X192.195 Y98.800 E565.79688
G1 X192.200 Y101.523 E566.01472
G1 X192.199 Y124.200 E567.82888
G1 X130.800 Y124.200 E572.74080
G1 X130.799 Y108.200 E574.02080
G1 X115.200 Y108.200 E575.26872
G1 X115.199 Y121.750 E576.35272
G1 X115.209 Y124.200 E576.54872
G1 X100.800 Y124.200 E577.70144
G1 X100.799 Y108.200 E578.98144
G1 X85.200 Y108.200 E580.22936
G1 X85.199 Y121.750 E581.31336
G1 X85.209 Y124.200 E581.50936
G1 X70.800 Y124.200 E582.66208
G1 X70.799 Y108.200 E583.94208
G1 X55.200 Y108.200 E585.19000
G1 X55.199 Y121.750 E586.27400
G1 X55.209 Y124.200 E586.47000
G1 X30.800 Y124.200 E588.42272
G1 X30.800 Y98.800 E590.45472
G0 F9000 X31.200 Y99.200
G1 F1200 X191.796 Y99.200 E603.30240
G1 X191.800 Y101.523 E603.48824
G1 X191.799 Y123.800 E605.27040
G1 X131.200 Y123.800 E610.11832
G1 X131.199 Y107.800 E611.39832
G1 X114.800 Y107.800 E612.71024
G1 X114.799 Y121.750 E613.82624
G1 X114.807 Y123.800 E613.99025
G1 X101.200 Y123.800 E615.07881
G1 X101.199 Y107.800 E616.35881
G1 X84.800 Y107.800 E617.67073
G1 X84.799 Y121.750 E618.78673
G1 X84.807 Y123.800 E618.95073
G1 X71.200 Y123.800 E620.03929
G1 X71.199 Y107.800 E621.31929
G1 X54.800 Y107.800 E622.63121
G1 X54.799 Y121.750 E623.74721
G1 X54.807 Y123.800 E623.91121
G1 X31.200 Y123.800 E625.79977
G1 X31.200 Y99.200 E627.76777
G0 F9000 X31.600 Y99.600
G1 F1200 X191.396 Y99.600 E640.55145
G1 X191.400 Y101.524 E640.70537
G1 X191.399 Y123.400 E642.45545
G1 X131.600 Y123.400 E647.23937
G1 X131.599 Y107.400 E648.51937
G1 X114.400 Y107.400 E649.89529
G1 X114.399 Y121.750 E651.04329
G1 X114.406 Y123.400 E651.17529
G1 X101.600 Y123.400 E652.19977
G1 X101.599 Y107.400 E653.47977
G1 X84.400 Y107.400 E654.85569
G1 X84.399 Y121.750 E656.00369
G1 X84.406 Y123.400 E656.13569
G1 X71.600 Y123.400 E657.16017
G1 X71.599 Y107.400 E658.44017
G1 X54.400 Y107.400 E659.81609
G1 X54.399 Y121.750 E660.96409
G1 X54.406 Y123.400 E661.09609
G1 X31.600 Y123.400 E662.92057
G1 X31.600 Y99.600 E664.82457
G0 F9000 X32.000 Y100.000
G1 F1200 X190.997 Y100.000 E677.54433
G1 X191.000 Y101.524 E677.66625
G1 X190.999 Y123.000 E679.38433
G1 X132.000 Y123.000 E684.10425
G1 X131.999 Y107.000 E685.38425
G1 X114.000 Y107.000 E686.82417
G1 X113.999 Y121.750 E688.00417
G1 X114.004 Y123.000 E688.10417
G1 X102.000 Y123.000 E689.06449
G1 X101.999 Y107.000 E690.34449
G1 X84.000 Y107.000 E691.78441
G1 X83.999 Y121.750 E692.96441
G1 X84.004 Y123.000 E693.06441
G1 X72.000 Y123.000 E694.02473
G1 X71.999 Y107.000 E695.30473
G1 X54.000 Y107.000 E696.74465
G1 X53.999 Y121.750 E697.92465
G1 X54.004 Y123.000 E698.02465
G1 X32.000 Y123.000 E699.78497
G1 X32.000 Y100.000 E701.62497
G0 F9000 X32.400 Y100.400
G1 F1200 X190.598 Y100.400 E714.28081
G1 X190.600 Y101.524 E714.37073
G1 X190.599 Y122.600 E716.05681
G1 X132.400 Y122.600 E720.71273
G1 X132.399 Y106.600 E721.99273
G1 X113.600 Y106.600 E723.49665
G1 X113.599 Y121.750 E724.70865
G1 X113.602 Y122.600 E724.77665
G1 X102.400 Y122.600 E725.67281
G1 X102.399 Y106.600 E726.95281
G1 X83.600 Y106.600 E728.45673
G1 X83.599 Y121.750 E729.66873
G1 X83.602 Y122.600 E729.73674
G1 X72.400 Y122.600 E730.63290
G1 X72.399 Y106.600 E731.91290
G1 X53.600 Y106.600 E733.41682
G1 X53.599 Y121.750 E734.62882
G1 X53.602 Y122.600 E734.69682
G1 X32.400 Y122.600 E736.39298
G1 X32.400 Y100.400 E738.16898
G0 F9000 X32.800 Y100.800
G1 F1200 X190.199 Y100.800 E750.76090
G1 X190.199 Y122.200 E752.47290
G1 X132.800 Y122.200 E757.06482
G1 X132.800 Y106.200 E758.34482
G1 X113.200 Y106.200 E759.91282
G1 X113.200 Y122.200 E761.19282
G1 X102.800 Y122.200 E762.02482
G1 X102.800 Y106.200 E763.30482
G1 X83.200 Y106.200 E764.87282
G1 X83.200 Y122.200 E766.15282
G1 X72.800 Y122.200 E766.98482
G1 X72.800 Y106.200 E768.26482
G1 X53.200 Y106.200 E769.83282
G1 X53.200 Y122.200 E771.11282
G1 X32.800 Y122.200 E772.74482
G1 X32.800 Y100.800 E774.45682
G0 F9000 X33.600 Y101.600
;TYPE:WALL-INNER
G1 F1200 X189.400 Y101.600 E786.92082
G1 X189.399 Y121.400 E788.50482
G1 X133.600 Y121.400 E792.96874
G1 X133.599 Y106.551 E794.15666
G1 X133.601 Y105.400 E794.24874
G1 X112.400 Y105.400 E795.94482
G1 X112.399 Y121.400 E797.22482
G1 X103.600 Y121.400 E797.92874
G1 X103.599 Y106.551 E799.11666
G1 X103.601 Y105.400 E799.20874
G1 X82.400 Y105.400 E800.90482
G1 X82.399 Y121.400 E802.18482
G1 X73.600 Y121.400 E802.88874
G1 X73.599 Y106.551 E804.07666
G1 X73.601 Y105.400 E804.16874
G1 X52.400 Y105.400 E805.86482
G1 X52.399 Y121.400 E807.14482
G1 X33.600 Y121.400 E808.64874
G1 X33.600 Y101.600 E810.23274
G0 F9000 X33.200 Y101.200
;TYPE:WALL-OUTER
G1 F1200 X189.799 Y101.200 E822.76066
G1 X189.799 Y121.800 E824.40866
G1 X133.200 Y121.800 E828.93658
G1 X133.200 Y105.800 E830.21658
G1 X112.800 Y105.800 E831.84858
G1 X112.800 Y121.800 E833.12858
G1 X103.200 Y121.800 E833.89658
G1 X103.200 Y105.800 E835.17658
G1 X82.800 Y105.800 E836.80858
G1 X82.800 Y121.800 E838.08858
G1 X73.200 Y121.800 E838.85658
G1 X73.200 Y105.800 E840.13658
G1 X52.800 Y105.800 E841.76858
G1 X52.800 Y121.800 E843.04858
G1 X33.200 Y121.800 E844.61658
G1 X33.200 Y101.200 E846.26458
G0 F9000 X33.739 Y101.904
;TYPE:SKIN
G1 F900 X52.259 Y120.424 E848.35987
G0 F9000 X52.259 Y120.990
G1 F900 X33.739 Y102.470 E850.45517
G0 F9000 X33.739 Y103.036
G1 F900 X51.962 Y121.258 E852.51681
G0 F9000 X51.396 Y121.258
G1 F900 X33.739 Y103.601 E854.51448
G0 F9000 X33.739 Y104.167
G1 F900 X50.831 Y121.258 E856.44816
G0 F9000 X50.265 Y121.258
G1 F900 X33.739 Y104.733 E858.31781
G0 F9000 X33.739 Y105.298
G1 F900 X49.699 Y121.258 E860.12347
G0 F9000 X49.134 Y121.258
G1 F900 X33.739 Y105.864 E861.86516
G0 F9000 X33.739 Y106.430
G1 F900 X48.568 Y121.258 E863.54282
G0 F9000 X48.002 Y121.258
G1 F900 X33.739 Y106.995 E865.15649
G0 F9000 X33.739 Y107.561
G1 F900 X47.436 Y121.258 E866.70613
G0 F9000 X46.871 Y121.258
G1 F900 X33.739 Y108.127 E868.19179
G0 F9000 X33.739 Y108.692
G1 F900 X46.305 Y121.258 E869.61347
G0 F9000 X45.739 Y121.258
G1 F900 X33.739 Y109.258 E870.97111
G0 F9000 X33.739 Y109.824
G1 F900 X45.174 Y121.258 E872.26478
G0 F9000 X44.608 Y121.258
G1 F900 X33.739 Y110.389 E873.49447
G0 F9000 X33.739 Y110.955
G1 F900 X44.042 Y121.258 E874.66012
G0 F9000 X43.477 Y121.258
G1 F900 X33.739 Y111.521 E875.76179
G0 F9000 X33.739 Y112.087
G1 F900 X42.911 Y121.258 E876.79943
G0 F9000 X42.345 Y121.258
G1 F900 X33.739 Y112.652 E877.77308
G0 F9000 X33.739 Y113.218
G1 F900 X41.780 Y121.258 E878.68276
G0 F9000 X41.214 Y121.258
G1 F900 X33.739 Y113.784 E879.52841
G0 F9000 X33.739 Y114.349
G1 F900 X40.648 Y121.258 E880.31007
G0 F9000 X40.083 Y121.258
G1 F900 X33.739 Y114.915 E881.02776
G0 F9000 X33.739 Y115.481
G1 F900 X39.517 Y121.258 E881.68141
G0 F9000 X38.951 Y121.258
G1 F900 X33.739 Y116.046 E882.27108
