;FLAVOR:UltiGCode
;TIME:12748
;MATERIAL:9650
;MATERIAL2:0
;NOZZLE_DIAMETER:0.400000
;NOZZLE_DIAMETER2:0.400000

;Layer count: 59
;LAYER:0
M107
G0 F10200 X24.200 Y93.200 Z0.200
;TYPE:SKIRT
G1 F1200 X198.800 Y93.200 E13.96800
G1 X198.799 Y129.800 E16.89600
G1 X24.200 Y129.800 E30.86392
G1 X24.200 Y93.200 E33.79192
G0 F10200 X24.600 Y93.600
G1 F1200 X198.400 Y93.600 E47.69592
G1 X198.399 Y129.400 E50.55992
G1 X24.600 Y129.400 E64.46384
G1 X24.600 Y93.600 E67.32784
G0 F10200 X25.000 Y94.000
G1 F1200 X198.000 Y94.000 E81.16784
G1 X197.999 Y129.000 E83.96784
G1 X25.000 Y129.000 E97.80776
G1 X25.000 Y94.000 E100.60776
G0 F10200 X25.400 Y94.400
G1 F1200 X197.600 Y94.400 E114.38376
G1 X197.599 Y128.600 E117.11976
G1 X25.400 Y128.600 E130.89568
G1 X25.400 Y94.400 E133.63168
G0 F10200 X25.800 Y94.800
G1 F1200 X197.200 Y94.800 E147.34368
G1 X197.199 Y128.200 E150.01568
G1 X25.800 Y128.200 E163.72760
G1 X25.800 Y94.800 E166.39960
G0 F10200 X26.200 Y95.200
G1 F1200 X196.800 Y95.200 E180.04760
G1 X196.799 Y127.800 E182.65560
G1 X26.200 Y127.800 E196.30352
G1 X26.200 Y95.200 E198.91152
G0 F10200 X26.600 Y95.600
G1 F1200 X196.400 Y95.600 E212.49552
G1 X196.399 Y127.400 E215.03952
G1 X26.600 Y127.400 E228.62344
G1 X26.600 Y95.600 E231.16744
G0 F10200 X27.000 Y96.000
G1 F1200 X196.000 Y96.000 E244.68744
G1 X195.999 Y127.000 E247.16744
G1 X27.000 Y127.000 E260.68736
G1 X27.000 Y96.000 E263.16736
G0 F10200 X27.400 Y96.400
G1 F1200 X195.600 Y96.400 E276.62336
G1 X195.599 Y126.600 E279.03936
G1 X27.400 Y126.600 E292.49528
G1 X27.400 Y96.400 E294.91128
G0 F10200 X27.800 Y96.800
G1 F1200 X195.200 Y96.800 E308.30328
G1 X195.199 Y126.200 E310.65528
G1 X27.800 Y126.200 E324.04720
G1 X27.800 Y96.800 E326.39920
G0 F10200 X28.200 Y97.200
G1 F1200 X194.800 Y97.200 E339.72720
G1 X194.799 Y125.800 E342.01520
G1 X28.200 Y125.800 E355.34312
G1 X28.200 Y97.200 E357.63112
G0 F10200 X28.600 Y97.600
G1 F1200 X194.400 Y97.600 E370.89512
G1 X194.399 Y125.400 E373.11912
G1 X28.600 Y125.400 E386.38304
G1 X28.600 Y97.600 E388.60704
G0 F10200 X29.000 Y98.000
G1 F1200 X194.000 Y98.000 E401.80704
G1 X193.999 Y125.000 E403.96704
G1 X29.000 Y125.000 E417.16696
G1 X29.000 Y98.000 E419.32696
G0 F10200 X29.400 Y98.400
G1 F1200 X193.600 Y98.400 E432.46296
G1 X193.599 Y124.600 E434.55896
G1 X29.400 Y124.600 E447.69488
G1 X29.400 Y98.400 E449.79088
G0 F10200 X29.800 Y98.800
G1 F1200 X193.200 Y98.800 E462.86288
G1 X193.199 Y124.200 E464.89488
G1 X29.800 Y124.200 E477.96680
G1 X29.800 Y98.800 E479.99880
G0 F10200 X30.200 Y99.200
G1 F1200 X192.800 Y99.200 E493.00680
G1 X192.799 Y123.800 E494.97480
G1 X30.200 Y123.800 E507.98272
G1 X30.200 Y99.200 E509.95072
G0 F10200 X30.600 Y99.600
G1 F1200 X192.400 Y99.600 E522.89472
G1 X192.399 Y123.400 E524.79872
G1 X30.600 Y123.400 E537.74264
G1 X30.600 Y99.600 E539.64664
G0 F10200 X31.000 Y100.000
G1 F1200 X192.000 Y100.000 E552.52664
G1 X191.999 Y123.000 E554.36664
G1 X31.000 Y123.000 E567.24656
G1 X31.000 Y100.000 E569.08656
G0 F10200 X31.400 Y100.400
G1 F1200 X191.600 Y100.400 E581.90256
G1 X191.599 Y122.600 E583.67856
G1 X31.400 Y122.600 E596.49448
G1 X31.400 Y100.400 E598.27048
G0 F10200 X31.800 Y100.800
G1 F1200 X191.200 Y100.800 E611.02248
G1 X191.199 Y122.200 E612.73448
G1 X31.800 Y122.200 E625.48640
G1 X31.800 Y100.800 E627.19840
G0 F10200 X32.600 Y101.600
;TYPE:WALL-INNER
G1 F1200 X190.400 Y101.600 E639.82240
G1 X190.399 Y121.400 E641.40640
G1 X32.600 Y121.400 E654.03032
G1 X32.600 Y101.600 E655.61432
G0 F10200 X32.200 Y101.200
;TYPE:WALL-OUTER
G1 F1200 X190.800 Y101.200 E668.30232
G1 X190.799 Y121.800 E669.95032
G1 X32.200 Y121.800 E682.63824
G1 X32.200 Y101.200 E684.28624
G0 F10200 X33.009 Y101.739
;TYPE:SKIN
G1 F900 X52.528 Y121.259 E686.49462
G0 F10200 X51.963 Y121.259
G1 F900 X32.739 Y102.036 E688.66951
G0 F10200 X32.739 Y102.601
G1 F900 X51.397 Y121.259 E690.78042
G0 F10200 X50.831 Y121.259
G1 F900 X32.739 Y103.167 E692.82730
G0 F10200 X32.739 Y103.733
G1 F900 X50.266 Y121.259 E694.81020
G0 F10200 X49.700 Y121.259
G1 F900 X32.739 Y104.298 E696.72911
G0 F10200 X32.739 Y104.864
G1 F900 X49.134 Y121.259 E698.58400
G0 F10200 X48.569 Y121.259
G1 F900 X32.739 Y105.430 E700.37490
G0 F10200 X32.739 Y105.996
G1 F900 X48.003 Y121.259 E702.10177
G0 F10200 X47.437 Y121.259
G1 F900 X32.739 Y106.561 E703.76466
G0 F10200 X32.739 Y107.127
G1 F900 X46.871 Y121.259 E705.36351
G0 F10200 X46.306 Y121.259
G1 F900 X32.739 Y107.693 E706.89838
G0 F10200 X32.739 Y108.258
G1 F900 X45.740 Y121.259 E708.36928
G0 F10200 X45.174 Y121.259
G1 F900 X32.739 Y108.824 E709.77614
G0 F10200 X32.739 Y109.390
G1 F900 X44.609 Y121.259 E711.11902
G0 F10200 X44.043 Y121.259
G1 F900 X32.739 Y109.955 E712.39792
G0 F10200 X32.739 Y110.521
G1 F900 X43.477 Y121.259 E713.61279
G0 F10200 X42.912 Y121.259
G1 F900 X32.739 Y111.087 E714.76367
G0 F10200 X32.739 Y111.652
G1 F900 X42.346 Y121.259 E715.85058
G0 F10200 X41.780 Y121.259
G1 F900 X32.739 Y112.218 E716.87345
G0 F10200 X32.739 Y112.784
G1 F900 X41.215 Y121.259 E717.83235
G0 F10200 X40.649 Y121.259
G1 F900 X32.739 Y113.349 E718.72726
G0 F10200 X32.739 Y113.915
G1 F900 X40.083 Y121.259 E719.55814
G0 F10200 X53.094 Y121.259
G1 F900 X33.574 Y101.739 E721.76658
G0 F10200 X34.140 Y101.739
G1 F900 X53.660 Y121.259 E723.97501
G0 F10200 X54.225 Y121.259
G1 F900 X34.706 Y101.739 E726.18339
G0 F10200 X35.271 Y101.739
G1 F900 X54.791 Y121.259 E728.39183
G0 F10200 X55.357 Y121.259
G1 F900 X35.837 Y101.739 E730.60026
G0 F10200 X36.403 Y101.739
G1 F900 X55.922 Y121.259 E732.80864
G0 F10200 X56.488 Y121.259
G1 F900 X36.968 Y101.739 E735.01708
G0 F10200 X37.534 Y101.739
G1 F900 X57.054 Y121.259 E737.22551
G0 F10200 X57.620 Y121.259
G1 F900 X38.100 Y101.739 E739.43395
G0 F10200 X38.666 Y101.739
G1 F900 X58.185 Y121.259 E741.64233
G0 F10200 X58.751 Y121.259
G1 F900 X39.231 Y101.739 E743.85077
G0 F10200 X39.797 Y101.739
G1 F900 X59.317 Y121.259 E746.05920
G0 F10200 X59.882 Y121.259
G1 F900 X40.363 Y101.739 E748.26758
G0 F10200 X40.928 Y101.739
G1 F900 X60.448 Y121.259 E750.47602
G0 F10200 X61.014 Y121.259
G1 F900 X41.494 Y101.739 E752.68445
G0 F10200 X42.060 Y101.739
G1 F900 X61.579 Y121.259 E754.89283
G0 F10200 X62.145 Y121.259
G1 F900 X42.625 Y101.739 E757.10127
G0 F10200 X43.191 Y101.739
G1 F900 X62.711 Y121.259 E759.30970
G0 F10200 X63.276 Y121.259
G1 F900 X43.757 Y101.739 E761.51808
G0 F10200 X44.322 Y101.739
G1 F900 X63.842 Y121.259 E763.72652
G0 F10200 X64.408 Y121.259
G1 F900 X44.888 Y101.739 E765.93495
G0 F10200 X45.454 Y101.739
G1 F900 X64.973 Y121.259 E768.14333
G0 F10200 X65.539 Y121.259
G1 F900 X46.019 Y101.739 E770.35177
G0 F10200 X46.585 Y101.739
G1 F900 X66.105 Y121.259 E772.56021
G0 F10200 X66.670 Y121.259
G1 F900 X47.151 Y101.739 E774.76859
G0 F10200 X47.716 Y101.739
G1 F900 X67.236 Y121.259 E776.97702
G0 F10200 X67.802 Y121.259
G1 F900 X48.282 Y101.739 E779.18546
G0 F10200 X48.848 Y101.739
G1 F900 X68.368 Y121.259 E781.39389
G0 F10200 X68.933 Y121.259
G1 F900 X49.414 Y101.739 E783.60227
G0 F10200 X49.979 Y101.739
G1 F900 X69.499 Y121.259 E785.81071
G0 F10200 X70.065 Y121.259
G1 F900 X50.545 Y101.739 E788.01914
G0 F10200 X51.111 Y101.739
G1 F900 X70.630 Y121.259 E790.22752
G0 F10200 X71.196 Y121.259
G1 F900 X51.676 Y101.739 E792.43596
G0 F10200 X52.242 Y101.739
G1 F900 X71.762 Y121.259 E794.64440
G0 F10200 X72.327 Y121.259
G1 F900 X52.808 Y101.739 E796.85277
G0 F10200 X53.373 Y101.739
G1 F900 X72.893 Y121.259 E799.06121
G0 F10200 X73.459 Y121.259
G1 F900 X53.939 Y101.739 E801.26965
G0 F10200 X54.505 Y101.739
G1 F900 X74.024 Y121.259 E803.47803
G0 F10200 X74.590 Y121.259
G1 F900 X55.070 Y101.739 E805.68646
G0 F10200 X55.636 Y101.739
G1 F900 X75.156 Y121.259 E807.89490
G0 F10200 X75.721 Y121.259
G1 F900 X56.202 Y101.739 E810.10328
G0 F10200 X56.767 Y101.739
G1 F900 X76.287 Y121.259 E812.31171
G0 F10200 X76.853 Y121.259
G1 F900 X57.333 Y101.739 E814.52015
G0 F10200 X57.899 Y101.739
G1 F900 X77.419 Y121.259 E816.72858
G0 F10200 X77.984 Y121.259
G1 F900 X58.465 Y101.739 E818.93696
G0 F10200 X59.030 Y101.739
G1 F900 X78.550 Y121.259 E821.14540
G0 F10200 X79.116 Y121.259
G1 F900 X59.596 Y101.739 E823.35384
G0 F10200 X60.162 Y101.739
G1 F900 X79.681 Y121.259 E825.56222
G0 F10200 X80.247 Y121.259
G1 F900 X60.727 Y101.739 E827.77065
G0 F10200 X61.293 Y101.739
G1 F900 X80.813 Y121.259 E829.97909
G0 F10200 X81.378 Y121.259
G1 F900 X61.859 Y101.739 E832.18747
G0 F10200 X62.424 Y101.739
G1 F900 X81.944 Y121.259 E834.39590
G0 F10200 X82.510 Y121.259
G1 F900 X62.990 Y101.739 E836.60434
G0 F10200 X63.556 Y101.739
G1 F900 X83.075 Y121.259 E838.81272
G0 F10200 X83.641 Y121.259
G1 F900 X64.121 Y101.739 E841.02115
G0 F10200 X64.687 Y101.739
G1 F900 X84.207 Y121.259 E843.22959
G0 F10200 X84.772 Y121.259
G1 F900 X65.253 Y101.739 E845.43797
G0 F10200 X65.818 Y101.739
G1 F900 X85.338 Y121.259 E847.64640
G0 F10200 X85.904 Y121.259
G1 F900 X66.384 Y101.739 E849.85484
G0 F10200 X66.950 Y101.739
G1 F900 X86.469 Y121.259 E852.06322
G0 F10200 X87.035 Y121.259
G1 F900 X67.515 Y101.739 E854.27166
G0 F10200 X68.081 Y101.739
G1 F900 X87.601 Y121.259 E856.48009
G0 F10200 X88.167 Y121.259
G1 F900 X68.647 Y101.739 E858.68853
G0 F10200 X69.213 Y101.739
G1 F900 X88.732 Y121.259 E860.89691
G0 F10200 X89.298 Y121.259
G1 F900 X69.778 Y101.739 E863.10534
G0 F10200 X70.344 Y101.739
G1 F900 X89.864 Y121.259 E865.31378
G0 F10200 X90.429 Y121.259
G1 F900 X70.910 Y101.739 E867.52216
G0 F10200 X71.475 Y101.739
G1 F900 X90.995 Y121.259 E869.73059
G0 F10200 X91.561 Y121.259
G1 F900 X72.041 Y101.739 E871.93903
G0 F10200 X72.607 Y101.739
G1 F900 X92.126 Y121.259 E874.14741
G0 F10200 X92.692 Y121.259
G1 F900 X73.172 Y101.739 E876.35584
G0 F10200 X73.738 Y101.739
G1 F900 X93.258 Y121.259 E878.56428
G0 F10200 X93.823 Y121.259
G1 F900 X74.304 Y101.739 E880.77266
G0 F10200 X74.869 Y101.739
G1 F900 X94.389 Y121.259 E882.98110
G0 F10200 X94.955 Y121.259
G1 F900 X75.435 Y101.739 E885.18953
G0 F10200 X76.001 Y101.739
G1 F900 X95.520 Y121.259 E887.39791
G0 F10200 X96.086 Y121.259
G1 F900 X76.566 Y101.739 E889.60635
G0 F10200 X77.132 Y101.739
G1 F900 X96.652 Y121.259 E891.81478
G0 F10200 X97.217 Y121.259
G1 F900 X77.698 Y101.739 E894.02316
G0 F10200 X78.263 Y101.739
G1 F900 X97.783 Y121.259 E896.23160
G0 F10200 X98.349 Y121.259
G1 F900 X78.829 Y101.739 E898.44003
G0 F10200 X79.395 Y101.739
G1 F900 X98.915 Y121.259 E900.64847
G0 F10200 X99.480 Y121.259
G1 F900 X79.961 Y101.739 E902.85685
G0 F10200 X80.526 Y101.739
G1 F900 X100.046 Y121.259 E905.06529
G0 F10200 X100.612 Y121.259
G1 F900 X81.092 Y101.739 E907.27372
G0 F10200 X81.658 Y101.739
G1 F900 X101.177 Y121.259 E909.48210
G0 F10200 X101.743 Y121.259
G1 F900 X82.223 Y101.739 E911.69054
G0 F10200 X82.789 Y101.739
G1 F900 X102.309 Y121.259 E913.89897
G0 F10200 X102.874 Y121.259
G1 F900 X83.355 Y101.739 E916.10735
G0 F10200 X83.920 Y101.739
G1 F900 X103.440 Y121.259 E918.31579
G0 F10200 X104.006 Y121.259
G1 F900 X84.486 Y101.739 E920.52422
G0 F10200 X85.052 Y101.739
G1 F900 X104.571 Y121.259 E922.73260
G0 F10200 X105.137 Y121.259
G1 F900 X85.617 Y101.739 E924.94104
G0 F10200 X86.183 Y101.739
G1 F900 X105.703 Y121.259 E927.14947
G0 F10200 X106.268 Y121.259
G1 F900 X86.749 Y101.739 E929.35785
G0 F10200 X87.314 Y101.739
G1 F900 X106.834 Y121.259 E931.56629
G0 F10200 X107.400 Y121.259
G1 F900 X87.880 Y101.739 E933.77473
G0 F10200 X88.446 Y101.739
G1 F900 X107.966 Y121.259 E935.98316
G0 F10200 X108.531 Y121.259
G1 F900 X89.012 Y101.739 E938.19154
G0 F10200 X89.577 Y101.739
G1 F900 X109.097 Y121.259 E940.39998
G0 F10200 X109.663 Y121.259
G1 F900 X90.143 Y101.739 E942.60841
G0 F10200 X90.709 Y101.739
G1 F900 X110.228 Y121.259 E944.81679
G0 F10200 X110.794 Y121.259
G1 F900 X91.274 Y101.739 E947.02523
G0 F10200 X91.840 Y101.739
G1 F900 X111.360 Y121.259 E949.23366
G0 F10200 X111.925 Y121.259
G1 F900 X92.406 Y101.739 E951.44204
G0 F10200 X92.971 Y101.739
G1 F900 X112.491 Y121.259 E953.65048
G0 F10200 X113.057 Y121.259
G1 F900 X93.537 Y101.739 E955.85891
G0 F10200 X94.103 Y101.739
G1 F900 X113.622 Y121.259 E958.06729
G0 F10200 X114.188 Y121.259
G1 F900 X94.668 Y101.739 E960.27573
G0 F10200 X95.234 Y101.739
G1 F900 X114.754 Y121.259 E962.48417
G0 F10200 X115.319 Y121.259
G1 F900 X95.800 Y101.739 E964.69255
G0 F10200 X96.365 Y101.739
G1 F900 X115.885 Y121.259 E966.90098
G0 F10200 X116.451 Y121.259
G1 F900 X96.931 Y101.739 E969.10942
G0 F10200 X97.497 Y101.739
G1 F900 X117.016 Y121.259 E971.31780
G0 F10200 X117.582 Y121.259
G1 F900 X98.062 Y101.739 E973.52623
G0 F10200 X98.628 Y101.739
G1 F900 X118.148 Y121.259 E975.73467
G0 F10200 X118.714 Y121.259
G1 F900 X99.194 Y101.739 E977.94310
G0 F10200 X99.760 Y101.739
G1 F900 X119.279 Y121.259 E980.15148
G0 F10200 X119.845 Y121.259
G1 F900 X100.325 Y101.739 E982.35992
G0 F10200 X100.891 Y101.739
G1 F900 X120.411 Y121.259 E984.56836
G0 F10200 X120.976 Y121.259
G1 F900 X101.457 Y101.739 E986.77673
G0 F10200 X102.022 Y101.739
G1 F900 X121.542 Y121.259 E988.98517
G0 F10200 X122.108 Y121.259
G1 F900 X102.588 Y101.739 E991.19361
G0 F10200 X103.154 Y101.739
G1 F900 X122.673 Y121.259 E993.40199
G0 F10200 X123.239 Y121.259
G1 F900 X103.719 Y101.739 E995.61042
G0 F10200 X104.285 Y101.739
G1 F900 X123.805 Y121.259 E997.81886
G0 F10200 X124.370 Y121.259
G1 F900 X104.851 Y101.739 E1000.02724
G0 F10200 X105.416 Y101.739
G1 F900 X124.936 Y121.259 E1002.23567
G0 F10200 X125.502 Y121.259
G1 F900 X105.982 Y101.739 E1004.44411
G0 F10200 X106.548 Y101.739
G1 F900 X126.067 Y121.259 E1006.65249
G0 F10200 X126.633 Y121.259
G1 F900 X107.113 Y101.739 E1008.86092
G0 F10200 X107.679 Y101.739
G1 F900 X127.199 Y121.259 E1011.06936
G0 F10200 X127.765 Y121.259
G1 F900 X108.245 Y101.739 E1013.27780
G0 F10200 X108.811 Y101.739
G1 F900 X128.330 Y121.259 E1015.48618
G0 F10200 X128.896 Y121.259
G1 F900 X109.376 Y101.739 E1017.69461
G0 F10200 X109.942 Y101.739
G1 F900 X129.462 Y121.259 E1019.90305
G0 F10200 X130.027 Y121.259
G1 F900 X110.508 Y101.739 E1022.11143
G0 F10200 X111.073 Y101.739
G1 F900 X130.593 Y121.259 E1024.31986
G0 F10200 X131.159 Y121.259
G1 F900 X111.639 Y101.739 E1026.52830
G0 F10200 X112.205 Y101.739
G1 F900 X131.724 Y121.259 E1028.73668
G0 F10200 X132.290 Y121.259
G1 F900 X112.770 Y101.739 E1030.94511
G0 F10200 X113.336 Y101.739
G1 F900 X132.856 Y121.259 E1033.15355
G0 F10200 X133.421 Y121.259
G1 F900 X113.902 Y101.739 E1035.36193
G0 F10200 X114.467 Y101.739
G1 F900 X133.987 Y121.259 E1037.57036
G0 F10200 X134.553 Y121.259
G1 F900 X115.033 Y101.739 E1039.77880
G0 F10200 X115.599 Y101.739
G1 F900 X135.118 Y121.259 E1041.98718
G0 F10200 X135.684 Y121.259
G1 F900 X116.164 Y101.739 E1044.19562
G0 F10200 X116.730 Y101.739
G1 F900 X136.250 Y121.259 E1046.40405
G0 F10200 X136.815 Y121.259
G1 F900 X117.296 Y101.739 E1048.61243
G0 F10200 X117.861 Y101.739
G1 F900 X137.381 Y121.259 E1050.82087
G0 F10200 X137.947 Y121.259
G1 F900 X118.427 Y101.739 E1053.02930
G0 F10200 X118.993 Y101.739
G1 F900 X138.513 Y121.259 E1055.23774
G0 F10200 X139.078 Y121.259
G1 F900 X119.559 Y101.739 E1057.44612
G0 F10200 X120.124 Y101.739
G1 F900 X139.644 Y121.259 E1059.65455
G0 F10200 X140.210 Y121.259
G1 F900 X120.690 Y101.739 E1061.86299
G0 F10200 X121.256 Y101.739
G1 F900 X140.775 Y121.259 E1064.07137
G0 F10200 X141.341 Y121.259
G1 F900 X121.821 Y101.739 E1066.27980
G0 F10200 X122.387 Y101.739
G1 F900 X141.907 Y121.259 E1068.48824
G0 F10200 X142.472 Y121.259
G1 F900 X122.953 Y101.739 E1070.69662
G0 F10200 X123.518 Y101.739
G1 F900 X143.038 Y121.259 E1072.90506
G0 F10200 X143.604 Y121.259
G1 F900 X124.084 Y101.739 E1075.11349
G0 F10200 X124.650 Y101.739
G1 F900 X144.169 Y121.259 E1077.32187
G0 F10200 X144.735 Y121.259
G1 F900 X125.215 Y101.739 E1079.53031
G0 F10200 X125.781 Y101.739
G1 F900 X145.301 Y121.259 E1081.73874
G0 F10200 X145.866 Y121.259
G1 F900 X126.347 Y101.739 E1083.94712
G0 F10200 X126.912 Y101.739
G1 F900 X146.432 Y121.259 E1086.15556
G0 F10200 X146.998 Y121.259
G1 F900 X127.478 Y101.739 E1088.36399
G0 F10200 X128.044 Y101.739
G1 F900 X147.563 Y121.259 E1090.57237
G0 F10200 X148.129 Y121.259
G1 F900 X128.609 Y101.739 E1092.78081
G0 F10200 X129.175 Y101.739
G1 F900 X148.695 Y121.259 E1094.98925
