;FLAVOR:UltiGCode
;TIME:14434
;MATERIAL:11831
;MATERIAL2:0
;NOZZLE_DIAMETER:0.400000
;NOZZLE_DIAMETER2:0.400000

;Layer count: 239
;LAYER:0
M107
G0 F10200 X24.200 Y93.200 Z0.200
;TYPE:SKIRT
G1 F1200 X198.800 Y93.200 E13.96800
G1 X198.799 Y129.800 E16.89600
G1 X144.199 Y129.800 E21.26400
G1 X144.199 Y116.800 E22.30400
G1 X141.799 Y116.800 E22.49600
G1 X141.799 Y129.800 E23.53600
G1 X84.199 Y129.800 E28.14400
G1 X84.199 Y116.800 E29.18400
G1 X84.000 Y116.800 E29.19992
G1 X84.000 Y130.200 E30.27192
G1 X60.199 Y130.200 E32.17600
G1 X60.199 Y129.800 E32.20800
G1 X32.178 Y129.799 E34.44968
G1 X24.200 Y129.880 E35.08795
G1 X24.200 Y93.200 E38.02235
G0 F10200 X24.600 Y93.600
G1 F1200 X198.400 Y93.600 E51.92635
G1 X198.399 Y129.400 E54.79035
G1 X144.599 Y129.400 E59.09435
G1 X144.599 Y116.400 E60.13435
G1 X141.399 Y116.400 E60.39035
G1 X141.399 Y129.400 E61.43035
G1 X84.599 Y129.400 E65.97435
G1 X84.599 Y116.400 E67.01435
G1 X83.600 Y116.400 E67.09427
G1 X83.600 Y129.800 E68.16627
G1 X60.599 Y129.800 E70.00635
G1 X60.599 Y129.400 E70.03835
G1 X32.174 Y129.399 E72.31235
G1 X24.600 Y129.476 E72.91830
G1 X24.600 Y93.600 E75.78838
G0 F10200 X25.000 Y94.000
G1 F1200 X198.000 Y94.000 E89.62838
G1 X197.999 Y129.000 E92.42838
G1 X144.999 Y129.000 E96.66838
G1 X144.999 Y116.000 E97.70838
G1 X140.999 Y116.000 E98.02838
G1 X140.999 Y129.000 E99.06838
G1 X84.999 Y129.000 E103.54838
G1 X84.999 Y116.000 E104.58838
G1 X83.200 Y116.000 E104.73230
G1 X83.200 Y129.400 E105.80430
G1 X60.999 Y129.400 E107.58038
G1 X60.999 Y129.000 E107.61238
G1 X32.169 Y128.999 E109.91878
G1 X25.000 Y129.072 E110.49233
G1 X25.000 Y94.000 E113.29809
G0 F10200 X25.400 Y94.400
G1 F1200 X197.600 Y94.400 E127.07409
G1 X197.599 Y128.600 E129.81009
G1 X145.399 Y128.600 E133.98609
G1 X145.399 Y115.600 E135.02609
G1 X140.599 Y115.600 E135.41009
G1 X140.599 Y128.600 E136.45009
G1 X85.399 Y128.600 E140.86609
G1 X85.399 Y115.600 E141.90609
G1 X82.800 Y115.600 E142.11401
G1 X82.800 Y129.000 E143.18601
G1 X61.399 Y129.000 E144.89809
G1 X61.399 Y128.600 E144.93009
G1 X32.165 Y128.599 E147.26881
G1 X25.400 Y128.668 E147.81004
G1 X25.400 Y94.400 E150.55148
G0 F10200 X25.800 Y94.800
G1 F1200 X197.200 Y94.800 E164.26348
G1 X197.199 Y128.200 E166.93548
G1 X145.799 Y128.200 E171.04748
G1 X145.799 Y115.200 E172.08748
G1 X140.199 Y115.200 E172.53548
G1 X140.199 Y128.200 E173.57548
G1 X85.799 Y128.200 E177.92748
G1 X85.799 Y115.200 E178.96748
G1 X82.400 Y115.200 E179.23940
G1 X82.400 Y128.600 E180.31140
G1 X61.799 Y128.600 E181.95948
G1 X61.799 Y128.200 E181.99148
G1 X32.161 Y128.199 E184.36252
G1 X25.800 Y128.264 E184.87143
G1 X25.800 Y94.800 E187.54855
G0 F10200 X26.200 Y95.200
G1 F1200 X196.800 Y95.200 E201.19655
G1 X196.799 Y127.800 E203.80455
G1 X146.199 Y127.800 E207.85255
G1 X146.199 Y114.800 E208.89255
G1 X139.799 Y114.800 E209.40455
G1 X139.799 Y127.800 E210.44455
G1 X86.199 Y127.800 E214.73255
G1 X86.199 Y114.800 E215.77255
G1 X82.000 Y114.800 E216.10847
G1 X82.000 Y128.200 E217.18047
G1 X62.199 Y128.200 E218.76455
G1 X62.199 Y127.800 E218.79655
G1 X32.157 Y127.799 E221.19991
G1 X26.200 Y127.859 E221.67649
G1 X26.200 Y95.200 E224.28921
G0 F10200 X26.600 Y95.600
G1 F1200 X196.400 Y95.600 E237.87321
G1 X196.399 Y127.400 E240.41721
G1 X146.599 Y127.400 E244.40121
G1 X146.599 Y114.400 E245.44121
G1 X134.399 Y114.400 E246.41721
G1 X134.399 Y114.600 E246.43321
G1 X139.399 Y114.600 E246.83321
G1 X139.399 Y127.400 E247.85721
G1 X86.599 Y127.400 E252.08121
G1 X86.599 Y114.600 E253.10521
G1 X91.599 Y114.600 E253.50521
G1 X91.599 Y114.400 E253.52121
G1 X81.600 Y114.400 E254.32113
G1 X81.600 Y127.800 E255.39313
G1 X62.599 Y127.800 E256.91321
G1 X62.599 Y127.400 E256.94521
G1 X32.153 Y127.399 E259.38089
G1 X26.600 Y127.455 E259.82516
G1 X26.600 Y95.600 E262.37356
G0 F10200 X27.000 Y96.000
G1 F1200 X196.000 Y96.000 E275.89356
G1 X195.999 Y127.000 E278.37356
G1 X146.999 Y127.000 E282.29356
G1 X146.999 Y114.000 E283.33356
G1 X133.999 Y114.000 E284.37356
G1 X133.999 Y115.000 E284.45356
G1 X138.999 Y115.000 E284.85356
G1 X138.999 Y127.000 E285.81356
G1 X86.999 Y127.000 E289.97356
G1 X86.999 Y115.000 E290.93356
G1 X91.999 Y115.000 E291.33356
G1 X91.999 Y114.000 E291.41356
G1 X72.999 Y114.000 E292.93356
G1 X72.999 Y114.600 E292.98156
G1 X81.200 Y114.600 E293.63764
G1 X81.200 Y127.400 E294.66164
G1 X62.999 Y127.400 E296.11772
G1 X62.999 Y127.000 E296.14972
G1 X32.149 Y126.999 E298.61772
G1 X27.000 Y127.051 E299.02966
G1 X27.000 Y96.000 E301.51374
G0 F10200 X27.400 Y96.400
G1 F1200 X195.600 Y96.400 E314.96974
G1 X195.599 Y126.600 E317.38574
G1 X147.399 Y126.600 E321.24174
G1 X147.399 Y113.600 E322.28174
G1 X133.599 Y113.600 E323.38574
G1 X133.599 Y115.400 E323.52974
G1 X138.599 Y115.400 E323.92974
G1 X138.599 Y126.600 E324.82574
G1 X87.399 Y126.600 E328.92174
G1 X87.399 Y115.400 E329.81774
G1 X92.399 Y115.400 E330.21774
G1 X92.399 Y113.600 E330.36174
G1 X72.599 Y113.600 E331.94574
G1 X72.599 Y115.000 E332.05774
G1 X80.800 Y115.000 E332.71382
G1 X80.800 Y127.000 E333.67382
G1 X63.399 Y127.000 E335.06590
G1 X63.399 Y126.600 E335.09790
G1 X32.145 Y126.599 E337.59822
G1 X27.400 Y126.647 E337.97784
G1 X27.400 Y96.400 E340.39760
G0 F10200 X27.800 Y96.800
G1 F1200 X195.200 Y96.800 E353.78960
G1 X195.199 Y126.200 E356.14160
G1 X147.799 Y126.200 E359.93360
G1 X147.799 Y113.200 E360.97360
G1 X133.199 Y113.200 E362.14160
G1 X133.199 Y115.800 E362.34960
G1 X138.199 Y115.800 E362.74960
G1 X138.199 Y126.200 E363.58160
G1 X87.799 Y126.200 E367.61360
G1 X87.799 Y115.800 E368.44560
G1 X92.799 Y115.800 E368.84560
G1 X92.799 Y113.200 E369.05360
G1 X72.199 Y113.200 E370.70160
G1 X72.199 Y115.400 E370.87760
G1 X80.400 Y115.400 E371.53368
G1 X80.400 Y126.600 E372.42968
G1 X63.799 Y126.600 E373.75776
G1 X63.799 Y126.200 E373.78976
G1 X32.141 Y126.199 E376.32240
G1 X27.800 Y126.243 E376.66969
G1 X27.800 Y96.800 E379.02513
G0 F10200 X28.200 Y97.200
G1 F1200 X194.800 Y97.200 E392.35313
G1 X194.799 Y125.800 E394.64113
G1 X148.199 Y125.800 E398.36913
G1 X148.199 Y112.800 E399.40913
G1 X132.799 Y112.800 E400.64113
G1 X132.799 Y116.200 E400.91313
G1 X137.799 Y116.200 E401.31313
G1 X137.799 Y125.800 E402.08113
G1 X88.199 Y125.800 E406.04913
G1 X88.199 Y116.200 E406.81713
G1 X93.199 Y116.200 E407.21713
G1 X93.199 Y112.800 E407.48913
G1 X71.799 Y112.800 E409.20113
G1 X71.799 Y115.800 E409.44113
G1 X80.000 Y115.800 E410.09721
G1 X80.000 Y126.200 E410.92921
G1 X64.199 Y126.200 E412.19329
G1 X64.199 Y125.800 E412.22529
G1 X32.137 Y125.799 E414.79025
G1 X28.200 Y125.839 E415.10523
G1 X28.200 Y97.200 E417.39635
G0 F10200 X28.600 Y97.600
G1 F1200 X194.400 Y97.600 E430.66035
G1 X194.399 Y125.400 E432.88435
G1 X148.599 Y125.400 E436.54835
G1 X148.599 Y112.400 E437.58835
G1 X132.399 Y112.400 E438.88435
G1 X132.399 Y116.600 E439.22035
G1 X137.399 Y116.600 E439.62035
G1 X137.399 Y125.400 E440.32435
G1 X88.599 Y125.400 E444.22835
G1 X88.599 Y116.600 E444.93235
G1 X93.599 Y116.600 E445.33235
G1 X93.599 Y112.400 E445.66835
G1 X71.399 Y112.400 E447.44435
G1 X71.399 Y116.200 E447.74835
G1 X79.600 Y116.200 E448.40443
G1 X79.600 Y125.800 E449.17243
G1 X64.599 Y125.800 E450.37251
G1 X64.599 Y125.400 E450.40451
G1 X32.133 Y125.399 E453.00179
G1 X28.600 Y125.435 E453.28444
G1 X28.600 Y97.600 E455.51124
G0 F10200 X29.000 Y98.000
G1 F1200 X194.000 Y98.000 E468.71124
G1 X193.999 Y125.000 E470.87124
G1 X148.999 Y125.000 E474.47124
G1 X148.999 Y112.000 E475.51124
G1 X131.999 Y112.000 E476.87124
G1 X131.999 Y117.000 E477.27124
G1 X136.999 Y117.000 E477.67124
G1 X136.999 Y125.000 E478.31124
G1 X88.999 Y125.000 E482.15124
G1 X88.999 Y117.000 E482.79124
G1 X93.999 Y117.000 E483.19124
G1 X93.999 Y112.000 E483.59124
G1 X70.999 Y112.000 E485.43124
G1 X70.999 Y116.600 E485.79924
G1 X79.200 Y116.600 E486.45532
G1 X79.200 Y125.400 E487.15932
G1 X64.999 Y125.400 E488.29540
G1 X64.999 Y125.000 E488.32740
G1 X32.129 Y124.999 E490.95700
G1 X29.000 Y125.031 E491.20734
G1 X29.000 Y98.000 E493.36982
G0 F10200 X29.400 Y98.400
G1 F1200 X193.600 Y98.400 E506.50582
G1 X193.599 Y124.600 E508.60182
G1 X149.399 Y124.600 E512.13782
G1 X149.399 Y111.600 E513.17782
G1 X131.599 Y111.600 E514.60182
G1 X131.599 Y117.400 E515.06582
G1 X136.599 Y117.400 E515.46582
G1 X136.599 Y124.600 E516.04182
G1 X89.399 Y124.600 E519.81782
G1 X89.399 Y117.400 E520.39382
G1 X94.399 Y117.400 E520.79382
G1 X94.399 Y111.600 E521.25782
G1 X70.599 Y111.600 E523.16182
G1 X70.599 Y117.000 E523.59382
G1 X78.800 Y117.000 E524.24990
G1 X78.800 Y125.000 E524.88990
G1 X65.399 Y125.000 E525.96198
G1 X65.399 Y124.600 E525.99398
G1 X32.125 Y124.599 E528.65590
G1 X29.400 Y124.627 E528.87391
G1 X29.400 Y98.400 E530.97207
G0 F10200 X29.800 Y98.800
G1 F1200 X193.200 Y98.800 E544.04407
G1 X193.199 Y124.200 E546.07607
G1 X149.799 Y124.200 E549.54807
G1 X149.799 Y111.200 E550.58807
G1 X131.199 Y111.200 E552.07607
G1 X131.199 Y117.800 E552.60407
G1 X136.199 Y117.800 E553.00407
G1 X136.199 Y124.200 E553.51607
G1 X89.799 Y124.200 E557.22807
G1 X89.799 Y117.800 E557.74007
G1 X94.799 Y117.800 E558.14007
G1 X94.799 Y111.200 E558.66807
G1 X70.199 Y111.200 E560.63607
G1 X70.199 Y117.400 E561.13207
G1 X78.400 Y117.400 E561.78815
G1 X78.400 Y124.600 E562.36415
G1 X65.799 Y124.600 E563.37223
G1 X65.799 Y124.200 E563.40423
G1 X32.120 Y124.199 E566.09855
G1 X29.800 Y124.223 E566.28416
G1 X29.800 Y98.800 E568.31800
G0 F10200 X30.200 Y99.200
G1 F1200 X192.800 Y99.200 E581.32600
G1 X192.799 Y123.800 E583.29400
G1 X150.199 Y123.800 E586.70200
G1 X150.199 Y110.800 E587.74200
G1 X130.799 Y110.800 E589.29400
G1 X130.799 Y118.200 E589.88600
G1 X135.799 Y118.200 E590.28600
G1 X135.799 Y123.800 E590.73400
G1 X90.199 Y123.800 E594.38200
G1 X90.199 Y118.200 E594.83000
G1 X95.199 Y118.200 E595.23000
G1 X95.199 Y110.800 E595.82200
G1 X69.799 Y110.800 E597.85400
G1 X69.799 Y117.800 E598.41400
G1 X78.000 Y117.800 E599.07008
G1 X78.000 Y124.200 E599.58208
G1 X66.199 Y124.200 E600.52616
G1 X66.199 Y123.800 E600.55816
G1 X32.116 Y123.799 E603.28480
G1 X30.200 Y123.818 E603.43809
G1 X30.200 Y99.200 E605.40753
G0 F10200 X30.600 Y99.600
G1 F1200 X192.400 Y99.600 E618.35153
G1 X192.399 Y123.400 E620.25553
G1 X150.599 Y123.400 E623.59953
G1 X150.599 Y110.400 E624.63953
G1 X130.399 Y110.400 E626.25553
G1 X130.399 Y118.600 E626.91153
G1 X135.399 Y118.600 E627.31153
G1 X135.399 Y123.400 E627.69553
G1 X90.599 Y123.400 E631.27953
G1 X90.599 Y118.600 E631.66353
G1 X95.599 Y118.600 E632.06353
G1 X95.599 Y110.400 E632.71953
G1 X69.399 Y110.400 E634.81553
G1 X69.399 Y118.200 E635.43953
G1 X77.600 Y118.200 E636.09561
G1 X77.600 Y123.800 E636.54361
G1 X66.599 Y123.800 E637.42369
G1 X66.599 Y123.400 E637.45569
G1 X32.112 Y123.399 E640.21465
G1 X30.600 Y123.414 E640.33561
G1 X30.600 Y99.600 E642.24073
G0 F10200 X31.000 Y100.000
G1 F1200 X192.000 Y100.000 E655.12073
G1 X191.999 Y123.000 E656.96073
G1 X150.999 Y123.000 E660.24073
G1 X150.999 Y110.000 E661.28073
G1 X129.999 Y110.000 E662.96073
G1 X129.999 Y119.000 E663.68073
G1 X134.999 Y119.000 E664.08073
G1 X134.999 Y123.000 E664.40073
G1 X90.999 Y123.000 E667.92073
G1 X90.999 Y119.000 E668.24073
G1 X95.999 Y119.000 E668.64073
G1 X95.999 Y110.000 E669.36073
G1 X68.999 Y110.000 E671.52073
G1 X68.999 Y118.600 E672.20873
G1 X77.200 Y118.600 E672.86481
G1 X77.200 Y123.400 E673.24881
G1 X66.999 Y123.400 E674.06489
G1 X66.999 Y123.000 E674.09689
G1 X32.108 Y122.999 E676.88817
G1 X31.000 Y123.010 E676.97682
G1 X31.000 Y100.000 E678.81762
G0 F10200 X31.400 Y100.400
G1 F1200 X191.600 Y100.400 E691.63362
G1 X191.599 Y122.600 E693.40962
G1 X151.399 Y122.600 E696.62562
G1 X151.399 Y109.600 E697.66562
G1 X129.599 Y109.600 E699.40962
G1 X129.599 Y119.400 E700.19362
G1 X134.599 Y119.400 E700.59362
G1 X134.599 Y122.600 E700.84962
G1 X91.399 Y122.600 E704.30562
G1 X91.399 Y119.400 E704.56162
G1 X96.399 Y119.400 E704.96162
G1 X96.399 Y109.600 E705.74562
G1 X68.599 Y109.600 E707.96962
G1 X68.599 Y119.000 E708.72162
G1 X76.800 Y119.000 E709.37770
G1 X76.800 Y123.000 E709.69770
G1 X67.399 Y123.000 E710.44978
G1 X67.399 Y122.600 E710.48178
G1 X32.104 Y122.599 E713.30538
G1 X31.400 Y122.606 E713.36170
G1 X31.400 Y100.400 E715.13818
G0 F10200 X31.800 Y100.800
G1 F1200 X191.200 Y100.800 E727.89018
G1 X191.199 Y122.200 E729.60218
G1 X151.799 Y122.200 E732.75418
G1 X151.799 Y109.200 E733.79418
G1 X129.199 Y109.200 E735.60218
G1 X129.199 Y119.800 E736.45018
G1 X134.199 Y119.800 E736.85018
G1 X134.199 Y122.200 E737.04218
G1 X91.799 Y122.200 E740.43418
G1 X91.799 Y119.800 E740.62618
G1 X96.799 Y119.800 E741.02618
G1 X96.799 Y109.200 E741.87418
G1 X68.199 Y109.200 E744.16218
G1 X68.199 Y119.400 E744.97818
G1 X76.400 Y119.400 E745.63426
G1 X76.400 Y122.600 E745.89026
G1 X67.799 Y122.600 E746.57834
G1 X67.799 Y122.200 E746.61034
G1 X32.100 Y122.199 E749.46626
G1 X31.800 Y122.202 E749.49026
G1 X31.800 Y100.800 E751.20242
G0 F10200 X32.600 Y101.600
;TYPE:WALL-INNER
G1 F1200 X190.400 Y101.600 E763.82642
G1 X190.399 Y121.400 E765.41042
G1 X152.599 Y121.400 E768.43442
G1 X152.599 Y108.400 E769.47442
G1 X128.399 Y108.400 E771.41042
G1 X128.399 Y120.600 E772.38642
G1 X133.399 Y120.600 E772.78642
G1 X133.399 Y121.400 E772.85042
G1 X92.599 Y121.400 E776.11442
G1 X92.599 Y120.600 E776.17842
G1 X97.599 Y120.600 E776.57842
G1 X97.599 Y108.400 E777.55442
G1 X67.399 Y108.400 E779.97042
G1 X67.399 Y121.400 E781.01042
G1 X32.600 Y121.399 E783.79434
G1 X32.600 Y101.600 E785.37826
G0 F10200 X32.200 Y101.200
;TYPE:WALL-OUTER
G1 F1200 X190.800 Y101.200 E798.06626
G1 X190.799 Y121.800 E799.71426
G1 X152.199 Y121.800 E802.80226
G1 X152.199 Y108.800 E803.84226
G1 X128.799 Y108.800 E805.71426
G1 X128.799 Y120.200 E806.62626
G1 X133.799 Y120.200 E807.02626
G1 X133.799 Y121.800 E807.15426
G1 X92.199 Y121.800 E810.48226
G1 X92.199 Y120.200 E810.61026
G1 X97.199 Y120.200 E811.01026
G1 X97.199 Y108.800 E811.92226
G1 X67.799 Y108.800 E814.27426
G1 X67.799 Y121.800 E815.31426
G1 X32.200 Y121.799 E818.16218
G1 X32.200 Y101.200 E819.81010
G0 F10200 X33.009 Y101.739
;TYPE:SKIN
G1 F900 X52.528 Y121.258 E822.01842
G0 F10200 X53.093 Y121.258
G1 F900 X33.574 Y101.739 E824.22675
G0 F10200 X34.140 Y101.739
G1 F900 X53.659 Y121.258 E826.43507
G0 F10200 X54.225 Y121.258
G1 F900 X34.706 Y101.739 E828.64339
G0 F10200 X35.271 Y101.739
G1 F900 X54.790 Y121.258 E830.85171
G0 F10200 X55.356 Y121.258
G1 F900 X35.837 Y101.739 E833.06004
G0 F10200 X36.403 Y101.739
G1 F900 X55.922 Y121.258 E835.26836
G0 F10200 X56.487 Y121.258
G1 F900 X36.968 Y101.739 E837.47668
G0 F10200 X37.534 Y101.739
G1 F900 X57.053 Y121.258 E839.68501
G0 F10200 X57.619 Y121.258
G1 F900 X38.100 Y101.739 E841.89333
G0 F10200 X38.666 Y101.739
G1 F900 X58.184 Y121.258 E844.10159
G0 F10200 X58.750 Y121.258
G1 F900 X39.231 Y101.739 E846.30992
G0 F10200 X39.797 Y101.739
G1 F900 X59.316 Y121.258 E848.51824
G0 F10200 X59.882 Y121.258
G1 F900 X40.363 Y101.739 E850.72656
G0 F10200 X40.928 Y101.739
G1 F900 X60.447 Y121.258 E852.93489
G0 F10200 X61.013 Y121.258
G1 F900 X41.494 Y101.739 E855.14321
G0 F10200 X42.060 Y101.739
G1 F900 X61.579 Y121.258 E857.35153
G0 F10200 X62.144 Y121.258
G1 F900 X42.625 Y101.739 E859.55985
G0 F10200 X43.191 Y101.739
G1 F900 X62.710 Y121.258 E861.76818
G0 F10200 X63.276 Y121.258
G1 F900 X43.757 Y101.739 E863.97650
G0 F10200 X44.322 Y101.739
G1 F900 X63.841 Y121.258 E866.18482
G0 F10200 X64.407 Y121.258
G1 F900 X44.888 Y101.739 E868.39315
G0 F10200 X45.454 Y101.739
G1 F900 X64.973 Y121.258 E870.60147
G0 F10200 X65.538 Y121.258
G1 F900 X46.019 Y101.739 E872.80979
G0 F10200 X46.585 Y101.739
G1 F900 X66.104 Y121.258 E875.01811
G0 F10200 X66.670 Y121.258
G1 F900 X47.151 Y101.739 E877.22644
G0 F10200 X47.716 Y101.739
G1 F900 X67.235 Y121.258 E879.43476
G0 F10200 X67.259 Y120.716
G1 F900 X48.282 Y101.739 E881.58176
G0 F10200 X48.848 Y101.739
G1 F900 X67.259 Y120.150 E883.66473
G0 F10200 X67.259 Y119.585
G1 F900 X49.414 Y101.739 E885.68372
G0 F10200 X49.979 Y101.739
G1 F900 X67.259 Y119.019 E887.63873
G0 F10200 X67.259 Y118.453
G1 F900 X50.545 Y101.739 E889.52970
G0 F10200 X51.111 Y101.739
G1 F900 X67.259 Y117.888 E891.35669
G0 F10200 X67.259 Y117.322
G1 F900 X51.676 Y101.739 E893.11971
