;FLAVOR:UltiGCode
;TIME:9420
;MATERIAL:9861
;MATERIAL2:0
;NOZZLE_DIAMETER:0.400000
;NOZZLE_DIAMETER2:0.400000

;Layer count: 286
;LAYER:0
M107
G0 F9000 X93.484 Y100.399 Z0.200
G0 X93.484 Y100.809
;TYPE:SKIRT
G1 F1200 X93.484 Y100.399 E0.03280
G1 X100.467 Y93.416 E0.82284
G1 X102.595 Y92.350 E1.01324
G1 X103.197 Y92.150 E1.06399
G1 X103.600 Y91.948 E1.10005
G1 X106.034 Y91.136 E1.30532
G1 X110.031 Y91.136 E1.62508
G1 X112.464 Y91.946 E1.83023
G1 X114.997 Y93.212 E2.05677
G1 X115.399 Y93.613 E2.10219
G1 X115.799 Y93.813 E2.13797
G1 X116.821 Y94.835 E2.25359
G1 X150.815 Y60.841 E6.09958
G1 X151.190 Y60.467 E6.14195
G1 X151.190 Y60.468 E6.14203
G1 X160.836 Y50.822 E7.23335
G1 X160.684 Y50.670 E7.25054
G1 X160.684 Y50.474 E7.26622
G1 X158.484 Y48.273 E7.51518
G1 X158.484 Y48.069 E7.53150
G1 X158.084 Y47.668 E7.57681
G1 X158.084 Y47.463 E7.59321
G1 X157.884 Y47.262 E7.61590
G1 X157.884 Y46.863 E7.64782
G1 X157.684 Y46.662 E7.67050
G1 X157.684 Y46.263 E7.70242
G1 X157.484 Y46.062 E7.72511
G1 X157.484 Y37.610 E8.40127
G1 X157.684 Y37.409 E8.42395
G1 X157.684 Y37.010 E8.45587
G1 X157.884 Y36.809 E8.47855
G1 X157.884 Y36.410 E8.51047
G1 X158.084 Y36.209 E8.53316
G1 X158.084 Y36.004 E8.54956
G1 X158.484 Y35.603 E8.59487
G1 X158.484 Y35.399 E8.61119
G1 X164.071 Y29.813 E9.24323
G1 X164.472 Y29.612 E9.27911
G1 X165.107 Y28.980 E9.35079
G1 X166.994 Y28.350 E9.50994
G1 X168.620 Y27.536 E9.65541
G1 X175.434 Y27.536 E10.20053
G1 X179.157 Y28.779 E10.51453
G1 X179.993 Y29.611 E10.60889
G1 X180.397 Y29.813 E10.64502
G1 X181.120 Y30.536 E10.72682
G1 X183.589 Y28.068 E11.00610
G1 X202.257 Y34.290 E12.58030
G1 X34.641 Y201.906 E31.54389
G1 X30.013 Y188.005 E32.71598
G1 X28.410 Y183.247 E33.11764
G1 X29.744 Y181.913 E33.26857
G1 X28.284 Y181.191 E33.39887
G1 X28.284 Y179.272 E33.55239
G1 X27.484 Y178.471 E33.64296
G1 X27.484 Y178.063 E33.67560
G1 X27.284 Y177.862 E33.69828
G1 X27.284 Y177.463 E33.73020
G1 X27.084 Y177.262 E33.75288
G1 X27.084 Y167.610 E34.52504
G1 X27.284 Y167.409 E34.54773
G1 X27.284 Y167.210 E34.56365
G1 X27.484 Y167.009 E34.58633
G1 X27.484 Y166.604 E34.61873
G1 X27.884 Y166.203 E34.66404
G1 X27.884 Y165.999 E34.68036
G1 X33.470 Y160.414 E35.31229
G1 X33.874 Y160.212 E35.34843
G1 X34.079 Y160.008 E35.37156
G1 X36.204 Y158.947 E35.56158
G1 X39.233 Y157.936 E35.81704
G1 X44.236 Y157.936 E36.21728
G1 X46.667 Y158.749 E36.42234
G1 X49.199 Y160.013 E36.64874
G1 X50.421 Y161.235 E36.78700
G1 X96.933 Y114.723 E42.04923
G1 X93.884 Y111.673 E42.39424
G1 X93.884 Y111.469 E42.41056
G1 X93.484 Y111.068 E42.45587
G1 X93.484 Y110.863 E42.47227
G1 X93.284 Y110.662 E42.49495
G1 X93.284 Y110.463 E42.51087
G1 X93.084 Y110.262 E42.53356
G1 X93.084 Y101.410 E43.24172
G1 X93.284 Y101.209 E43.26440
G1 X93.284 Y101.010 E43.28032
G1 X93.484 Y100.809 E43.30301
G0 F9000 X93.884 Y100.974
G1 F1200 X93.884 Y100.565 E43.33573
G1 X100.704 Y93.744 E44.10738
G1 X102.749 Y92.720 E44.29034
G1 X103.353 Y92.519 E44.34127
G1 X103.754 Y92.319 E44.37712
G1 X106.099 Y91.536 E44.57490
G1 X109.966 Y91.536 E44.88426
G1 X112.311 Y92.316 E45.08196
G1 X114.760 Y93.541 E45.30103
G1 X115.162 Y93.942 E45.34645
G1 X115.562 Y94.142 E45.38223
G1 X116.821 Y95.401 E45.52467
G1 X161.400 Y50.822 E50.56821
G1 X161.084 Y50.505 E50.60401
G1 X161.084 Y50.308 E50.61977
G1 X158.884 Y48.107 E50.86873
G1 X158.884 Y47.904 E50.88497
G1 X158.484 Y47.503 E50.93028
G1 X158.484 Y47.298 E50.94668
G1 X158.284 Y47.097 E50.96937
G1 X158.284 Y46.698 E51.00129
G1 X158.084 Y46.497 E51.02397
G1 X158.084 Y46.098 E51.05589
G1 X157.884 Y45.897 E51.07858
G1 X157.884 Y37.775 E51.72834
G1 X158.084 Y37.574 E51.75102
G1 X158.084 Y37.175 E51.78294
G1 X158.284 Y36.974 E51.80562
G1 X158.284 Y36.575 E51.83754
G1 X158.484 Y36.374 E51.86023
G1 X158.484 Y36.169 E51.87663
G1 X158.884 Y35.768 E51.92194
G1 X158.884 Y35.565 E51.93818
G1 X164.308 Y30.141 E52.55183
G1 X164.709 Y29.941 E52.58768
G1 X165.323 Y29.329 E52.65704
G1 X167.147 Y28.721 E52.81085
G1 X168.715 Y27.936 E52.95113
G1 X175.369 Y27.936 E53.48345
G1 X178.942 Y29.128 E53.78478
G1 X179.757 Y29.939 E53.87676
G1 X180.160 Y30.141 E53.91282
G1 X181.121 Y31.102 E54.02155
G1 X183.697 Y28.525 E54.31304
G1 X201.516 Y34.465 E55.81568
G1 X34.816 Y201.165 E74.67564
G1 X30.392 Y187.879 E75.79589
G1 X28.869 Y183.355 E76.17777
G1 X30.421 Y181.803 E76.35336
G1 X28.684 Y180.943 E76.50842
G1 X28.684 Y179.106 E76.65538
G1 X27.884 Y178.305 E76.74594
G1 X27.884 Y177.898 E76.77850
G1 X27.684 Y177.697 E76.80119
G1 X27.684 Y177.298 E76.83311
G1 X27.484 Y177.097 E76.85579
G1 X27.484 Y167.775 E77.60155
G1 X27.684 Y167.574 E77.62424
G1 X27.684 Y167.375 E77.64016
G1 X27.884 Y167.174 E77.66284
G1 X27.884 Y166.769 E77.69524
G1 X28.284 Y166.368 E77.74055
G1 X28.284 Y166.165 E77.75679
G1 X33.707 Y160.742 E78.37033
G1 X34.111 Y160.540 E78.40647
G1 X34.315 Y160.337 E78.42949
G1 X36.357 Y159.318 E78.61206
G1 X39.298 Y158.336 E78.86011
G1 X44.171 Y158.336 E79.24995
G1 X46.513 Y159.119 E79.44751
G1 X48.962 Y160.342 E79.66650
G1 X50.422 Y161.802 E79.83168
G1 X97.499 Y114.724 E85.15789
G1 X94.284 Y111.508 E85.52168
G1 X94.284 Y111.304 E85.53800
G1 X93.884 Y110.903 E85.58331
G1 X93.884 Y110.698 E85.59971
G1 X93.684 Y110.497 E85.62240
G1 X93.684 Y110.298 E85.63832
G1 X93.484 Y110.097 E85.66100
G1 X93.484 Y101.575 E86.34276
G1 X93.684 Y101.374 E86.36544
G1 X93.684 Y101.175 E86.38136
G1 X93.884 Y100.974 E86.40405
G0 F9000 X94.284 Y101.139
G1 F1200 X94.284 Y100.731 E86.43669
G1 X100.941 Y94.073 E87.18990
G1 X102.902 Y93.091 E87.36535
G1 X103.505 Y92.890 E87.41620
G1 X103.907 Y92.689 E87.45215
G1 X106.164 Y91.936 E87.64250
G1 X109.901 Y91.936 E87.94146
G1 X112.157 Y92.687 E88.13168
G1 X114.524 Y93.870 E88.34337
G1 X114.927 Y94.272 E88.38891
G1 X115.325 Y94.471 E88.42451
G1 X116.821 Y95.967 E88.59376
G1 X151.380 Y61.407 E92.50372
G1 X151.748 Y61.040 E92.54530
G1 X161.966 Y50.822 E93.70133
G1 X161.484 Y50.339 E93.75592
G1 X161.484 Y50.143 E93.77160
G1 X159.284 Y47.942 E94.02056
G1 X159.284 Y47.738 E94.03688
G1 X158.884 Y47.337 E94.08219
G1 X158.884 Y47.133 E94.09851
G1 X158.684 Y46.932 E94.12119
G1 X158.684 Y46.533 E94.15311
G1 X158.484 Y46.332 E94.17580
G1 X158.484 Y45.933 E94.20772
G1 X158.284 Y45.732 E94.23040
G1 X158.284 Y37.940 E94.85376
G1 X158.484 Y37.739 E94.87645
G1 X158.484 Y37.340 E94.90837
G1 X158.684 Y37.139 E94.93105
G1 X158.684 Y36.740 E94.96297
G1 X158.884 Y36.539 E94.98565
G1 X158.884 Y36.335 E95.00197
G1 X159.284 Y35.934 E95.04729
G1 X159.284 Y35.731 E95.06353
G1 X164.544 Y30.470 E95.65868
G1 X164.945 Y30.270 E95.69453
G1 X165.538 Y29.679 E95.76151
G1 X167.305 Y29.090 E95.91052
G1 X168.809 Y28.336 E96.04511
G1 X175.304 Y28.336 E96.56471
G1 X178.726 Y29.478 E96.85331
G1 X179.519 Y30.268 E96.94286
G1 X179.924 Y30.470 E96.97907
G1 X181.121 Y31.667 E97.11449
G1 X183.805 Y28.983 E97.41815
G1 X200.776 Y34.640 E98.84927
G1 X34.991 Y200.424 E117.60565
G1 X30.772 Y187.753 E118.67404
G1 X29.327 Y183.462 E119.03626
G1 X31.098 Y181.691 E119.23663
G1 X29.084 Y180.695 E119.41637
G1 X29.084 Y178.941 E119.55669
G1 X28.284 Y178.140 E119.64726
G1 X28.284 Y177.733 E119.67982
G1 X28.084 Y177.532 E119.70250
G1 X28.084 Y177.133 E119.73442
G1 X27.884 Y176.932 E119.75711
G1 X27.884 Y167.940 E120.47647
G1 X28.084 Y167.739 E120.49915
G1 X28.084 Y167.540 E120.51507
G1 X28.284 Y167.339 E120.53776
G1 X28.284 Y166.935 E120.57008
G1 X28.684 Y166.534 E120.61539
G1 X28.684 Y166.331 E120.63163
G1 X33.943 Y161.071 E121.22667
G1 X34.347 Y160.869 E121.26281
G1 X34.551 Y160.666 E121.28583
G1 X36.511 Y159.688 E121.46107
G1 X39.363 Y158.736 E121.70160
G1 X44.106 Y158.736 E122.08104
G1 X46.360 Y159.489 E122.27116
G1 X48.725 Y160.671 E122.48267
G1 X50.422 Y162.367 E122.67461
G1 X98.065 Y114.723 E128.06486
G1 X94.684 Y111.342 E128.44737
G1 X94.684 Y111.138 E128.46369
G1 X94.284 Y110.737 E128.50900
G1 X94.284 Y110.533 E128.52532
G1 X94.084 Y110.332 E128.54801
G1 X94.084 Y110.133 E128.56393
G1 X93.884 Y109.932 E128.58661
G1 X93.884 Y101.740 E129.24197
G1 X94.084 Y101.539 E129.26466
G1 X94.084 Y101.340 E129.28058
G1 X94.284 Y101.139 E129.30326
G0 F9000 X94.684 Y101.304
G1 F1200 X94.684 Y100.896 E129.33590
G1 X101.179 Y94.402 E130.07067
G1 X103.056 Y93.461 E130.23864
G1 X103.660 Y93.260 E130.28957
G1 X104.061 Y93.060 E130.32542
G1 X106.229 Y92.336 E130.50827
G1 X109.837 Y92.336 E130.79691
G1 X112.004 Y93.057 E130.97962
G1 X114.287 Y94.199 E131.18383
G1 X114.690 Y94.601 E131.22937
G1 X115.088 Y94.800 E131.26497
G1 X116.821 Y96.532 E131.46098
G1 X151.663 Y61.690 E135.40290
G1 X152.037 Y61.317 E135.44516
G1 X162.484 Y50.870 E136.62710
G1 X162.484 Y50.775 E136.63470
G1 X161.884 Y50.174 E136.70264
G1 X161.884 Y49.977 E136.71840
G1 X159.684 Y47.776 E136.96736
G1 X159.684 Y47.573 E136.98360
G1 X159.284 Y47.172 E137.02891
G1 X159.284 Y46.968 E137.04523
G1 X159.084 Y46.767 E137.06791
G1 X159.084 Y46.368 E137.09983
G1 X158.884 Y46.167 E137.12252
G1 X158.884 Y45.768 E137.15444
G1 X158.684 Y45.567 E137.17712
G1 X158.684 Y38.105 E137.77408
G1 X158.884 Y37.904 E137.79677
G1 X158.884 Y37.505 E137.82869
G1 X159.084 Y37.304 E137.85137
G1 X159.084 Y36.905 E137.88329
G1 X159.284 Y36.704 E137.90597
G1 X159.284 Y36.500 E137.92229
G1 X159.684 Y36.099 E137.96760
G1 X159.684 Y35.896 E137.98384
G1 X164.781 Y30.799 E138.56050
G1 X165.182 Y30.599 E138.59635
G1 X165.754 Y30.029 E138.66095
G1 X167.451 Y29.463 E138.80407
G1 X168.904 Y28.736 E138.93404
G1 X175.239 Y28.736 E139.44084
G1 X178.510 Y29.828 E139.71672
G1 X179.283 Y30.597 E139.80395
G1 X179.687 Y30.799 E139.84009
G1 X181.121 Y32.233 E140.00232
G1 X183.913 Y29.441 E140.31820
G1 X200.035 Y34.815 E141.67773
G1 X35.166 Y199.684 E160.33053
G1 X31.151 Y187.626 E161.34724
G1 X29.785 Y183.569 E161.68970
G1 X31.774 Y181.580 E161.91473
G1 X29.484 Y180.446 E162.11916
G1 X29.484 Y178.775 E162.25284
G1 X28.684 Y177.974 E162.34341
G1 X28.684 Y177.568 E162.37589
G1 X28.484 Y177.367 E162.39857
G1 X28.484 Y176.968 E162.43049
G1 X28.284 Y176.767 E162.45318
G1 X28.284 Y168.105 E163.14614
G1 X28.484 Y167.904 E163.16882
G1 X28.484 Y167.705 E163.18474
G1 X28.684 Y167.504 E163.20743
G1 X28.684 Y167.100 E163.23975
G1 X29.084 Y166.699 E163.28506
G1 X29.084 Y166.496 E163.30130
G1 X34.180 Y161.400 E163.87784
G1 X34.584 Y161.198 E163.91398
G1 X34.788 Y160.995 E163.93700
G1 X36.664 Y160.059 E164.10472
G1 X39.428 Y159.136 E164.33785
G1 X44.041 Y159.136 E164.70689
G1 X46.206 Y159.860 E164.88952
G1 X48.488 Y160.999 E165.09355
G1 X50.422 Y162.932 E165.31230
G1 X98.630 Y114.723 E170.76647
G1 X95.084 Y111.176 E171.16771
G1 X95.084 Y110.973 E171.18395
G1 X94.684 Y110.572 E171.22926
G1 X94.684 Y110.368 E171.24558
G1 X94.484 Y110.167 E171.26827
G1 X94.484 Y109.968 E171.28419
G1 X94.284 Y109.767 E171.30687
G1 X94.284 Y101.905 E171.93583
G1 X94.484 Y101.704 E171.95852
G1 X94.484 Y101.505 E171.97444
G1 X94.684 Y101.304 E171.99712
G0 F9000 X95.084 Y101.469
G1 F1200 X95.084 Y101.062 E172.02968
G1 X101.416 Y94.730 E172.74606
G1 X103.209 Y93.832 E172.90649
G1 X103.814 Y93.630 E172.95752
G1 X104.214 Y93.430 E172.99329
G1 X106.294 Y92.736 E173.16871
G1 X109.772 Y92.736 E173.44695
G1 X111.850 Y93.428 E173.62217
G1 X114.050 Y94.528 E173.81894
G1 X114.452 Y94.929 E173.86436
G1 X114.851 Y95.128 E173.90003
G1 X116.822 Y97.098 E174.12297
G1 X151.946 Y61.973 E178.09685
G1 X152.320 Y61.600 E178.13911
G1 X162.901 Y51.019 E179.33621
G1 X162.884 Y51.002 E179.33814
G1 X162.884 Y50.609 E179.36958
G1 X162.284 Y50.008 E179.43752
G1 X162.284 Y49.811 E179.45328
G1 X160.084 Y47.610 E179.70224
G1 X160.084 Y47.408 E179.71840
G1 X159.684 Y47.007 E179.76371
G1 X159.684 Y46.803 E179.78003
G1 X159.484 Y46.602 E179.80271
G1 X159.484 Y46.203 E179.83463
G1 X159.284 Y46.002 E179.85731
G1 X159.284 Y45.603 E179.88923
G1 X159.084 Y45.402 E179.91192
G1 X159.084 Y38.270 E180.48248
G1 X159.284 Y38.069 E180.50516
G1 X159.284 Y37.670 E180.53708
G1 X159.484 Y37.469 E180.55977
G1 X159.484 Y37.070 E180.59169
G1 X159.684 Y36.869 E180.61437
G1 X159.684 Y36.665 E180.63069
G1 X160.084 Y36.264 E180.67600
G1 X160.084 Y36.062 E180.69216
G1 X165.018 Y31.128 E181.25038
G1 X165.419 Y30.928 E181.28623
G1 X165.970 Y30.379 E181.34845
G1 X167.612 Y29.831 E181.48694
G1 X168.999 Y29.136 E181.61105
G1 X175.174 Y29.136 E182.10505
G1 X178.295 Y30.177 E182.36825
G1 X179.048 Y30.927 E182.45327
G1 X179.450 Y31.128 E182.48923
G1 X181.121 Y32.798 E182.67823
G1 X184.021 Y29.898 E183.00632
G1 X199.295 Y34.990 E184.29436
G1 X35.341 Y198.943 E202.84358
G1 X31.531 Y187.500 E203.80843
G1 X30.243 Y183.677 E204.13116
G1 X32.452 Y181.468 E204.38108
G1 X29.884 Y180.198 E204.61027
G1 X29.884 Y178.610 E204.73731
G1 X29.084 Y177.809 E204.82787
G1 X29.084 Y177.403 E204.86035
G1 X28.884 Y177.202 E204.88304
G1 X28.884 Y176.803 E204.91496
G1 X28.684 Y176.602 E204.93764
G1 X28.684 Y168.270 E205.60420
G1 X28.884 Y168.069 E205.62689
G1 X28.884 Y167.870 E205.64281
G1 X29.084 Y167.669 E205.66549
G1 X29.084 Y167.265 E205.69781
G1 X29.484 Y166.864 E205.74312
G1 X29.484 Y166.662 E205.75928
G1 X34.417 Y161.729 E206.31739
G1 X34.819 Y161.528 E206.35334
G1 X35.024 Y161.324 E206.37648
G1 X36.817 Y160.429 E206.53680
G1 X39.493 Y159.536 E206.76248
G1 X43.976 Y159.536 E207.12112
G1 X46.053 Y160.230 E207.29631
G1 X48.251 Y161.328 E207.49287
G1 X50.422 Y163.498 E207.73844
G1 X99.196 Y114.724 E213.25658
G1 X95.484 Y111.011 E213.67660
G1 X95.484 Y110.808 E213.69284
G1 X95.084 Y110.407 E213.73816
G1 X95.084 Y110.203 E213.75448
G1 X94.884 Y110.002 E213.77716
G1 X94.884 Y109.803 E213.79308
G1 X94.684 Y109.602 E213.81576
G1 X94.684 Y102.070 E214.41832
G1 X94.884 Y101.869 E214.44101
G1 X94.884 Y101.670 E214.45693
G1 X95.084 Y101.469 E214.47961
G0 F9000 X95.484 Y101.634
G1 F1200 X95.484 Y101.228 E214.51209
G1 X101.653 Y95.059 E215.21004
G1 X103.363 Y94.202 E215.36305
G1 X103.965 Y94.002 E215.41380
G1 X104.368 Y93.801 E215.44983
G1 X106.359 Y93.136 E215.61776
G1 X109.707 Y93.136 E215.88560
G1 X111.697 Y93.798 E216.05338
G1 X113.813 Y94.857 E216.24267
G1 X114.214 Y95.257 E216.28799
G1 X114.614 Y95.457 E216.32376
G1 X116.821 Y97.664 E216.57346
G1 X152.228 Y62.256 E220.57936
G1 X152.602 Y61.883 E220.62161
G1 X152.602 Y61.884 E220.62169
G1 X163.466 Y51.020 E221.85082
G1 X163.284 Y50.837 E221.87146
G1 X163.284 Y50.444 E221.90290
G1 X162.684 Y49.843 E221.97084
G1 X162.684 Y49.646 E221.98660
G1 X160.484 Y47.445 E222.23556
G1 X160.484 Y47.242 E222.25180
G1 X160.084 Y46.841 E222.29711
G1 X160.084 Y46.638 E222.31335
G1 X159.884 Y46.437 E222.33604
G1 X159.884 Y46.038 E222.36796
G1 X159.684 Y45.837 E222.39064
G1 X159.684 Y45.438 E222.42256
G1 X159.484 Y45.237 E222.44524
G1 X159.484 Y38.435 E222.98940
G1 X159.684 Y38.234 E223.01209
G1 X159.684 Y37.835 E223.04401
G1 X159.884 Y37.634 E223.06669
G1 X159.884 Y37.235 E223.09861
G1 X160.084 Y37.034 E223.12130
G1 X160.084 Y36.831 E223.13754
G1 X160.484 Y36.430 E223.18285
G1 X160.484 Y36.228 E223.19901
G1 X165.255 Y31.456 E223.73884
G1 X165.655 Y31.256 E223.77462
G1 X166.185 Y30.728 E223.83447
G1 X167.764 Y30.202 E223.96761
G1 X169.093 Y29.536 E224.08653
G1 X175.109 Y29.536 E224.56781
G1 X178.079 Y30.527 E224.81829
G1 X178.810 Y31.255 E224.90083
G1 X179.213 Y31.456 E224.93685
G1 X181.121 Y33.364 E225.15272
G1 X184.129 Y30.356 E225.49304
G1 X198.554 Y35.164 E226.70945
G1 X35.516 Y198.202 E245.15509
G1 X31.910 Y187.373 E246.06818
G1 X30.702 Y183.784 E246.37113
G1 X33.128 Y181.358 E246.64560
G1 X30.284 Y179.950 E246.89948
G1 X30.284 Y178.444 E247.01996
G1 X29.484 Y177.643 E247.11052
G1 X29.484 Y177.238 E247.14292
G1 X29.284 Y177.037 E247.16561
G1 X29.284 Y176.638 E247.19753
G1 X29.084 Y176.437 E247.22021
G1 X29.084 Y168.435 E247.86037
G1 X29.284 Y168.234 E247.88306
G1 X29.284 Y168.035 E247.89898
G1 X29.484 Y167.834 E247.92166
G1 X29.484 Y167.431 E247.95390
G1 X29.884 Y167.030 E247.99921
G1 X29.884 Y166.828 E248.01537
G1 X34.654 Y162.057 E248.55509
G1 X35.058 Y161.855 E248.59123
G1 X35.261 Y161.653 E248.61414
G1 X36.971 Y160.800 E248.76701
G1 X39.558 Y159.936 E248.98521
G1 X43.911 Y159.936 E249.33345
G1 X45.899 Y160.601 E249.50115
G1 X48.014 Y161.657 E249.69027
G1 X50.422 Y164.064 E249.96265
G1 X99.762 Y114.723 E255.54489
G1 X95.884 Y110.845 E255.98363
G1 X95.884 Y110.642 E255.99987
