;FLAVOR:UltiGCode
;TIME:20453
;MATERIAL:16591
;MATERIAL2:0
;NOZZLE_DIAMETER:0.400000
;NOZZLE_DIAMETER2:0.400000

;Layer count: 139
;LAYER:0
M107
G0 F9000 X59.227 Y28.064 Z0.200
;TYPE:SKIRT
G1 F1200 X60.271 Y26.178 E0.17245
G1 X61.389 Y24.909 E0.30775
G1 X62.644 Y23.936 E0.43479
G1 X64.066 Y23.218 E0.56223
G1 X65.912 Y22.690 E0.71583
G1 X108.789 Y22.674 E4.14599
G1 X151.694 Y22.681 E7.57839
G1 X151.694 Y79.800 E12.14791
G1 X85.406 Y79.800 E17.45095
G1 X85.406 Y130.200 E21.48295
G1 X164.694 Y130.200 E27.82599
G1 X164.694 Y132.200 E27.98599
G1 X164.906 Y132.200 E28.00295
G1 X164.906 Y156.200 E29.92295
G1 X151.694 Y156.200 E30.97991
G1 X151.694 Y200.319 E34.50943
G1 X108.791 Y200.325 E37.94167
G1 X66.306 Y200.320 E41.34047
G1 X64.167 Y199.877 E41.51523
G1 X62.285 Y198.835 E41.68732
G1 X61.016 Y197.717 E41.82262
G1 X60.043 Y196.462 E41.94966
G1 X59.325 Y195.040 E42.07710
G1 X58.797 Y193.193 E42.23078
G1 X58.787 Y129.679 E47.31190
G1 X58.786 Y30.205 E55.26982
G1 X59.227 Y28.064 E55.44470
G0 F9000 X59.607 Y28.204
G1 F1200 X60.600 Y26.409 E55.60880
G1 X61.664 Y25.202 E55.73753
G1 X62.859 Y24.276 E55.85847
G1 X64.212 Y23.592 E55.97975
G1 X65.968 Y23.090 E56.12586
G1 X108.789 Y23.074 E59.55154
G1 X151.294 Y23.081 E62.95194
G1 X151.294 Y79.400 E67.45746
G1 X85.006 Y79.400 E72.76050
G1 X85.006 Y130.600 E76.85650
G1 X164.294 Y130.600 E83.19954
G1 X164.294 Y132.600 E83.35954
G1 X164.506 Y132.600 E83.37650
G1 X164.506 Y155.800 E85.23250
G1 X151.294 Y155.800 E86.28946
G1 X151.294 Y199.919 E89.81898
G1 X108.791 Y199.925 E93.21922
G1 X66.347 Y199.920 E96.61474
G1 X64.308 Y199.498 E96.78132
G1 X62.516 Y198.506 E96.94518
G1 X61.309 Y197.442 E97.07390
G1 X60.383 Y196.247 E97.19484
G1 X59.699 Y194.894 E97.31613
G1 X59.197 Y193.137 E97.46231
G1 X59.187 Y129.679 E102.53895
G1 X59.186 Y30.246 E110.49359
G1 X59.607 Y28.204 E110.66039
G0 F9000 X59.986 Y28.344
G1 F1200 X60.929 Y26.641 E110.81612
G1 X61.939 Y25.495 E110.93833
G1 X63.074 Y24.616 E111.05317
G1 X64.359 Y23.966 E111.16838
G1 X66.024 Y23.490 E111.30691
G1 X108.789 Y23.474 E114.72811
G1 X150.894 Y23.481 E118.09651
G1 X150.894 Y79.000 E122.53803
G1 X84.606 Y79.000 E127.84107
G1 X84.606 Y131.000 E132.00107
G1 X163.894 Y131.000 E138.34411
G1 X163.894 Y133.000 E138.50411
G1 X164.106 Y133.000 E138.52107
G1 X164.106 Y155.400 E140.31307
G1 X150.894 Y155.400 E141.37003
G1 X150.894 Y199.519 E144.89955
G1 X108.791 Y199.525 E148.26779
G1 X66.388 Y199.520 E151.66003
G1 X64.448 Y199.118 E151.81853
G1 X62.748 Y198.177 E151.97397
G1 X61.602 Y197.167 E152.09618
G1 X60.723 Y196.032 E152.21102
G1 X60.073 Y194.747 E152.32623
G1 X59.597 Y193.081 E152.46484
G1 X59.587 Y129.679 E157.53700
G1 X59.586 Y30.286 E165.48844
G1 X59.986 Y28.344 E165.64706
G0 F9000 X60.366 Y28.485
G1 F1200 X61.258 Y26.873 E165.79445
G1 X62.214 Y25.788 E165.91014
G1 X63.288 Y24.955 E166.01887
G1 X64.505 Y24.340 E166.12796
G1 X66.080 Y23.890 E166.25900
G1 X108.789 Y23.874 E169.67572
G1 X150.494 Y23.881 E173.01212
G1 X150.494 Y78.600 E177.38964
G1 X84.206 Y78.600 E182.69268
G1 X84.206 Y131.400 E186.91668
G1 X163.494 Y131.400 E193.25972
G1 X163.494 Y133.400 E193.41972
G1 X163.706 Y133.400 E193.43668
G1 X163.706 Y155.000 E195.16468
G1 X150.494 Y155.000 E196.22164
G1 X150.494 Y199.119 E199.75116
G1 X108.791 Y199.125 E203.08740
G1 X66.429 Y199.120 E206.47636
G1 X64.589 Y198.739 E206.62668
G1 X62.980 Y197.848 E206.77382
G1 X61.895 Y196.892 E206.88951
G1 X61.062 Y195.818 E206.99824
G1 X60.447 Y194.601 E207.10732
G1 X59.997 Y193.025 E207.23844
G1 X59.986 Y30.328 E220.25420
G1 X60.366 Y28.485 E220.40475
G0 F9000 X60.745 Y28.625
G1 F1200 X61.586 Y27.105 E220.54372
G1 X62.489 Y26.081 E220.65294
G1 X63.503 Y25.295 E220.75558
G1 X64.651 Y24.715 E220.85847
G1 X66.136 Y24.290 E220.98204
G1 X108.789 Y24.274 E224.39428
G1 X150.094 Y24.281 E227.69868
G1 X150.094 Y78.200 E232.01220
G1 X83.806 Y78.200 E237.31524
G1 X83.806 Y131.800 E241.60324
G1 X163.094 Y131.800 E247.94628
G1 X163.094 Y133.800 E248.10628
G1 X163.306 Y133.800 E248.12324
G1 X163.306 Y154.600 E249.78724
G1 X150.094 Y154.600 E250.84420
G1 X150.094 Y198.719 E254.37372
G1 X108.791 Y198.725 E257.67796
G1 X66.470 Y198.720 E261.06364
G1 X64.729 Y198.359 E261.20588
G1 X63.212 Y197.520 E261.34457
G1 X62.188 Y196.617 E261.45379
G1 X61.402 Y195.603 E261.55643
G1 X60.822 Y194.455 E261.65932
G1 X60.397 Y192.969 E261.78297
G1 X60.386 Y30.368 E274.79105
G1 X60.745 Y28.625 E274.93342
G0 F9000 X61.125 Y28.765
G1 F1200 X61.915 Y27.337 E275.06397
G1 X62.764 Y26.374 E275.16668
G1 X63.718 Y25.635 E275.26322
G1 X64.798 Y25.089 E275.36003
G1 X66.193 Y24.690 E275.47611
G1 X108.789 Y24.674 E278.88379
G1 X149.694 Y24.681 E282.15619
G1 X149.694 Y77.800 E286.40571
G1 X83.406 Y77.800 E291.70875
G1 X83.406 Y132.200 E296.06075
G1 X162.694 Y132.200 E302.40379
G1 X162.694 Y134.200 E302.56379
G1 X162.906 Y134.200 E302.58075
G1 X162.906 Y154.200 E304.18075
G1 X149.694 Y154.200 E305.23771
G1 X149.694 Y198.319 E308.76723
G1 X108.791 Y198.325 E312.03947
G1 X66.511 Y198.320 E315.42187
G1 X64.870 Y197.980 E315.55594
G1 X63.444 Y197.191 E315.68631
G1 X62.481 Y196.342 E315.78902
G1 X61.742 Y195.388 E315.88556
G1 X61.196 Y194.308 E315.98237
G1 X60.797 Y192.913 E316.09845
G1 X60.786 Y30.409 E329.09877
G1 X61.125 Y28.765 E329.23305
G0 F9000 X61.504 Y28.906
G1 F1200 X62.244 Y27.568 E329.35537
G1 X63.039 Y26.667 E329.45150
G1 X63.933 Y25.974 E329.54199
G1 X64.944 Y25.463 E329.63262
G1 X66.249 Y25.090 E329.74120
G1 X108.789 Y25.074 E333.14440
G1 X149.294 Y25.081 E336.38480
G1 X149.294 Y77.400 E340.57032
G1 X83.006 Y77.400 E345.87336
G1 X83.006 Y132.600 E350.28936
G1 X162.294 Y132.600 E356.63240
G1 X162.294 Y134.600 E356.79240
G1 X162.506 Y134.600 E356.80936
G1 X162.506 Y153.800 E358.34536
G1 X149.294 Y153.800 E359.40232
G1 X149.294 Y197.919 E362.93184
G1 X108.791 Y197.925 E366.17208
G1 X66.552 Y197.920 E369.55120
G1 X65.010 Y197.601 E369.67717
G1 X63.675 Y196.862 E369.79924
G1 X62.774 Y196.067 E369.89537
G1 X62.081 Y195.173 E369.98586
G1 X61.570 Y194.162 E370.07649
G1 X61.197 Y192.857 E370.18507
G1 X61.186 Y30.450 E383.17763
G1 X61.504 Y28.906 E383.30374
G0 F9000 X61.884 Y29.046
G1 F1200 X62.573 Y27.800 E383.41764
G1 X63.314 Y26.960 E383.50725
G1 X64.147 Y26.314 E383.59158
G1 X65.091 Y25.837 E383.67620
G1 X66.305 Y25.490 E383.77721
G1 X108.789 Y25.474 E387.17593
G1 X148.894 Y25.481 E390.38433
G1 X148.894 Y77.000 E394.50585
G1 X82.606 Y77.000 E399.80889
G1 X82.606 Y133.000 E404.28889
G1 X161.894 Y133.000 E410.63193
G1 X161.894 Y135.000 E410.79193
G1 X162.106 Y135.000 E410.80889
G1 X162.106 Y153.400 E412.28089
G1 X148.894 Y153.400 E413.33785
G1 X148.894 Y197.519 E416.86737
G1 X108.791 Y197.525 E420.07561
G1 X66.593 Y197.520 E423.45145
G1 X65.151 Y197.221 E423.56926
G1 X63.907 Y196.533 E423.68299
G1 X63.067 Y195.792 E423.77260
G1 X62.421 Y194.959 E423.85693
G1 X61.944 Y194.015 E423.94154
G1 X61.597 Y192.801 E424.04255
G1 X61.586 Y30.491 E437.02735
G1 X61.884 Y29.046 E437.14538
G0 F9000 X62.263 Y29.187
G1 F1200 X62.902 Y28.032 E437.25098
G1 X63.589 Y27.253 E437.33408
G1 X64.362 Y26.654 E437.41231
G1 X65.237 Y26.211 E437.49077
G1 X66.361 Y25.890 E437.58428
G1 X108.790 Y25.874 E440.97860
G1 X148.494 Y25.881 E444.15492
G1 X148.494 Y76.600 E448.21244
G1 X82.206 Y76.600 E453.51548
G1 X82.206 Y133.400 E458.05948
G1 X161.494 Y133.400 E464.40252
G1 X161.494 Y135.400 E464.56252
G1 X161.706 Y135.400 E464.57948
G1 X161.706 Y153.000 E465.98748
G1 X148.494 Y153.000 E467.04444
G1 X148.494 Y197.119 E470.57396
G1 X108.791 Y197.125 E473.75020
G1 X66.634 Y197.120 E477.12276
G1 X65.292 Y196.842 E477.23240
G1 X64.139 Y196.204 E477.33782
G1 X63.360 Y195.517 E477.42092
G1 X62.761 Y194.744 E477.49915
G1 X62.318 Y193.869 E477.57761
G1 X61.997 Y192.745 E477.67113
G1 X61.986 Y30.531 E490.64825
G1 X62.263 Y29.187 E490.75803
G0 F9000 X62.642 Y29.327
G1 F1200 X63.231 Y28.264 E490.85525
G1 X63.864 Y27.546 E490.93182
G1 X64.577 Y26.993 E491.00401
G1 X65.384 Y26.585 E491.07635
G1 X66.417 Y26.290 E491.16229
G1 X108.790 Y26.274 E494.55213
G1 X148.094 Y26.281 E497.69645
G1 X148.094 Y76.200 E501.68997
G1 X81.806 Y76.200 E506.99301
G1 X81.806 Y133.800 E511.60101
G1 X161.094 Y133.800 E517.94405
G1 X161.094 Y135.800 E518.10405
G1 X161.306 Y135.800 E518.12101
G1 X161.306 Y152.600 E519.46501
G1 X148.094 Y152.600 E520.52197
G1 X148.094 Y196.719 E524.05149
G1 X108.791 Y196.725 E527.19573
G1 X66.675 Y196.720 E530.56501
G1 X65.432 Y196.462 E530.66657
G1 X64.371 Y195.875 E530.76358
G1 X63.653 Y195.242 E530.84015
G1 X63.100 Y194.529 E530.91234
G1 X62.692 Y193.722 E530.98468
G1 X62.397 Y192.689 E531.07062
G1 X62.386 Y30.572 E544.03998
G1 X62.642 Y29.327 E544.14167
G0 F9000 X63.022 Y29.467
G1 F1200 X63.560 Y28.496 E544.23047
G1 X64.139 Y27.839 E544.30053
G1 X64.791 Y27.333 E544.36656
G1 X65.530 Y26.960 E544.43278
G1 X66.473 Y26.690 E544.51125
G1 X108.790 Y26.674 E547.89661
G1 X147.694 Y26.681 E551.00893
G1 X147.694 Y75.800 E554.93845
G1 X81.406 Y75.800 E560.24149
G1 X81.406 Y134.200 E564.91349
G1 X160.694 Y134.200 E571.25653
G1 X160.694 Y136.200 E571.41653
G1 X160.906 Y136.200 E571.43349
G1 X160.906 Y152.200 E572.71349
G1 X147.694 Y152.200 E573.77045
G1 X147.694 Y196.319 E577.29997
G1 X66.717 Y196.320 E583.77813
G1 X65.573 Y196.083 E583.87160
G1 X64.603 Y195.546 E583.96029
G1 X63.946 Y194.967 E584.03035
G1 X63.440 Y194.315 E584.09638
G1 X63.067 Y193.576 E584.16260
G1 X62.797 Y192.633 E584.24107
G1 X62.786 Y30.613 E597.20267
G1 X63.022 Y29.467 E597.29628
G0 F9000 X63.401 Y29.608
G1 F1200 X63.889 Y28.728 E597.37678
G1 X64.414 Y28.132 E597.44032
G1 X65.006 Y27.673 E597.50024
G1 X65.677 Y27.334 E597.56039
G1 X66.529 Y27.090 E597.63129
G1 X108.790 Y27.074 E601.01217
G1 X147.294 Y27.081 E604.09249
G1 X147.294 Y75.400 E607.95801
G1 X81.006 Y75.400 E613.26105
G1 X81.006 Y134.600 E617.99705
G1 X160.294 Y134.600 E624.34009
G1 X160.294 Y136.600 E624.50009
G1 X160.506 Y136.600 E624.51705
G1 X160.506 Y151.800 E625.73305
G1 X147.294 Y151.800 E626.79001
G1 X147.294 Y159.024 E627.36793
G1 X129.556 Y159.024 E628.78697
G1 X129.556 Y164.984 E629.26377
G1 X133.715 Y169.559 E629.75840
G1 X129.556 Y174.134 E630.25303
G1 X129.556 Y175.811 E630.38719
G1 X135.429 Y169.556 E631.07359
G1 X129.560 Y163.289 E631.76047
G1 X131.335 Y159.193 E632.11760
G1 X147.294 Y159.193 E633.39432
G1 X147.294 Y180.222 E635.07664
G1 X131.037 Y180.222 E636.37720
G1 X129.556 Y176.797 E636.67572
G1 X129.556 Y180.389 E636.96308
G1 X147.294 Y180.389 E638.38212
G1 X147.294 Y195.920 E639.62460
G1 X66.758 Y195.920 E646.06748
G1 X65.713 Y195.704 E646.15285
G1 X64.835 Y195.217 E646.23317
G1 X64.239 Y194.692 E646.29671
G1 X63.780 Y194.100 E646.35664
G1 X63.441 Y193.429 E646.41678
G1 X63.197 Y192.576 E646.48775
G1 X63.186 Y30.654 E659.44151
G1 X63.401 Y29.608 E659.52694
G0 F9000 X63.781 Y29.748
G1 F1200 X64.217 Y28.959 E659.59906
G1 X64.689 Y28.425 E659.65608
G1 X65.221 Y28.012 E659.70995
G1 X65.823 Y27.708 E659.76391
G1 X66.585 Y27.490 E659.82731
G1 X108.790 Y27.474 E663.20371
G1 X146.894 Y27.481 E666.25203
G1 X146.894 Y75.000 E670.05355
G1 X80.606 Y75.000 E675.35659
G1 X80.606 Y135.000 E680.15659
G1 X159.894 Y135.000 E686.49963
G1 X159.894 Y137.000 E686.65963
G1 X160.106 Y137.000 E686.67659
G1 X160.106 Y151.400 E687.82859
G1 X146.894 Y151.400 E688.88555
G1 X146.894 Y158.624 E689.46347
G1 X129.156 Y158.624 E690.88251
G1 X129.156 Y165.138 E691.40363
G1 X133.174 Y169.559 E691.88156
G1 X129.156 Y173.980 E692.35948
G1 X129.156 Y180.789 E692.90420
G1 X146.894 Y180.789 E694.32324
G1 X146.894 Y195.520 E695.50172
G1 X66.799 Y195.520 E701.90932
G1 X65.854 Y195.324 E701.98653
G1 X65.066 Y194.889 E702.05854
G1 X64.532 Y194.417 E702.11556
G1 X64.119 Y193.885 E702.16944
G1 X63.815 Y193.283 E702.22339
G1 X63.597 Y192.520 E702.28687
G1 X63.586 Y30.694 E715.23295
G1 X63.781 Y29.748 E715.31022
G0 F9000 X64.160 Y29.889
G1 F1200 X64.546 Y29.191 E715.37403
G1 X64.964 Y28.718 E715.42453
G1 X65.435 Y28.352 E715.47225
G1 X65.970 Y28.082 E715.52019
G1 X66.641 Y27.890 E715.57603
G1 X108.790 Y27.874 E718.94795
G1 X146.494 Y27.880 E721.96427
G1 X146.494 Y74.600 E725.70187
G1 X80.206 Y74.600 E731.00491
G1 X80.206 Y135.400 E735.86891
G1 X159.494 Y135.400 E742.21195
G1 X159.494 Y137.400 E742.37195
G1 X159.706 Y137.400 E742.38891
G1 X159.706 Y151.000 E743.47691
G1 X146.494 Y151.000 E744.53387
G1 X146.494 Y158.224 E745.11179
G1 X128.756 Y158.224 E746.53083
G1 X128.756 Y165.293 E747.09635
G1 X132.634 Y169.559 E747.55756
G1 X128.756 Y173.825 E748.01878
G1 X128.756 Y181.189 E748.60790
G1 X146.494 Y181.189 E750.02694
G1 X146.494 Y195.120 E751.14142
G1 X66.840 Y195.120 E757.51374
G1 X65.994 Y194.945 E757.58285
G1 X65.298 Y194.560 E757.64648
G1 X64.825 Y194.142 E757.69698
G1 X64.459 Y193.671 E757.74470
G1 X64.189 Y193.136 E757.79264
G1 X63.997 Y192.464 E757.84855
G1 X63.986 Y30.735 E770.78687
G1 X64.160 Y29.889 E770.85597
G0 F9000 X64.540 Y30.029
G1 F1200 X64.875 Y29.423 E770.91137
G1 X65.239 Y29.011 E770.95535
G1 X65.650 Y28.692 E770.99697
G1 X66.116 Y28.456 E771.03876
G1 X66.697 Y28.290 E771.08710
G1 X108.790 Y28.274 E774.45454
G1 X146.094 Y28.280 E777.43886
G1 X146.094 Y74.200 E781.11246
G1 X79.806 Y74.200 E786.41550
G1 X79.806 Y135.800 E791.34350
G1 X159.094 Y135.800 E797.68654
G1 X159.094 Y137.800 E797.84654
G1 X159.306 Y137.800 E797.86350
G1 X159.306 Y150.600 E798.88750
G1 X146.094 Y150.600 E799.94446
G1 X146.094 Y157.824 E800.52238
G1 X128.356 Y157.824 E801.94142
G1 X128.356 Y165.447 E802.55126
G1 X132.093 Y169.559 E802.99577
G1 X128.356 Y173.671 E803.44028
G1 X128.356 Y181.589 E804.07372
G1 X146.094 Y181.589 E805.49276
G1 X146.094 Y194.720 E806.54324
G1 X66.881 Y194.720 E812.88028
G1 X66.135 Y194.566 E812.94122
G1 X65.530 Y194.231 E812.99654
G1 X65.118 Y193.867 E813.04053
G1 X64.799 Y193.456 E813.08215
G1 X64.563 Y192.990 E813.12394
G1 X64.397 Y192.408 E813.17235
G1 X64.386 Y30.776 E826.10291
G1 X64.540 Y30.029 E826.16393
G0 F9000 X65.204 Y29.655
G1 F1200 X65.514 Y29.304 E826.20139
G1 X65.865 Y29.031 E826.23697
G1 X66.263 Y28.830 E826.27264
G1 X66.754 Y28.690 E826.31348
G1 X145.694 Y28.680 E832.62868
G1 X145.694 Y73.800 E836.23828
G1 X79.406 Y73.800 E841.54132
G1 X79.406 Y136.200 E846.53332
G1 X158.694 Y136.200 E852.87636
G1 X158.694 Y138.200 E853.03636
G1 X158.906 Y138.200 E853.05332
G1 X158.906 Y150.200 E854.01332
G1 X145.694 Y150.200 E855.07028
G1 X145.694 Y157.424 E855.64820
G1 X127.956 Y157.424 E857.06724
G1 X127.956 Y165.602 E857.72148
G1 X131.552 Y169.559 E858.14923
G1 X127.956 Y173.516 E858.57698
G1 X127.956 Y181.989 E859.25482
G1 X145.694 Y181.989 E860.67386
G1 X145.694 Y194.320 E861.66034
G1 X66.922 Y194.320 E867.96210
G1 X66.275 Y194.186 E868.01496
G1 X65.762 Y193.902 E868.06187
G1 X65.411 Y193.592 E868.09933
G1 X65.138 Y193.241 E868.13491
G1 X64.937 Y192.843 E868.17058
G1 X64.797 Y192.352 E868.21142
G1 X64.786 Y30.817 E881.13422
G1 X64.919 Y30.169 E881.18714
G1 X65.204 Y29.655 E881.23416
G0 F9000 X65.533 Y29.887
G1 F1200 X65.789 Y29.597 E881.26511
G1 X66.080 Y29.371 E881.29458
G1 X66.409 Y29.204 E881.32410
G1 X66.810 Y29.090 E881.35745
G1 X145.294 Y29.080 E887.63617
G1 X145.294 Y73.400 E891.18177
G1 X79.006 Y73.400 E896.48481
G1 X79.006 Y136.600 E901.54081
G1 X158.294 Y136.600 E907.88385
G1 X158.294 Y138.600 E908.04385
G1 X158.506 Y138.600 E908.06081
G1 X158.506 Y149.800 E908.95681
G1 X145.294 Y149.800 E910.01377
G1 X145.294 Y157.024 E910.59169
G1 X127.556 Y157.024 E912.01073
G1 X127.556 Y165.756 E912.70929
G1 X131.012 Y169.559 E913.12039
G1 X127.556 Y173.362 E913.53149
G1 X127.556 Y182.389 E914.25365
G1 X145.294 Y182.389 E915.67269
G1 X145.294 Y193.920 E916.59517
G1 X66.963 Y193.920 E922.86165
G1 X66.416 Y193.807 E922.90634
G1 X65.994 Y193.573 E922.94494
G1 X65.704 Y193.317 E922.97588
G1 X65.478 Y193.026 E923.00536
G1 X65.311 Y192.697 E923.03488
G1 X65.197 Y192.296 E923.06823
G1 X65.186 Y30.857 E935.98335
G1 X65.299 Y30.310 E936.02803
G1 X65.533 Y29.887 E936.06671
G0 F9000 X66.064 Y29.890
G1 F1200 X66.294 Y29.711 E936.09002
G1 X66.556 Y29.579 E936.11349
G1 X66.866 Y29.490 E936.13929
G1 X144.894 Y29.480 E942.38153
G1 X144.894 Y73.000 E945.86313
G1 X78.606 Y73.000 E951.16617
G1 X78.606 Y137.000 E956.28617
