;FLAVOR:UltiGCode
;TIME:10452
;MATERIAL:8440
;MATERIAL2:0
;NOZZLE_DIAMETER:0.400000
;NOZZLE_DIAMETER2:0.400000

;Layer count: 139
;LAYER:0
M107
G0 F9000 X15.712 Y176.384 Z0.200
;TYPE:SKIRT
G1 F1200 X176.393 Y15.703 E18.17898
G1 X185.089 Y24.399 E19.16282
G1 X187.097 Y26.409 E19.39011
G1 X195.526 Y34.837 E20.34369
G1 X207.079 Y46.394 E21.65099
G1 X46.393 Y207.079 E39.83048
G1 X34.837 Y195.527 E41.13766
G1 X26.533 Y187.223 E42.07715
G1 X24.601 Y185.290 E42.29579
G1 X22.400 Y183.089 E42.54480
G1 X15.712 Y176.384 E43.30243
G0 F9000 X16.277 Y176.384
G1 F1200 X176.393 Y16.269 E61.41743
G1 X184.806 Y24.682 E62.36925
G1 X186.814 Y26.692 E62.59654
G1 X195.243 Y35.120 E63.55012
G1 X206.513 Y46.394 E64.82540
G1 X46.393 Y206.513 E82.94085
G1 X35.120 Y195.244 E84.21602
G1 X24.885 Y185.009 E85.37398
G1 X22.683 Y182.806 E85.62316
G1 X16.277 Y176.384 E86.34883
G0 F9000 X16.843 Y176.385
G1 F1200 X176.393 Y16.835 E104.39985
G1 X184.523 Y24.964 E105.31960
G1 X186.531 Y26.975 E105.54695
G1 X194.960 Y35.402 E106.50046
G1 X205.948 Y46.394 E107.74384
G1 X46.393 Y205.948 E125.79537
G1 X35.403 Y194.961 E127.03858
G1 X22.966 Y182.524 E128.44567
G1 X16.843 Y176.385 E129.13931
G0 F9000 X17.408 Y176.385
G1 F1200 X176.393 Y17.400 E147.12641
G1 X184.240 Y25.247 E148.01420
G1 X186.249 Y27.258 E148.24160
G1 X194.677 Y35.685 E149.19506
G1 X205.382 Y46.394 E150.40642
G1 X46.393 Y205.382 E168.39392
G1 X35.685 Y194.678 E169.60516
G1 X27.381 Y186.374 E170.54465
G1 X25.450 Y184.442 E170.76318
G1 X23.249 Y182.241 E171.01219
G1 X17.408 Y176.385 E171.67388
G0 F9000 X17.973 Y176.385
G1 F1200 X176.393 Y17.966 E189.59700
G1 X183.957 Y25.530 E190.45277
G1 X185.966 Y27.541 E190.68017
G1 X194.394 Y35.968 E191.63363
G1 X204.816 Y46.394 E192.81297
G1 X46.393 Y204.816 E210.73643
G1 X35.968 Y194.395 E211.91566
G1 X27.664 Y186.091 E212.85515
G1 X25.733 Y184.159 E213.07368
G1 X23.532 Y181.958 E213.32269
G1 X17.973 Y176.385 E213.95241
G0 F9000 X18.539 Y176.386
G1 F1200 X176.393 Y18.532 E231.81155
G1 X183.674 Y25.813 E232.63531
G1 X185.683 Y27.823 E232.86265
G1 X194.111 Y36.251 E233.81617
G1 X204.251 Y46.394 E234.96355
G1 X46.393 Y204.251 E252.82309
G1 X27.948 Y185.809 E254.90974
G1 X26.016 Y183.876 E255.12837
G1 X23.815 Y181.676 E255.37733
G1 X18.539 Y176.386 E255.97503
G0 F9000 X19.104 Y176.386
G1 F1200 X176.393 Y19.097 E273.77025
G1 X183.391 Y26.096 E274.56204
G1 X185.400 Y28.106 E274.78939
G1 X193.829 Y36.534 E275.74297
G1 X203.685 Y46.394 E276.85827
G1 X46.393 Y203.685 E294.65378
G1 X28.230 Y185.526 E296.70846
G1 X26.299 Y183.593 E296.92704
G1 X24.098 Y181.393 E297.17600
G1 X19.104 Y176.386 E297.74174
G0 F9000 X19.669 Y176.387
G1 F1200 X176.393 Y19.663 E315.47304
G1 X183.108 Y26.378 E316.23275
G1 X185.117 Y28.389 E316.46016
G1 X193.546 Y36.817 E317.41373
G1 X203.119 Y46.394 E318.49702
G1 X46.393 Y203.119 E336.22849
G1 X28.513 Y185.243 E338.25115
G1 X26.582 Y183.312 E338.46962
G1 X24.381 Y181.110 E338.71869
G1 X19.669 Y176.387 E339.25242
G0 F9000 X20.235 Y176.387
G1 F1200 X176.393 Y20.229 E356.91968
G1 X182.825 Y26.661 E357.64737
G1 X184.834 Y28.672 E357.87478
G1 X193.263 Y37.099 E358.82830
G1 X202.554 Y46.394 E359.87968
G1 X46.393 Y202.554 E377.54723
G1 X28.796 Y184.961 E379.53787
G1 X26.864 Y183.028 E379.75651
G1 X24.664 Y180.828 E380.00541
G1 X20.235 Y176.387 E380.50718
G0 F9000 X20.800 Y176.387
G1 F1200 X176.393 Y20.794 E398.11051
G1 X182.543 Y26.944 E398.80631
G1 X184.552 Y28.955 E399.03371
G1 X201.989 Y46.393 E401.00654
G1 X46.392 Y201.988 E418.61022
G1 X29.079 Y184.678 E420.56879
G1 X27.147 Y182.745 E420.78743
G1 X24.947 Y180.545 E421.03633
G1 X20.800 Y176.387 E421.50613
G0 F9000 X21.365 Y176.388
G1 F1200 X176.393 Y21.360 E439.04555
G1 X182.260 Y27.227 E439.70932
G1 X184.269 Y29.238 E439.93673
G1 X201.423 Y46.393 E441.87754
G1 X46.392 Y201.423 E459.41724
G1 X29.362 Y184.395 E461.34385
G1 X25.230 Y180.262 E461.81139
G1 X21.365 Y176.388 E462.24917
G0 F9000 X21.931 Y176.388
G1 F1200 X176.393 Y21.926 E479.72455
G1 X181.977 Y27.509 E480.35625
G1 X183.986 Y29.521 E480.58372
G1 X200.857 Y46.393 E482.49251
G1 X46.392 Y200.857 E499.96817
G1 X29.645 Y184.112 E501.86277
G1 X25.513 Y179.979 E502.33030
G1 X21.931 Y176.388 E502.73607
G0 F9000 X22.496 Y176.388
G1 F1200 X176.393 Y22.491 E520.14753
G1 X181.694 Y27.792 E520.74727
G1 X183.703 Y29.804 E520.97473
G1 X200.292 Y46.393 E522.85156
G1 X46.392 Y200.291 E540.26325
G1 X29.928 Y183.829 E542.12582
G1 X25.796 Y179.697 E542.59330
G1 X22.496 Y176.388 E542.96717
G0 F9000 X23.061 Y176.389
G1 F1200 X176.393 Y23.057 E560.31470
G1 X181.411 Y28.075 E560.88242
G1 X183.420 Y30.086 E561.10983
G1 X199.726 Y46.393 E562.95470
G1 X46.392 Y199.726 E580.30240
G1 X30.210 Y183.546 E582.13308
G1 X26.079 Y179.414 E582.60050
G1 X23.061 Y176.389 E582.94234
G0 F9000 X23.627 Y176.389
G1 F1200 X176.393 Y23.623 E600.22584
G1 X181.128 Y28.358 E600.76155
G1 X183.138 Y30.369 E600.98901
G1 X199.160 Y46.393 E602.80181
G1 X46.392 Y199.160 E620.08548
G1 X26.363 Y179.132 E622.35144
G1 X23.627 Y176.389 E622.66138
G0 F9000 X24.192 Y176.389
G1 F1200 X176.393 Y24.188 E639.88096
G1 X198.595 Y46.393 E642.39300
G1 X46.392 Y198.594 E659.61269
G1 X26.646 Y178.849 E661.84664
G1 X24.192 Y176.389 E662.12462
G0 F9000 X24.757 Y176.390
G1 F1200 X176.393 Y24.754 E679.28027
G1 X198.029 Y46.393 E681.72827
G1 X46.392 Y198.029 E698.88399
G1 X26.929 Y178.566 E701.08597
G1 X24.757 Y176.390 E701.33193
G0 F9000 X25.323 Y176.390
G1 F1200 X176.393 Y25.320 E718.42355
G1 X197.463 Y46.393 E720.80752
G1 X46.392 Y197.463 E737.89920
G1 X27.212 Y178.284 E740.06911
G1 X25.323 Y176.390 E740.28311
G0 F9000 X25.887 Y176.391
G1 F1200 X176.393 Y25.885 E757.31092
G1 X196.898 Y46.393 E759.63096
G1 X46.392 Y196.897 E776.65866
G1 X25.887 Y176.391 E778.97859
G0 F9000 X26.453 Y176.391
G1 F1200 X176.393 Y26.451 E795.94237
G1 X196.332 Y46.393 E798.19838
G1 X46.392 Y196.332 E815.16210
G1 X26.453 Y176.391 E817.41805
G0 F9000 X43.792 Y174.817
G1 F1200 X43.835 Y175.304 E817.45716
G1 X43.946 Y175.742 E817.49331
G1 X44.111 Y176.139 E817.52770
G1 X44.364 Y176.543 E817.56584
G1 X44.671 Y176.894 E817.60314
G1 X44.989 Y177.166 E817.63662
G1 X45.372 Y177.401 E817.67257
G1 X45.834 Y177.585 E817.71235
G1 X46.238 Y177.683 E817.74561
G1 X46.690 Y177.719 E817.78188
G1 X47.177 Y177.676 E817.82099
G1 X47.618 Y177.564 E817.85739
G1 X48.012 Y177.400 E817.89153
G1 X48.416 Y177.147 E817.92967
G1 X48.767 Y176.840 E817.96697
G1 X49.037 Y176.524 E818.00023
G1 X49.274 Y176.136 E818.03660
G1 X49.458 Y175.677 E818.07616
G1 X49.555 Y175.273 E818.10940
G1 X49.592 Y174.821 E818.14568
G1 X49.548 Y174.334 E818.18480
G1 X49.437 Y173.894 E818.22110
G1 X49.273 Y173.500 E818.25524
G1 X49.020 Y173.096 E818.29338
G1 X48.713 Y172.745 E818.33068
G1 X48.397 Y172.475 E818.36393
G1 X48.009 Y172.238 E818.40030
G1 X47.550 Y172.054 E818.43987
G1 X47.146 Y171.956 E818.47312
G1 X46.694 Y171.920 E818.50940
G1 X46.207 Y171.963 E818.54851
G1 X45.766 Y172.075 E818.58491
G1 X45.371 Y172.239 E818.61912
G1 X44.968 Y172.492 E818.65719
G1 X44.617 Y172.799 E818.69450
G1 X44.349 Y173.113 E818.72752
G1 X44.095 Y173.537 E818.76706
G1 X43.925 Y173.962 E818.80368
G1 X43.828 Y174.365 E818.83684
G1 X43.792 Y174.817 E818.87312
G0 F9000 X44.194 Y174.813
G1 F1200 X44.232 Y175.239 E818.90733
G1 X44.329 Y175.623 E818.93902
G1 X44.465 Y175.950 E818.96735
G1 X44.689 Y176.307 E819.00107
G1 X44.951 Y176.607 E819.03293
G1 X45.225 Y176.841 E819.06176
G1 X45.553 Y177.042 E819.09253
G1 X45.953 Y177.202 E819.12700
G1 X46.301 Y177.287 E819.15565
G1 X46.686 Y177.317 E819.18655
G1 X47.112 Y177.279 E819.22076
G1 X47.496 Y177.182 E819.25245
G1 X47.823 Y177.046 E819.28078
G1 X48.180 Y176.822 E819.31450
G1 X48.480 Y176.560 E819.34636
G1 X48.713 Y176.288 E819.37501
G1 X48.916 Y175.955 E819.40621
G1 X49.076 Y175.557 E819.44053
G1 X49.159 Y175.212 E819.46892
G1 X49.190 Y174.825 E819.49998
G1 X49.151 Y174.397 E819.53436
G1 X49.056 Y174.017 E819.56569
G1 X48.919 Y173.689 E819.59413
G1 X48.695 Y173.332 E819.62785
G1 X48.433 Y173.032 E819.65971
G1 X48.161 Y172.799 E819.68836
G1 X47.828 Y172.596 E819.71956
G1 X47.431 Y172.437 E819.75378
G1 X47.083 Y172.352 E819.78243
G1 X46.698 Y172.322 E819.81333
G1 X46.272 Y172.360 E819.84754
G1 X45.888 Y172.457 E819.87923
G1 X45.560 Y172.593 E819.90763
G1 X45.204 Y172.816 E819.94124
G1 X44.904 Y173.079 E819.97316
G1 X44.673 Y173.349 E820.00158
G1 X44.455 Y173.714 E820.03559
G1 X44.307 Y174.082 E820.06733
G1 X44.224 Y174.426 E820.09564
G1 X44.194 Y174.813 E820.12669
G0 F9000 X56.450 Y172.982
G1 F1200 X109.908 Y119.524 E826.17477
G1 X99.159 Y108.775 E827.39088
G1 X45.701 Y162.233 E833.43896
G1 X56.450 Y172.982 E834.65507
G0 F9000 X56.450 Y172.416
G1 F1200 X109.342 Y119.524 E840.63912
G1 X99.159 Y109.341 E841.79120
G1 X46.267 Y162.233 E847.77524
G1 X56.450 Y172.416 E848.92732
G0 F9000 X56.450 Y171.850
G1 F1200 X108.776 Y119.524 E854.84733
G1 X99.159 Y109.907 E855.93537
G1 X46.833 Y162.233 E861.85538
G1 X56.450 Y171.850 E862.94342
G0 F9000 X56.450 Y171.285
G1 F1200 X108.210 Y119.524 E868.79945
G1 X99.159 Y110.473 E869.82345
G1 X47.399 Y162.234 E875.67949
G1 X56.450 Y171.285 E876.70349
G0 F9000 X56.450 Y170.718
G1 F1200 X107.644 Y119.524 E882.49543
G1 X99.159 Y111.039 E883.45540
G1 X47.964 Y162.234 E889.24745
G1 X49.619 Y163.888 E889.43464
G1 X56.450 Y170.718 E890.20742
G0 F9000 X56.450 Y170.152
G1 F1200 X107.078 Y119.524 E895.93532
G1 X99.159 Y111.605 E896.83126
G1 X48.531 Y162.233 E902.55916
G1 X56.450 Y170.152 E903.45509
G0 F9000 X56.450 Y169.588
G1 F1200 X106.514 Y119.524 E909.11919
G1 X99.158 Y112.170 E909.95131
G1 X49.095 Y162.233 E915.61529
G1 X56.450 Y169.588 E916.44742
G0 F9000 X56.450 Y169.022
G1 F1200 X105.948 Y119.524 E922.04748
G1 X99.158 Y112.736 E922.81556
G1 X49.661 Y162.233 E928.41551
G1 X56.450 Y169.022 E929.18360
G0 F9000 X56.450 Y168.456
G1 F1200 X105.382 Y119.524 E934.71962
G1 X99.158 Y113.302 E935.42367
G1 X50.227 Y162.233 E940.95959
G1 X56.450 Y168.456 E941.66364
G0 F9000 X56.450 Y167.890
G1 F1200 X104.816 Y119.524 E947.13563
G1 X99.159 Y113.867 E947.77564
G1 X50.793 Y162.233 E953.24763
G1 X56.450 Y167.890 E953.88765
G0 F9000 X56.450 Y167.324
G1 F1200 X104.250 Y119.524 E959.29560
G1 X99.159 Y114.433 E959.87158
G1 X51.359 Y162.233 E965.27953
G1 X56.450 Y167.324 E965.85551
G0 F9000 X56.450 Y166.758
G1 F1200 X103.684 Y119.524 E971.19943
G1 X99.159 Y114.999 E971.71138
G1 X51.925 Y162.233 E977.05529
G1 X56.450 Y166.758 E977.56724
G0 F9000 X56.450 Y166.192
G1 F1200 X103.118 Y119.524 E982.84712
G1 X99.159 Y115.565 E983.29503
G1 X52.491 Y162.233 E988.57491
G1 X56.450 Y166.192 E989.02282
G0 F9000 X56.450 Y165.628
G1 F1200 X102.554 Y119.524 E994.23889
G1 X99.159 Y116.129 E994.62299
G1 X53.055 Y162.233 E999.83907
G1 X56.450 Y165.628 E1000.22317
G0 F9000 X56.450 Y165.062
G1 F1200 X101.988 Y119.524 E1005.37520
G1 X99.159 Y116.695 E1005.69527
G1 X53.621 Y162.233 E1010.84730
G1 X56.450 Y165.062 E1011.16737
G0 F9000 X56.450 Y164.496
G1 F1200 X101.422 Y119.524 E1016.25537
G1 X99.159 Y117.261 E1016.51140
G1 X54.187 Y162.233 E1021.59940
G1 X56.450 Y164.496 E1021.85543
G0 F9000 X56.450 Y163.930
G1 F1200 X100.856 Y119.524 E1026.87939
G1 X99.159 Y117.827 E1027.07139
G1 X54.753 Y162.233 E1032.09535
G1 X56.450 Y163.930 E1032.28735
G0 F9000 X56.450 Y163.364
G1 F1200 X100.290 Y119.524 E1037.24728
G1 X99.159 Y118.393 E1037.37524
G1 X55.319 Y162.233 E1042.33516
G1 X56.450 Y163.364 E1042.46312
G0 F9000 X56.450 Y162.798
G1 F1200 X99.724 Y119.524 E1047.35902
G1 X99.159 Y118.959 E1047.42294
G1 X55.885 Y162.233 E1052.31883
G1 X56.450 Y162.798 E1052.38276
G0 F9000 X108.147 Y110.617
G1 F1200 X108.469 Y110.893 E1052.41668
G1 X108.853 Y111.129 E1052.45274
G1 X109.314 Y111.313 E1052.49245
G1 X109.718 Y111.410 E1052.52569
G1 X110.170 Y111.446 E1052.56196
G1 X110.657 Y111.403 E1052.60108
G1 X111.098 Y111.291 E1052.63748
G1 X111.493 Y111.127 E1052.67169
G1 X111.896 Y110.874 E1052.70976
G1 X112.247 Y110.567 E1052.74706
G1 X112.517 Y110.252 E1052.78025
G1 X112.754 Y109.864 E1052.81663
G1 X112.938 Y109.404 E1052.85626
G1 X113.036 Y109.000 E1052.88952
G1 X113.072 Y108.548 E1052.92579
G1 X113.029 Y108.061 E1052.96490
G1 X112.917 Y107.620 E1053.00130
G1 X112.753 Y107.226 E1053.03545
G1 X112.500 Y106.822 E1053.07358
G1 X112.193 Y106.471 E1053.11089
G1 X111.875 Y106.199 E1053.14436
G1 X111.492 Y105.964 E1053.18031
G1 X111.031 Y105.780 E1053.22002
G1 X110.626 Y105.683 E1053.25334
G1 X110.174 Y105.646 E1053.28962
G1 X109.687 Y105.690 E1053.32874
G1 X109.246 Y105.801 E1053.36512
G1 X108.852 Y105.965 E1053.39926
G1 X108.448 Y106.218 E1053.43739
G1 X108.097 Y106.525 E1053.47470
G1 X107.827 Y106.841 E1053.50795
G1 X107.590 Y107.229 E1053.54432
G1 X107.406 Y107.688 E1053.58388
G1 X107.308 Y108.092 E1053.61714
G1 X107.272 Y108.544 E1053.65341
G1 X107.315 Y109.031 E1053.69252
G1 X107.426 Y109.469 E1053.72867
G1 X107.591 Y109.867 E1053.76314
G1 X107.846 Y110.275 E1053.80163
G1 X108.147 Y110.617 E1053.83808
G0 F9000 X108.430 Y110.334
G1 F1200 X108.705 Y110.568 E1053.86696
G1 X109.034 Y110.771 E1053.89789
G1 X109.434 Y110.931 E1053.93236
G1 X109.779 Y111.014 E1053.96074
G1 X110.166 Y111.044 E1053.99180
G1 X110.592 Y111.006 E1054.02601
G1 X110.976 Y110.909 E1054.05770
G1 X111.304 Y110.773 E1054.08610
G1 X111.660 Y110.550 E1054.11971
G1 X111.961 Y110.286 E1054.15174
G1 X112.193 Y110.015 E1054.18028
G1 X112.396 Y109.683 E1054.21141
G1 X112.555 Y109.285 E1054.24570
G1 X112.640 Y108.937 E1054.27436
G1 X112.670 Y108.552 E1054.30525
G1 X112.632 Y108.126 E1054.33946
G1 X112.535 Y107.742 E1054.37115
G1 X112.399 Y107.415 E1054.39948
G1 X112.175 Y107.058 E1054.43320
G1 X111.913 Y106.758 E1054.46506
G1 X111.639 Y106.524 E1054.49389
G1 X111.311 Y106.323 E1054.52466
G1 X110.910 Y106.162 E1054.55923
G1 X110.565 Y106.079 E1054.58762
G1 X110.178 Y106.048 E1054.61868
G1 X109.750 Y106.087 E1054.65306
G1 X109.369 Y106.182 E1054.68447
G1 X109.041 Y106.319 E1054.71291
G1 X108.684 Y106.543 E1054.74663
G1 X108.384 Y106.805 E1054.77849
G1 X108.151 Y107.077 E1054.80714
G1 X107.948 Y107.410 E1054.83834
G1 X107.789 Y107.807 E1054.87256
G1 X107.704 Y108.155 E1054.90121
G1 X107.674 Y108.540 E1054.93211
G1 X107.712 Y108.966 E1054.96632
G1 X107.809 Y109.350 E1054.99801
G1 X107.945 Y109.678 E1055.02641
G1 X108.169 Y110.035 E1055.06013
G1 X108.430 Y110.334 E1055.09188
G0 F9000 X121.150 Y108.282
G1 F1200 X133.667 Y95.765 E1056.50802
G1 X122.988 Y85.087 E1057.71615
G1 X110.472 Y97.604 E1059.13223
G1 X121.150 Y108.282 E1060.34031
G0 F9000 X121.150 Y107.716
G1 F1200 X133.101 Y95.765 E1061.69241
G1 X122.988 Y85.653 E1062.83651
G1 X111.038 Y97.604 E1064.18856
G1 X121.150 Y107.716 E1065.33260
G0 F9000 X121.150 Y107.150
G1 F1200 X132.535 Y95.765 E1066.62066
G1 X122.988 Y86.219 E1067.70073
G1 X111.604 Y97.604 E1068.98874
G1 X121.150 Y107.150 E1070.06874
G0 F9000 X121.150 Y106.584
G1 F1200 X131.969 Y95.765 E1071.29277
G1 X122.988 Y86.785 E1072.30880
G1 X112.170 Y97.604 E1073.53277
G1 X121.150 Y106.584 E1074.54875
G0 F9000 X121.150 Y106.018
G1 F1200 X131.403 Y95.765 E1075.70874
G1 X122.988 Y87.351 E1076.66073
G1 X112.736 Y97.604 E1077.82067
G1 X121.150 Y106.018 E1078.77261
G0 F9000 X121.150 Y105.452
G1 F1200 X130.837 Y95.765 E1079.86856
G1 X122.988 Y87.917 E1080.75652
G1 X113.302 Y97.604 E1081.85242
G1 X121.150 Y105.452 E1082.74032
G0 F9000 X121.150 Y104.888
G1 F1200 X130.273 Y95.765 E1083.77247
G1 X122.988 Y88.481 E1084.59662
G1 X113.866 Y97.604 E1085.62871
G1 X121.150 Y104.888 E1086.45280
G0 F9000 X121.150 Y104.322
G1 F1200 X129.707 Y95.765 E1087.42092
G1 X122.988 Y89.047 E1088.18103
G1 X114.432 Y97.604 E1089.14909
G1 X121.150 Y104.322 E1089.90914
G0 F9000 X121.150 Y103.756
G1 F1200 X129.141 Y95.765 E1090.81322
G1 X122.988 Y89.613 E1091.50930
G1 X114.998 Y97.604 E1092.41332
G1 X121.150 Y103.756 E1093.10934
G0 F9000 X121.150 Y103.190
G1 F1200 X128.575 Y95.765 E1093.94938
G1 X122.988 Y90.179 E1094.58142
G1 X115.564 Y97.604 E1095.42141
G1 X121.150 Y103.190 E1096.05339
G0 F9000 X121.150 Y102.624
G1 F1200 X128.009 Y95.765 E1096.82940
G1 X122.988 Y90.745 E1097.39740
G1 X116.130 Y97.604 E1098.17335
G1 X121.150 Y102.624 E1098.74130
G0 F9000 X121.150 Y102.058
G1 F1200 X127.443 Y95.765 E1099.45327
G1 X122.988 Y91.311 E1099.95724
