;FLAVOR:UltiGCode
;TIME:1738
;MATERIAL:1502
;MATERIAL2:0
;NOZZLE_DIAMETER:0.400000
;NOZZLE_DIAMETER2:0.400000

;Layer count: 39
;LAYER:0
M107
G0 F9000 X85.638 Y99.241 Z0.200
;TYPE:SKIRT
G1 F1200 X87.087 Y98.355 E0.13587
G1 X88.652 Y97.705 E0.27144
G1 X90.314 Y97.306 E0.40818
G1 X91.702 Y97.200 E0.51954
G1 X131.299 Y97.200 E3.68730
G1 X132.686 Y97.306 E3.79859
G1 X134.347 Y97.705 E3.93525
G1 X135.912 Y98.355 E4.07082
G1 X137.361 Y99.241 E4.20669
G1 X138.653 Y100.346 E4.34270
G1 X139.758 Y101.638 E4.47870
G1 X140.644 Y103.087 E4.61458
G1 X141.294 Y104.652 E4.75014
G1 X141.691 Y106.306 E4.88622
G1 X141.800 Y107.693 E4.99753
G1 X141.800 Y115.307 E5.60665
G1 X141.691 Y116.694 E5.71795
G1 X141.294 Y118.347 E5.85395
G1 X140.644 Y119.912 E5.98952
G1 X139.758 Y121.361 E6.12539
G1 X138.653 Y122.653 E6.26140
G1 X137.361 Y123.758 E6.39740
G1 X135.912 Y124.644 E6.53328
G1 X134.347 Y125.294 E6.66885
G1 X132.694 Y125.691 E6.80485
G1 X131.307 Y125.800 E6.91615
G1 X91.693 Y125.800 E10.08527
G1 X90.306 Y125.691 E10.19657
G1 X88.652 Y125.294 E10.33265
G1 X87.087 Y124.644 E10.46822
G1 X85.638 Y123.758 E10.60409
G1 X84.346 Y122.653 E10.74010
G1 X83.241 Y121.361 E10.87610
G1 X82.355 Y119.912 E11.01198
G1 X81.705 Y118.347 E11.14755
G1 X81.306 Y116.686 E11.28421
G1 X81.200 Y115.299 E11.39549
G1 X81.200 Y107.702 E12.00325
G1 X81.306 Y106.314 E12.11461
G1 X81.705 Y104.652 E12.25135
G1 X82.355 Y103.087 E12.38692
G1 X83.241 Y101.638 E12.52279
G1 X84.346 Y100.346 E12.65880
G1 X85.638 Y99.241 E12.79481
G0 F9000 X85.873 Y99.566
G1 F1200 X87.269 Y98.712 E12.92573
G1 X88.776 Y98.087 E13.05624
G1 X90.376 Y97.703 E13.18788
G1 X91.717 Y97.600 E13.29547
G1 X131.284 Y97.600 E16.46083
G1 X132.624 Y97.703 E16.56835
G1 X134.223 Y98.087 E16.69991
G1 X135.730 Y98.712 E16.83043
G1 X137.126 Y99.566 E16.96135
G1 X138.370 Y100.629 E17.09225
G1 X139.433 Y101.873 E17.22315
G1 X140.287 Y103.269 E17.35407
G1 X140.912 Y104.776 E17.48459
G1 X141.294 Y106.368 E17.61557
G1 X141.400 Y107.709 E17.72318
G1 X141.400 Y115.291 E18.32974
G1 X141.294 Y116.631 E18.43728
G1 X140.912 Y118.223 E18.56825
G1 X140.287 Y119.730 E18.69877
G1 X139.433 Y121.126 E18.82969
G1 X138.370 Y122.370 E18.96059
G1 X137.126 Y123.433 E19.09150
G1 X135.730 Y124.287 E19.22242
G1 X134.223 Y124.912 E19.35293
G1 X132.631 Y125.294 E19.48391
G1 X131.291 Y125.400 E19.59144
G1 X91.709 Y125.400 E22.75800
G1 X90.368 Y125.294 E22.86562
G1 X88.776 Y124.912 E22.99659
G1 X87.269 Y124.287 E23.12711
G1 X85.873 Y123.433 E23.25803
G1 X84.629 Y122.370 E23.38894
G1 X83.566 Y121.126 E23.51984
G1 X82.712 Y119.730 E23.65076
G1 X82.087 Y118.223 E23.78128
G1 X81.703 Y116.624 E23.91284
G1 X81.600 Y115.284 E24.02035
G1 X81.600 Y107.717 E24.62571
G1 X81.703 Y106.376 E24.73331
G1 X82.087 Y104.776 E24.86494
G1 X82.712 Y103.269 E24.99546
G1 X83.566 Y101.873 E25.12638
G1 X84.629 Y100.629 E25.25728
G1 X85.873 Y99.566 E25.38819
G0 F9000 X86.109 Y99.891
G1 F1200 X87.451 Y99.070 E25.51405
G1 X88.900 Y98.469 E25.63954
G1 X90.438 Y98.099 E25.76609
G1 X91.732 Y98.000 E25.86991
G1 X131.268 Y98.000 E29.03279
G1 X132.561 Y98.099 E29.13654
G1 X134.099 Y98.469 E29.26309
G1 X135.548 Y99.070 E29.38858
G1 X136.890 Y99.891 E29.51444
G1 X138.086 Y100.913 E29.64029
G1 X139.108 Y102.109 E29.76615
G1 X139.929 Y103.451 E29.89201
G1 X140.530 Y104.900 E30.01750
G1 X140.898 Y106.431 E30.14347
G1 X141.000 Y107.725 E30.24731
G1 X141.000 Y115.276 E30.85139
G1 X140.898 Y116.568 E30.95507
G1 X140.530 Y118.099 E31.08104
G1 X139.929 Y119.548 E31.20654
G1 X139.108 Y120.890 E31.33239
G1 X138.086 Y122.086 E31.45825
G1 X136.890 Y123.108 E31.58410
G1 X135.548 Y123.929 E31.70996
G1 X134.099 Y124.530 E31.83546
G1 X132.568 Y124.898 E31.96142
G1 X131.276 Y125.000 E32.06511
G1 X91.725 Y125.000 E35.22919
G1 X90.431 Y124.898 E35.33303
G1 X88.900 Y124.530 E35.45900
G1 X87.451 Y123.929 E35.58449
G1 X86.109 Y123.108 E35.71035
G1 X84.913 Y122.086 E35.83620
G1 X83.891 Y120.890 E35.96206
G1 X83.070 Y119.548 E36.08791
G1 X82.469 Y118.099 E36.21341
G1 X82.099 Y116.561 E36.33996
G1 X82.000 Y115.268 E36.44370
G1 X82.000 Y107.732 E37.04658
G1 X82.099 Y106.438 E37.15041
G1 X82.469 Y104.900 E37.27696
G1 X83.070 Y103.451 E37.40245
G1 X83.891 Y102.109 E37.52831
G1 X84.913 Y100.913 E37.65416
G1 X86.109 Y99.891 E37.78002
G0 F9000 X86.345 Y100.215
G1 F1200 X87.633 Y99.427 E37.90081
G1 X89.024 Y98.850 E38.02129
G1 X90.501 Y98.495 E38.14281
G1 X91.748 Y98.400 E38.24286
G1 X131.253 Y98.400 E41.40326
G1 X132.499 Y98.496 E41.50324
G1 X133.975 Y98.850 E41.62466
G1 X135.366 Y99.427 E41.74514
G1 X136.654 Y100.215 E41.86593
G1 X137.802 Y101.197 E41.98679
G1 X138.784 Y102.345 E42.10765
G1 X139.572 Y103.633 E42.22844
G1 X140.149 Y105.024 E42.34891
G1 X140.502 Y106.494 E42.46986
G1 X140.600 Y107.741 E42.56992
G1 X140.600 Y115.260 E43.17144
G1 X140.502 Y116.506 E43.27143
G1 X140.149 Y117.975 E43.39230
G1 X139.572 Y119.366 E43.51277
G1 X138.784 Y120.654 E43.63357
G1 X137.802 Y121.802 E43.75442
G1 X136.654 Y122.784 E43.87528
G1 X135.366 Y123.572 E43.99607
G1 X133.975 Y124.149 E44.11655
G1 X132.506 Y124.502 E44.23741
G1 X131.260 Y124.600 E44.33740
G1 X91.741 Y124.600 E47.49892
G1 X90.494 Y124.502 E47.59899
G1 X89.024 Y124.149 E47.71993
G1 X87.633 Y123.572 E47.84041
G1 X86.345 Y122.784 E47.96120
G1 X85.197 Y121.802 E48.08206
G1 X84.215 Y120.654 E48.20291
G1 X83.427 Y119.366 E48.32371
G1 X82.850 Y117.975 E48.44418
G1 X82.496 Y116.499 E48.56561
G1 X82.400 Y115.253 E48.66559
G1 X82.400 Y107.748 E49.26599
G1 X82.495 Y106.501 E49.36603
G1 X82.850 Y105.024 E49.48756
G1 X83.427 Y103.633 E49.60803
G1 X84.215 Y102.345 E49.72883
G1 X85.197 Y101.197 E49.84968
G1 X86.345 Y100.215 E49.97054
G0 F9000 X86.581 Y100.540
G1 F1200 X87.815 Y99.785 E50.08627
G1 X89.149 Y99.232 E50.20180
G1 X90.563 Y98.892 E50.31814
G1 X91.763 Y98.800 E50.41442
G1 X131.238 Y98.800 E53.57242
G1 X132.436 Y98.892 E53.66855
G1 X133.850 Y99.232 E53.78489
G1 X135.184 Y99.785 E53.90042
G1 X136.418 Y100.540 E54.01615
G1 X137.518 Y101.481 E54.13195
G1 X138.459 Y102.581 E54.24776
G1 X139.214 Y103.815 E54.36349
G1 X139.767 Y105.149 E54.47902
G1 X140.106 Y106.557 E54.59488
G1 X140.200 Y107.756 E54.69109
G1 X140.200 Y115.244 E55.29013
G1 X140.105 Y116.443 E55.38635
G1 X139.767 Y117.850 E55.50212
G1 X139.214 Y119.184 E55.61764
G1 X138.459 Y120.418 E55.73337
G1 X137.518 Y121.518 E55.84918
G1 X136.418 Y122.459 E55.96499
G1 X135.184 Y123.214 E56.08072
G1 X133.850 Y123.767 E56.19624
G1 X132.443 Y124.105 E56.31201
G1 X131.244 Y124.200 E56.40823
G1 X91.756 Y124.200 E59.56727
G1 X90.557 Y124.106 E59.66348
G1 X89.149 Y123.767 E59.77934
G1 X87.815 Y123.214 E59.89487
G1 X86.581 Y122.459 E60.01060
G1 X85.481 Y121.518 E60.12640
G1 X84.540 Y120.418 E60.24221
G1 X83.785 Y119.184 E60.35794
G1 X83.232 Y117.850 E60.47347
G1 X82.892 Y116.436 E60.58981
G1 X82.800 Y115.238 E60.68593
G1 X82.800 Y107.763 E61.28393
G1 X82.892 Y106.563 E61.38022
G1 X83.232 Y105.149 E61.49656
G1 X83.785 Y103.815 E61.61209
G1 X84.540 Y102.581 E61.72782
G1 X85.481 Y101.481 E61.84362
G1 X86.581 Y100.540 E61.95943
G0 F9000 X86.817 Y100.865
G1 F1200 X87.997 Y100.142 E62.07014
G1 X89.273 Y99.613 E62.18065
G1 X90.626 Y99.288 E62.29196
G1 X91.778 Y99.200 E62.38439
G1 X131.222 Y99.200 E65.53991
G1 X132.374 Y99.288 E65.63234
G1 X133.726 Y99.613 E65.74358
G1 X135.002 Y100.142 E65.85409
G1 X136.182 Y100.865 E65.96480
G1 X137.235 Y101.764 E66.07556
G1 X138.134 Y102.817 E66.18633
G1 X138.857 Y103.997 E66.29704
G1 X139.386 Y105.273 E66.40754
G1 X139.709 Y106.620 E66.51836
G1 X139.800 Y107.772 E66.61081
G1 X139.800 Y115.228 E67.20729
G1 X139.709 Y116.380 E67.29973
G1 X139.386 Y117.726 E67.41047
G1 X138.857 Y119.002 E67.52097
G1 X138.134 Y120.182 E67.63168
G1 X137.235 Y121.235 E67.74245
G1 X136.182 Y122.134 E67.85321
G1 X135.002 Y122.857 E67.96392
G1 X133.726 Y123.386 E68.07443
G1 X132.380 Y123.709 E68.18517
G1 X131.228 Y123.800 E68.27761
G1 X91.772 Y123.800 E71.43409
G1 X90.620 Y123.709 E71.52654
G1 X89.273 Y123.386 E71.63736
G1 X87.997 Y122.857 E71.74786
G1 X86.817 Y122.134 E71.85857
G1 X85.764 Y121.235 E71.96934
G1 X84.865 Y120.182 E72.08010
G1 X84.142 Y119.002 E72.19081
G1 X83.613 Y117.726 E72.30132
G1 X83.288 Y116.374 E72.41256
G1 X83.200 Y115.222 E72.50499
G1 X83.200 Y107.778 E73.10051
G1 X83.288 Y106.626 E73.19293
G1 X83.613 Y105.273 E73.30425
G1 X84.142 Y103.997 E73.41476
G1 X84.865 Y102.817 E73.52547
G1 X85.764 Y101.764 E73.63623
G1 X86.817 Y100.865 E73.74700
G0 F9000 X87.053 Y101.189
G1 F1200 X88.179 Y100.500 E73.85260
G1 X89.397 Y99.995 E73.95809
G1 X90.688 Y99.685 E74.06430
G1 X91.793 Y99.600 E74.15296
G1 X131.207 Y99.600 E77.30608
G1 X132.312 Y99.685 E77.39475
G1 X133.602 Y99.995 E77.50088
G1 X134.820 Y100.500 E77.60637
G1 X135.946 Y101.189 E77.71197
G1 X136.951 Y102.048 E77.81774
G1 X137.810 Y103.053 E77.92351
G1 X138.499 Y104.179 E78.02911
G1 X139.004 Y105.397 E78.13460
G1 X139.313 Y106.682 E78.24033
G1 X139.400 Y107.788 E78.32908
G1 X139.400 Y115.213 E78.92308
G1 X139.313 Y116.317 E79.01167
G1 X139.004 Y117.602 E79.11740
G1 X138.499 Y118.820 E79.22289
G1 X137.810 Y119.946 E79.32849
G1 X136.951 Y120.951 E79.43426
G1 X135.946 Y121.810 E79.54003
G1 X134.820 Y122.499 E79.64563
G1 X133.602 Y123.004 E79.75112
G1 X132.317 Y123.313 E79.85685
G1 X131.213 Y123.400 E79.94544
G1 X91.788 Y123.400 E83.09944
G1 X90.682 Y123.313 E83.18819
G1 X89.397 Y123.004 E83.29392
G1 X88.179 Y122.499 E83.39941
G1 X87.053 Y121.810 E83.50501
G1 X86.048 Y120.951 E83.61078
G1 X85.189 Y119.946 E83.71655
G1 X84.500 Y118.820 E83.82215
G1 X83.995 Y117.602 E83.92764
G1 X83.685 Y116.312 E84.03377
G1 X83.600 Y115.207 E84.12243
G1 X83.600 Y107.793 E84.71555
G1 X83.685 Y106.688 E84.80422
G1 X83.995 Y105.397 E84.91043
G1 X84.500 Y104.179 E85.01591
G1 X85.189 Y103.053 E85.12152
G1 X86.048 Y102.048 E85.22729
G1 X87.053 Y101.189 E85.33305
G0 F9000 X87.288 Y101.514
G1 F1200 X88.362 Y100.857 E85.43378
G1 X89.521 Y100.376 E85.53416
G1 X90.750 Y100.081 E85.63528
G1 X91.809 Y100.000 E85.72024
G1 X131.192 Y100.000 E88.87088
G1 X132.249 Y100.081 E88.95569
G1 X133.478 Y100.376 E89.05680
G1 X134.637 Y100.857 E89.15719
G1 X135.711 Y101.514 E89.25791
G1 X136.667 Y102.332 E89.35857
G1 X137.485 Y103.288 E89.45922
G1 X138.142 Y104.362 E89.55995
G1 X138.623 Y105.521 E89.66033
G1 X138.917 Y106.745 E89.76104
G1 X139.000 Y107.803 E89.84594
G1 X139.000 Y115.197 E90.43746
G1 X138.917 Y116.254 E90.52228
G1 X138.623 Y117.478 E90.62298
G1 X138.142 Y118.637 E90.72337
G1 X137.485 Y119.711 E90.82409
G1 X136.667 Y120.667 E90.92475
G1 X135.711 Y121.485 E91.02541
G1 X134.637 Y122.142 E91.12613
G1 X133.478 Y122.623 E91.22651
G1 X132.254 Y122.917 E91.32722
G1 X131.197 Y123.000 E91.41204
G1 X91.803 Y123.000 E94.56356
G1 X90.745 Y122.917 E94.64846
G1 X89.521 Y122.623 E94.74916
G1 X88.362 Y122.142 E94.84955
G1 X87.288 Y121.485 E94.95027
G1 X86.332 Y120.667 E95.05093
G1 X85.514 Y119.711 E95.15159
G1 X84.857 Y118.637 E95.25231
G1 X84.376 Y117.478 E95.35269
G1 X84.081 Y116.249 E95.45381
G1 X84.000 Y115.192 E95.53862
G1 X84.000 Y107.809 E96.12926
G1 X84.081 Y106.750 E96.21422
G1 X84.376 Y105.521 E96.31534
G1 X84.857 Y104.362 E96.41572
G1 X85.514 Y103.288 E96.51644
G1 X86.332 Y102.332 E96.61710
G1 X87.288 Y101.514 E96.71776
G0 F9000 X87.524 Y101.839
G1 F1200 X88.544 Y101.215 E96.81341
G1 X89.645 Y100.758 E96.90878
G1 X90.813 Y100.477 E97.00489
G1 X91.824 Y100.400 E97.08600
G1 X131.176 Y100.400 E100.23416
G1 X132.187 Y100.478 E100.31528
G1 X133.354 Y100.758 E100.41129
G1 X134.455 Y101.215 E100.50666
G1 X135.475 Y101.839 E100.60232
G1 X136.384 Y102.615 E100.69793
G1 X137.160 Y103.524 E100.79355
G1 X137.784 Y104.544 E100.88920
G1 X138.241 Y105.645 E100.98457
G1 X138.520 Y106.808 E101.08025
G1 X138.600 Y107.819 E101.16138
G1 X138.600 Y115.181 E101.75034
G1 X138.520 Y116.191 E101.83140
G1 X138.241 Y117.354 E101.92708
G1 X137.784 Y118.455 E102.02244
G1 X137.160 Y119.475 E102.11810
G1 X136.384 Y120.384 E102.21371
G1 X135.475 Y121.160 E102.30933
G1 X134.455 Y121.784 E102.40499
G1 X133.354 Y122.241 E102.50035
G1 X132.191 Y122.520 E102.59603
G1 X131.181 Y122.600 E102.67709
G1 X91.819 Y122.600 E105.82605
G1 X90.808 Y122.520 E105.90718
G1 X89.645 Y122.241 E106.00286
G1 X88.544 Y121.784 E106.09823
G1 X87.524 Y121.160 E106.19388
G1 X86.615 Y120.384 E106.28950
G1 X85.839 Y119.475 E106.38511
G1 X85.215 Y118.455 E106.48077
G1 X84.758 Y117.354 E106.57614
G1 X84.478 Y116.187 E106.67215
G1 X84.400 Y115.176 E106.75327
G1 X84.400 Y107.824 E107.34143
G1 X84.477 Y106.813 E107.42254
G1 X84.758 Y105.645 E107.51865
G1 X85.215 Y104.544 E107.61401
G1 X85.839 Y103.524 E107.70967
G1 X86.615 Y102.615 E107.80529
G1 X87.524 Y101.839 E107.90090
G0 F9000 X87.760 Y102.163
G1 F1200 X88.726 Y101.572 E107.99150
G1 X89.769 Y101.140 E108.08181
G1 X90.875 Y100.874 E108.17282
G1 X91.839 Y100.800 E108.25016
G1 X131.161 Y100.800 E111.39592
G1 X132.124 Y100.874 E111.47319
G1 X133.230 Y101.140 E111.56419
G1 X134.273 Y101.572 E111.65451
G1 X135.239 Y102.163 E111.74510
G1 X136.100 Y102.899 E111.83572
G1 X136.836 Y103.760 E111.92633
G1 X137.427 Y104.726 E112.01693
G1 X137.859 Y105.769 E112.10724
G1 X138.124 Y106.871 E112.19792
G1 X138.200 Y107.835 E112.27528
G1 X138.200 Y115.165 E112.86168
G1 X138.124 Y116.129 E112.93904
G1 X137.859 Y117.230 E113.02963
G1 X137.427 Y118.273 E113.11995
G1 X136.836 Y119.239 E113.21054
G1 X136.100 Y120.100 E113.30116
G1 X135.239 Y120.836 E113.39177
G1 X134.273 Y121.427 E113.48237
G1 X133.230 Y121.859 E113.57268
G1 X132.129 Y122.124 E113.66328
G1 X131.165 Y122.200 E113.74064
G1 X91.835 Y122.200 E116.88704
G1 X90.871 Y122.124 E116.96440
G1 X89.769 Y121.859 E117.05507
G1 X88.726 Y121.427 E117.14539
G1 X87.760 Y120.836 E117.23598
G1 X86.899 Y120.100 E117.32660
G1 X86.163 Y119.239 E117.41721
G1 X85.572 Y118.273 E117.50781
G1 X85.140 Y117.230 E117.59812
G1 X84.874 Y116.124 E117.68913
G1 X84.800 Y115.161 E117.76639
G1 X84.800 Y107.839 E118.35215
G1 X84.874 Y106.875 E118.42950
G1 X85.140 Y105.769 E118.52050
G1 X85.572 Y104.726 E118.61082
G1 X86.163 Y103.760 E118.70141
G1 X86.899 Y102.899 E118.79203
G1 X87.760 Y102.163 E118.88265
G0 F9000 X87.996 Y102.488
G1 F1200 X88.908 Y101.930 E118.96818
G1 X89.893 Y101.521 E119.05350
G1 X90.937 Y101.270 E119.13940
G1 X91.855 Y101.200 E119.21305
G1 X131.146 Y101.200 E122.35633
G1 X132.062 Y101.270 E122.42983
G1 X133.106 Y101.521 E122.51573
G1 X134.091 Y101.930 E122.60105
G1 X135.003 Y102.488 E122.68658
G1 X135.816 Y103.183 E122.77215
G1 X136.511 Y103.996 E122.85772
G1 X137.069 Y104.908 E122.94325
G1 X137.478 Y105.893 E123.02857
G1 X137.728 Y106.933 E123.11414
G1 X137.800 Y107.851 E123.18781
G1 X137.800 Y115.150 E123.77173
G1 X137.728 Y116.066 E123.84523
G1 X137.478 Y117.106 E123.93080
G1 X137.069 Y118.091 E124.01613
G1 X136.511 Y119.003 E124.10166
G1 X135.816 Y119.816 E124.18723
G1 X135.003 Y120.511 E124.27279
G1 X134.091 Y121.069 E124.35833
G1 X133.106 Y121.478 E124.44365
G1 X132.066 Y121.728 E124.52922
G1 X131.150 Y121.800 E124.60273
G1 X91.851 Y121.800 E127.74665
G1 X90.933 Y121.728 E127.82031
G1 X89.893 Y121.478 E127.90588
G1 X88.908 Y121.069 E127.99120
G1 X87.996 Y120.511 E128.07674
G1 X87.183 Y119.816 E128.16230
G1 X86.488 Y119.003 E128.24787
G1 X85.930 Y118.091 E128.33340
G1 X85.521 Y117.106 E128.41873
G1 X85.270 Y116.062 E128.50463
G1 X85.200 Y115.146 E128.57812
G1 X85.200 Y107.855 E129.16140
G1 X85.270 Y106.937 E129.23505
G1 X85.521 Y105.893 E129.32095
G1 X85.930 Y104.908 E129.40628
G1 X86.488 Y103.996 E129.49181
G1 X87.183 Y103.183 E129.57737
G1 X87.996 Y102.488 E129.66294
G0 F9000 X88.232 Y102.812
G1 F1200 X89.090 Y102.287 E129.74341
G1 X90.017 Y101.903 E129.82368
G1 X91.000 Y101.667 E129.90456
G1 X91.870 Y101.600 E129.97436
G1 X131.130 Y101.600 E133.11516
G1 X131.999 Y101.667 E133.18489
G1 X132.982 Y101.903 E133.26576
G1 X133.909 Y102.287 E133.34603
G1 X134.767 Y102.812 E133.42650
G1 X135.533 Y103.466 E133.50708
G1 X136.187 Y104.232 E133.58766
G1 X136.712 Y105.090 E133.66813
G1 X137.096 Y106.017 E133.74840
G1 X137.332 Y106.996 E133.82896
G1 X137.400 Y107.866 E133.89877
G1 X137.400 Y115.134 E134.48021
G1 X137.331 Y116.003 E134.54995
G1 X137.096 Y116.982 E134.63050
G1 X136.712 Y117.909 E134.71077
G1 X136.187 Y118.767 E134.79124
