;FLAVOR:UltiGCode
;TIME:2684
;MATERIAL:5147
;MATERIAL2:0
;NOZZLE_DIAMETER:0.400000
;NOZZLE_DIAMETER2:0.400000

;Layer count: 150
;LAYER:0
M107
G0 F9000 X80.954 Y96.201 Z0.200
;TYPE:SKIRT
G1 F1200 X143.470 Y96.201 E5.00128
G1 X143.470 Y125.386 E7.33608
G1 X106.434 Y125.410 E10.29896
G1 X88.687 Y125.409 E11.71872
G1 X86.568 Y125.058 E11.89055
G1 X84.370 Y123.869 E12.09047
G1 X83.122 Y122.705 E12.22700
G1 X82.519 Y121.944 E12.30467
G1 X81.880 Y120.972 E12.39773
G1 X81.148 Y119.206 E12.55066
G1 X80.921 Y117.524 E12.68644
G1 X80.921 Y112.196 E13.11268
G1 X80.954 Y96.201 E14.39229
G0 F9000 X81.353 Y96.601
G1 F1200 X143.070 Y96.601 E19.32965
G1 X143.070 Y124.986 E21.60045
G1 X106.434 Y125.010 E24.53133
G1 X88.720 Y125.009 E25.94845
G1 X86.700 Y124.674 E26.11226
G1 X84.605 Y123.541 E26.30279
G1 X83.417 Y122.433 E26.43276
G1 X82.843 Y121.710 E26.50661
G1 X82.235 Y120.784 E26.59523
G1 X81.537 Y119.101 E26.74099
G1 X81.321 Y117.497 E26.87047
G1 X81.321 Y112.196 E27.29455
G1 X81.353 Y96.601 E28.54215
G0 F9000 X81.752 Y97.001
G1 F1200 X142.670 Y97.001 E33.41559
G1 X142.670 Y124.586 E35.62239
G1 X106.434 Y124.610 E38.52127
G1 X88.753 Y124.609 E39.93575
G1 X86.831 Y124.290 E40.09161
G1 X84.841 Y123.214 E40.27260
G1 X83.712 Y122.161 E40.39610
G1 X83.168 Y121.475 E40.46614
G1 X82.590 Y120.596 E40.55030
G1 X81.926 Y118.996 E40.68889
G1 X81.721 Y117.470 E40.81207
G1 X81.721 Y112.197 E41.23391
G1 X81.752 Y97.001 E42.44959
G0 F9000 X82.152 Y97.401
G1 F1200 X142.270 Y97.401 E47.25903
G1 X142.270 Y124.187 E49.40191
G1 X106.434 Y124.210 E52.26879
G1 X88.786 Y124.209 E53.68063
G1 X86.963 Y123.907 E53.82846
G1 X85.076 Y122.886 E54.00010
G1 X84.007 Y121.889 E54.11704
G1 X83.492 Y121.241 E54.18326
G1 X82.945 Y120.408 E54.26298
G1 X82.316 Y118.891 E54.39436
G1 X82.121 Y117.443 E54.51125
G1 X82.121 Y112.197 E54.93093
G1 X82.152 Y97.401 E56.11461
G0 F9000 X82.551 Y97.801
G1 F1200 X141.870 Y97.801 E60.86013
G1 X141.870 Y123.787 E62.93901
G1 X106.434 Y123.810 E65.77389
G1 X88.819 Y123.809 E67.18309
G1 X87.094 Y123.523 E67.32297
G1 X85.311 Y122.559 E67.48513
G1 X84.301 Y121.617 E67.59561
G1 X83.817 Y121.006 E67.65797
G1 X83.300 Y120.219 E67.73330
G1 X82.705 Y118.786 E67.85743
G1 X82.521 Y117.416 E67.96802
G1 X82.521 Y112.198 E68.38546
G1 X82.551 Y97.801 E69.53722
G0 F9000 X82.950 Y98.201
G1 F1200 X141.470 Y98.201 E74.21882
G1 X141.470 Y123.387 E76.23370
G1 X106.434 Y123.410 E79.03658
G1 X88.852 Y123.409 E80.44314
G1 X87.225 Y123.139 E80.57508
G1 X85.547 Y122.232 E80.72767
G1 X84.596 Y121.345 E80.83171
G1 X84.141 Y120.772 E80.89024
G1 X83.655 Y120.031 E80.96114
G1 X83.095 Y118.681 E81.07806
G1 X82.921 Y117.390 E81.18227
G1 X82.921 Y112.198 E81.59763
G1 X82.950 Y98.201 E82.71740
G0 F9000 X83.349 Y98.601
G1 F1200 X141.070 Y98.601 E87.33508
G1 X141.070 Y122.987 E89.28596
G1 X106.434 Y123.010 E92.05684
G1 X88.885 Y123.009 E93.46076
G1 X87.357 Y122.756 E93.58466
G1 X85.782 Y121.904 E93.72792
G1 X84.891 Y121.073 E93.82539
G1 X84.466 Y120.537 E93.88011
G1 X84.010 Y119.843 E93.94654
G1 X83.484 Y118.576 E94.05629
G1 X83.321 Y117.363 E94.15420
G1 X83.321 Y112.198 E94.56740
G1 X83.349 Y98.601 E95.65516
G0 F9000 X83.748 Y99.001
G1 F1200 X140.670 Y99.001 E100.20892
G1 X140.670 Y122.588 E102.09588
G1 X106.433 Y122.610 E104.83484
G1 X88.918 Y122.609 E106.23604
G1 X87.488 Y122.372 E106.35201
G1 X86.017 Y121.577 E106.48577
G1 X85.186 Y120.801 E106.57673
G1 X84.790 Y120.303 E106.62763
G1 X84.365 Y119.655 E106.68963
G1 X83.874 Y118.471 E106.79217
G1 X83.721 Y117.336 E106.88379
G1 X83.721 Y112.199 E107.29475
G1 X83.748 Y99.001 E108.35059
G0 F9000 X84.148 Y99.401
G1 F1200 X140.270 Y99.401 E112.84035
G1 X140.270 Y122.188 E114.66331
G1 X106.433 Y122.210 E117.37027
G1 X88.951 Y122.209 E118.76883
G1 X87.620 Y121.988 E118.87677
G1 X86.253 Y121.249 E119.00109
G1 X85.480 Y120.529 E119.08560
G1 X85.115 Y120.068 E119.13264
G1 X84.720 Y119.467 E119.19017
G1 X84.263 Y118.366 E119.28554
G1 X84.121 Y117.309 E119.37086
G1 X84.121 Y112.199 E119.77966
G1 X84.148 Y99.401 E120.80350
G0 F9000 X84.547 Y99.801
G1 F1200 X139.870 Y99.801 E125.22934
G1 X139.870 Y121.788 E126.98830
G1 X106.433 Y121.810 E129.66326
G1 X88.984 Y121.809 E131.05918
G1 X87.751 Y121.605 E131.15916
G1 X86.488 Y120.922 E131.27403
G1 X85.775 Y120.257 E131.35203
G1 X85.440 Y119.834 E131.39520
G1 X85.075 Y119.279 E131.44834
G1 X84.653 Y118.261 E131.53650
G1 X84.521 Y117.282 E131.61553
G1 X84.521 Y112.200 E132.02209
G1 X84.547 Y99.801 E133.01401
G0 F9000 X84.946 Y100.201
G1 F1200 X139.470 Y100.201 E137.37593
G1 X139.470 Y121.389 E139.07097
G1 X106.433 Y121.410 E141.71393
G1 X89.017 Y121.409 E143.10721
G1 X87.883 Y121.221 E143.19917
G1 X86.723 Y120.594 E143.30466
G1 X86.070 Y119.985 E143.37609
G1 X85.764 Y119.599 E143.41549
G1 X85.430 Y119.091 E143.46413
G1 X85.042 Y118.155 E143.54519
G1 X84.921 Y117.256 E143.61776
G1 X84.921 Y112.200 E144.02224
G1 X84.946 Y100.201 E144.98216
G0 F9000 X85.345 Y100.601
G1 F1200 X139.070 Y100.601 E149.28016
G1 X139.070 Y120.989 E150.91120
G1 X106.433 Y121.010 E153.52216
G1 X89.050 Y121.009 E154.91280
G1 X88.014 Y120.837 E154.99682
G1 X86.959 Y120.267 E155.09275
G1 X86.365 Y119.713 E155.15773
G1 X86.089 Y119.365 E155.19326
G1 X85.785 Y118.903 E155.23750
G1 X85.432 Y118.050 E155.31136
G1 X85.321 Y117.229 E155.37763
G1 X85.321 Y112.200 E155.77995
G1 X85.345 Y100.601 E156.70788
G0 F9000 X85.744 Y101.001
G1 F1200 X138.670 Y101.001 E160.94196
G1 X138.670 Y120.589 E162.50900
G1 X106.433 Y120.610 E165.08796
G1 X89.083 Y120.609 E166.47596
G1 X88.145 Y120.454 E166.55201
G1 X87.194 Y119.939 E166.63853
G1 X86.659 Y119.441 E166.69701
G1 X86.413 Y119.130 E166.72873
G1 X86.140 Y118.715 E166.76847
G1 X85.821 Y117.945 E166.83514
G1 X85.721 Y117.202 E166.89512
G1 X85.721 Y112.201 E167.29520
G1 X85.744 Y101.001 E168.19120
G0 F9000 X86.143 Y101.401
G1 F1200 X138.270 Y101.401 E172.36136
G1 X138.270 Y120.189 E173.86440
G1 X106.433 Y120.210 E176.41136
G1 X89.116 Y120.209 E177.79672
G1 X88.277 Y120.070 E177.86476
G1 X87.429 Y119.612 E177.94186
G1 X86.954 Y119.168 E177.99388
G1 X86.738 Y118.895 E178.02173
G1 X86.495 Y118.527 E178.05700
G1 X86.211 Y117.840 E178.11648
G1 X86.121 Y117.175 E178.17016
G1 X86.121 Y112.201 E178.56808
G1 X86.143 Y101.401 E179.43208
G0 F9000 X86.543 Y101.801
G1 F1200 X137.870 Y101.801 E183.53824
G1 X137.870 Y119.790 E184.97736
G1 X106.433 Y119.810 E187.49232
G1 X89.149 Y119.809 E188.87504
G1 X88.408 Y119.686 E188.93513
G1 X87.665 Y119.284 E189.00272
G1 X87.249 Y118.896 E189.04823
G1 X87.062 Y118.661 E189.07225
G1 X86.850 Y118.339 E189.10309
G1 X86.600 Y117.735 E189.15539
G1 X86.521 Y117.148 E189.20277
G1 X86.521 Y112.202 E189.59845
G1 X86.543 Y101.801 E190.43053
G0 F9000 X86.942 Y102.201
G1 F1200 X137.470 Y102.201 E194.47277
G1 X137.470 Y119.390 E195.84789
G1 X106.433 Y119.410 E198.33085
G1 X89.182 Y119.409 E199.71093
G1 X88.540 Y119.303 E199.76299
G1 X87.900 Y118.957 E199.82119
G1 X87.544 Y118.624 E199.86019
G1 X87.387 Y118.426 E199.88041
G1 X87.205 Y118.150 E199.90685
G1 X86.989 Y117.630 E199.95190
G1 X86.921 Y117.122 E199.99290
G1 X86.921 Y112.202 E200.38650
G1 X86.942 Y102.201 E201.18658
G0 F9000 X87.341 Y102.601
G1 F1200 X137.070 Y102.601 E205.16490
G1 X137.070 Y118.990 E206.47602
G1 X89.215 Y119.009 E210.30442
G1 X88.671 Y118.919 E210.34854
G1 X88.135 Y118.629 E210.39729
G1 X87.838 Y118.352 E210.42978
G1 X87.711 Y118.192 E210.44612
G1 X87.560 Y117.962 E210.46813
G1 X87.379 Y117.525 E210.50597
G1 X87.321 Y117.095 E210.54068
G1 X87.321 Y112.203 E210.93204
G1 X87.341 Y102.601 E211.70021
G0 F9000 X87.740 Y103.001
G1 F1200 X136.670 Y103.001 E215.61461
G1 X136.670 Y118.590 E216.86173
G1 X89.248 Y118.609 E220.65549
G1 X88.802 Y118.535 E220.69165
G1 X88.371 Y118.302 E220.73085
G1 X88.133 Y118.080 E220.75689
G1 X88.036 Y117.957 E220.76942
G1 X87.915 Y117.774 E220.78697
G1 X87.768 Y117.420 E220.81763
G1 X87.721 Y117.068 E220.84604
G1 X87.721 Y112.203 E221.23524
G1 X87.740 Y103.001 E221.97141
G0 F9000 X88.139 Y103.401
G1 F1200 X136.270 Y103.401 E225.82189
G1 X136.270 Y118.191 E227.00509
G1 X89.281 Y118.209 E230.76421
G1 X88.934 Y118.152 E230.79234
G1 X88.606 Y117.974 E230.82219
G1 X88.428 Y117.808 E230.84167
G1 X88.360 Y117.723 E230.85037
G1 X88.270 Y117.586 E230.86349
G1 X88.158 Y117.315 E230.88695
G1 X88.121 Y117.041 E230.90906
G1 X88.121 Y112.203 E231.29610
G1 X88.139 Y103.401 E232.00027
G0 F9000 X88.538 Y103.801
G1 F1200 X135.870 Y103.801 E235.78683
G1 X135.870 Y117.791 E236.90603
G1 X89.314 Y117.809 E240.63051
G1 X89.065 Y117.768 E240.65069
G1 X88.841 Y117.647 E240.67106
G1 X88.723 Y117.536 E240.68402
G1 X88.685 Y117.488 E240.68892
G1 X88.625 Y117.398 E240.69757
G1 X88.547 Y117.210 E240.71386
G1 X88.521 Y117.014 E240.72967
G1 X88.538 Y103.801 E241.78671
G0 F9000 X89.337 Y104.601
;TYPE:WALL-INNER
G1 F1200 X135.070 Y104.601 E245.44535
G1 X135.070 Y116.991 E246.43655
G1 X89.380 Y117.009 E250.09175
G1 X89.327 Y117.000 E250.09606
G1 X89.321 Y112.205 E250.47966
G1 X89.337 Y104.601 E251.08798
G0 F9000 X88.938 Y104.201
;TYPE:WALL-OUTER
G1 F1200 X135.470 Y104.201 E254.81054
G1 X135.470 Y117.391 E255.86574
G1 X89.345 Y117.409 E259.55574
G1 X89.197 Y117.385 E259.56773
G1 X89.075 Y117.318 E259.57887
G1 X89.009 Y117.253 E259.58628
G1 X88.982 Y117.212 E259.59020
G1 X88.936 Y117.102 E259.59974
G1 X88.921 Y116.989 E259.60886
G1 X88.938 Y104.201 E260.63190
G0 F9000 X89.750 Y104.740
;TYPE:SKIN
G1 F900 X101.872 Y116.863 E262.00341
G0 F9000 X101.307 Y116.863
G1 F900 X89.475 Y105.032 E263.34199
G0 F9000 X89.475 Y105.597
G1 F900 X100.742 Y116.864 E264.61670
G0 F9000 X100.176 Y116.864
G1 F900 X89.475 Y106.162 E265.82744
G0 F9000 X89.474 Y106.727
G1 F900 X99.610 Y116.864 E266.97426
G0 F9000 X99.045 Y116.864
G1 F900 X89.474 Y107.293 E268.05709
G0 F9000 X89.473 Y107.858
G1 F900 X98.480 Y116.864 E269.07606
G0 F9000 X97.914 Y116.864
G1 F900 X89.473 Y108.423 E270.03105
G0 F9000 X89.473 Y108.989
G1 F900 X97.348 Y116.864 E270.92200
G0 F9000 X96.783 Y116.865
G1 F900 X89.472 Y109.554 E271.74915
G0 F9000 X89.471 Y110.119
G1 F900 X96.218 Y116.865 E272.51243
G0 F9000 X95.652 Y116.865
G1 F900 X89.471 Y110.684 E273.21173
G0 F9000 X89.470 Y111.249
G1 F900 X95.087 Y116.866 E273.84722
G0 F9000 X94.521 Y116.866
G1 F900 X89.470 Y111.814 E274.41873
G0 F9000 X89.470 Y112.380
G1 F900 X93.956 Y116.866 E274.92626
G0 F9000 X93.390 Y116.866
G1 F900 X89.469 Y112.945 E275.36988
G0 F9000 X89.468 Y113.510
G1 F900 X92.825 Y116.867 E275.74968
G0 F9000 X92.259 Y116.867
G1 F900 X89.468 Y114.076 E276.06544
G0 F9000 X89.468 Y114.641
G1 F900 X91.694 Y116.867 E276.31729
G0 F9000 X91.129 Y116.867
G1 F900 X89.467 Y115.206 E276.50526
G0 F9000 X89.467 Y115.771
G1 F900 X90.563 Y116.867 E276.62926
G0 F9000 X89.997 Y116.867
G1 F900 X89.466 Y116.336 E276.68934
G0 F9000 X90.315 Y104.740
G1 F900 X102.438 Y116.863 E278.06090
G0 F9000 X103.003 Y116.862
G1 F900 X90.881 Y104.740 E279.43235
G0 F9000 X91.447 Y104.740
G1 F900 X103.569 Y116.862 E280.80379
G0 F9000 X104.134 Y116.862
G1 F900 X92.012 Y104.740 E282.17524
G0 F9000 X92.578 Y104.740
G1 F900 X104.699 Y116.862 E283.54663
G0 F9000 X105.265 Y116.862
G1 F900 X93.144 Y104.740 E284.91802
G0 F9000 X93.710 Y104.740
G1 F900 X105.831 Y116.862 E286.28941
G0 F9000 X106.396 Y116.862
G1 F900 X94.275 Y104.740 E287.66081
G0 F9000 X94.841 Y104.740
G1 F900 X106.961 Y116.861 E289.03208
G0 F9000 X107.527 Y116.861
G1 F900 X95.407 Y104.740 E290.40336
G0 F9000 X95.972 Y104.740
G1 F900 X108.093 Y116.861 E291.77470
G0 F9000 X108.658 Y116.860
G1 F900 X96.538 Y104.740 E293.14592
G0 F9000 X97.104 Y104.740
G1 F900 X109.223 Y116.860 E294.51708
G0 F9000 X109.789 Y116.860
G1 F900 X97.669 Y104.740 E295.88830
G0 F9000 X98.235 Y104.740
G1 F900 X110.354 Y116.860 E297.25947
G0 F9000 X110.920 Y116.860
G1 F900 X98.801 Y104.740 E298.63063
G0 F9000 X99.366 Y104.740
G1 F900 X111.485 Y116.860 E300.00180
G0 F9000 X112.051 Y116.860
G1 F900 X99.932 Y104.740 E301.37296
G0 F9000 X100.498 Y104.740
G1 F900 X112.616 Y116.859 E302.74402
G0 F9000 X113.182 Y116.859
G1 F900 X101.063 Y104.740 E304.11512
G0 F9000 X101.629 Y104.740
G1 F900 X113.748 Y116.859 E305.48623
G0 F9000 X114.313 Y116.858
G1 F900 X102.195 Y104.740 E306.85723
G0 F9000 X102.761 Y104.740
G1 F900 X114.878 Y116.858 E308.22817
G0 F9000 X115.444 Y116.858
G1 F900 X103.326 Y104.740 E309.59916
G0 F9000 X103.892 Y104.740
G1 F900 X116.009 Y116.857 E310.97004
G0 F9000 X116.575 Y116.857
G1 F900 X104.458 Y104.740 E312.34093
G0 F9000 X105.023 Y104.740
G1 F900 X117.140 Y116.857 E313.71181
G0 F9000 X117.706 Y116.857
G1 F900 X105.589 Y104.740 E315.08269
G0 F9000 X106.155 Y104.740
G1 F900 X118.271 Y116.857 E316.45351
G0 F9000 X118.837 Y116.857
G1 F900 X106.720 Y104.740 E317.82440
G0 F9000 X107.286 Y104.740
G1 F900 X119.402 Y116.857 E319.19522
G0 F9000 X119.967 Y116.856
G1 F900 X107.852 Y104.740 E320.56593
G0 F9000 X108.417 Y104.740
G1 F900 X120.533 Y116.856 E321.93670
G0 F9000 X121.099 Y116.856
G1 F900 X108.983 Y104.740 E323.30747
G0 F9000 X109.549 Y104.740
G1 F900 X121.664 Y116.856 E324.67818
G0 F9000 X122.229 Y116.855
G1 F900 X110.114 Y104.740 E326.04884
G0 F9000 X110.680 Y104.740
G1 F900 X122.795 Y116.855 E327.41950
G0 F9000 X123.361 Y116.855
G1 F900 X111.246 Y104.740 E328.79015
G0 F9000 X111.811 Y104.740
G1 F900 X123.926 Y116.855 E330.16081
G0 F9000 X124.491 Y116.855
G1 F900 X112.377 Y104.740 E331.53141
G0 F9000 X112.943 Y104.740
G1 F900 X125.057 Y116.855 E332.90201
G0 F9000 X125.622 Y116.854
G1 F900 X113.509 Y104.740 E334.27249
G0 F9000 X114.074 Y104.740
G1 F900 X126.188 Y116.854 E335.64304
G0 F9000 X126.753 Y116.854
G1 F900 X114.640 Y104.740 E337.01352
G0 F9000 X115.206 Y104.740
G1 F900 X127.319 Y116.854 E338.38401
G0 F9000 X127.884 Y116.853
G1 F900 X115.771 Y104.740 E339.75444
G0 F9000 X116.337 Y104.740
G1 F900 X128.450 Y116.853 E341.12487
G0 F9000 X129.015 Y116.853
G1 F900 X116.903 Y104.740 E342.49524
G0 F9000 X117.468 Y104.740
G1 F900 X129.580 Y116.852 E343.86556
G0 F9000 X130.146 Y116.852
G1 F900 X118.034 Y104.740 E345.23587
G0 F9000 X118.600 Y104.740
G1 F900 X130.712 Y116.852 E346.60619
G0 F9000 X131.277 Y116.852
G1 F900 X119.165 Y104.740 E347.97650
G0 F9000 X119.731 Y104.740
G1 F900 X131.842 Y116.852 E349.34676
G0 F9000 X132.408 Y116.852
G1 F900 X120.297 Y104.740 E350.71702
G0 F9000 X120.862 Y104.740
G1 F900 X132.974 Y116.852 E352.08734
G0 F9000 X133.539 Y116.851
G1 F900 X121.428 Y104.740 E353.45754
G0 F9000 X121.994 Y104.740
G1 F900 X134.104 Y116.851 E354.82769
G0 F9000 X134.670 Y116.851
G1 F900 X122.559 Y104.740 E356.19789
G0 F9000 X123.125 Y104.740
G1 F900 X134.929 Y116.544 E357.53336
G0 F9000 X134.929 Y115.978
G1 F900 X123.691 Y104.740 E358.80480
G0 F9000 X124.257 Y104.740
G1 F900 X134.929 Y115.413 E360.01225
G0 F9000 X134.929 Y114.847
G1 F900 X124.822 Y104.740 E361.15573
G0 F9000 X125.388 Y104.740
G1 F900 X134.929 Y114.281 E362.23517
G0 F9000 X134.929 Y113.716
G1 F900 X125.954 Y104.740 E363.25063
G0 F9000 X126.519 Y104.740
G1 F900 X134.929 Y113.150 E364.20212
G0 F9000 X134.929 Y112.584
G1 F900 X127.085 Y104.740 E365.08956
G0 F9000 X127.651 Y104.740
G1 F900 X134.929 Y112.019 E365.91303
G0 F9000 X134.929 Y111.453
G1 F900 X128.216 Y104.740 E366.67252
G0 F9000 X128.782 Y104.740
G1 F900 X134.929 Y110.887 E367.36797
G0 F9000 X134.929 Y110.322
G1 F900 X129.348 Y104.740 E367.99945
G0 F9000 X129.913 Y104.740
G1 F900 X134.929 Y109.756 E368.56695
G0 F9000 X134.929 Y109.190
G1 F900 X130.479 Y104.740 E369.07041
G0 F9000 X131.045 Y104.740
G1 F900 X134.929 Y108.625 E369.50989
G0 F9000 X134.929 Y108.059
G1 F900 X131.610 Y104.740 E369.88539
G0 F9000 X132.176 Y104.740
G1 F900 X134.929 Y107.493 E370.19685
G0 F9000 X134.929 Y106.927
G1 F900 X132.742 Y104.740 E370.44429
G0 F9000 X133.308 Y104.740
G1 F900 X134.929 Y106.362 E370.62774
G0 F9000 X134.929 Y105.796
G1 F900 X133.873 Y104.740 E370.74721
G0 F9000 X134.439 Y104.740
G1 F900 X134.929 Y105.230 E370.80265
;LAYER:1
M106 S127
G0 F9000 X135.070 Y104.601 Z0.400
;TYPE:WALL-INNER
G1 F1500 X135.070 Y117.440 E371.82977
G1 X89.345 Y117.448 E375.48777
G1 X89.320 Y117.447 E375.48977
G1 X89.177 Y117.419 E375.50143
G1 X89.061 Y117.352 E375.51214
G1 X88.980 Y117.271 E375.52131
G1 X88.912 Y117.152 E375.53227
G1 X88.891 Y117.077 E375.53850
