;FLAVOR:UltiGCode
;TIME:1719
;MATERIAL:3207
;MATERIAL2:0
;NOZZLE_DIAMETER:0.400000
;NOZZLE_DIAMETER2:0.400000

;Layer count: 155
;LAYER:0
M107
G0 F9000 X88.700 Y96.200 Z0.200
;TYPE:SKIRT
G1 F1200 X125.755 Y96.200 E2.96440
G1 X134.300 Y96.211 E3.64800
G1 X134.300 Y125.394 E5.98264
G1 X88.700 Y125.395 E9.63064
G1 X88.700 Y96.200 E11.96624
G0 F9000 X89.100 Y96.600
G1 F1200 X125.755 Y96.600 E14.89864
G1 X133.900 Y96.611 E15.55024
G1 X133.900 Y124.994 E17.82088
G1 X89.100 Y124.995 E21.40488
G1 X89.100 Y96.600 E23.67648
G0 F9000 X89.500 Y97.000
G1 F1200 X125.755 Y97.000 E26.57688
G1 X133.500 Y97.010 E27.19648
G1 X133.500 Y124.594 E29.40320
G1 X89.500 Y124.595 E32.92320
G1 X89.500 Y97.000 E35.13080
G0 F9000 X89.900 Y97.400
G1 F1200 X125.754 Y97.400 E37.99912
G1 X133.100 Y97.410 E38.58680
G1 X133.100 Y124.194 E40.72952
G1 X89.900 Y124.195 E44.18552
G1 X89.900 Y97.400 E46.32912
G0 F9000 X90.300 Y97.800
G1 F1200 X125.754 Y97.800 E49.16544
G1 X132.700 Y97.809 E49.72112
G1 X132.700 Y123.794 E51.79992
G1 X90.300 Y123.795 E55.19192
G1 X90.300 Y97.800 E57.27152
G0 F9000 X90.700 Y98.200
G1 F1200 X125.754 Y98.200 E60.07584
G1 X132.300 Y98.209 E60.59952
G1 X132.300 Y123.394 E62.61432
G1 X90.700 Y123.395 E65.94232
G1 X90.700 Y98.200 E67.95792
G0 F9000 X91.100 Y98.600
G1 F1200 X125.754 Y98.600 E70.73024
G1 X131.900 Y98.608 E71.22192
G1 X131.900 Y122.994 E73.17280
G1 X91.100 Y122.995 E76.43680
G1 X91.100 Y98.600 E78.38840
G0 F9000 X91.500 Y99.000
G1 F1200 X125.753 Y99.000 E81.12864
G1 X131.500 Y99.008 E81.58840
G1 X131.500 Y122.594 E83.47528
G1 X91.500 Y122.595 E86.67528
G1 X91.500 Y99.000 E88.56288
G0 F9000 X91.900 Y99.400
G1 F1200 X125.753 Y99.400 E91.27112
G1 X131.100 Y99.407 E91.69888
G1 X131.100 Y122.194 E93.52184
G1 X91.900 Y122.195 E96.65784
G1 X91.900 Y99.400 E98.48144
G0 F9000 X92.300 Y99.800
G1 F1200 X125.753 Y99.800 E101.15768
G1 X130.700 Y99.807 E101.55344
G1 X130.700 Y121.794 E103.31240
G1 X92.300 Y121.795 E106.38440
G1 X92.300 Y99.800 E108.14400
G0 F9000 X92.700 Y100.200
G1 F1200 X125.753 Y100.200 E110.78824
G1 X130.300 Y100.206 E111.15201
G1 X130.300 Y121.394 E112.84705
G1 X92.700 Y121.395 E115.85505
G1 X92.700 Y100.200 E117.55065
G0 F9000 X93.100 Y100.600
G1 F1200 X125.752 Y100.600 E120.16281
G1 X129.900 Y100.606 E120.49465
G1 X129.900 Y120.994 E122.12569
G1 X93.100 Y120.995 E125.06969
G1 X93.100 Y100.600 E126.70129
G0 F9000 X93.500 Y101.000
G1 F1200 X125.752 Y101.000 E129.28145
G1 X129.500 Y101.005 E129.58129
G1 X129.500 Y120.594 E131.14841
G1 X93.500 Y120.595 E134.02841
G1 X93.500 Y101.000 E135.59601
G0 F9000 X93.900 Y101.400
G1 F1200 X125.752 Y101.400 E138.14417
G1 X129.100 Y101.404 E138.41201
G1 X129.100 Y120.194 E139.91521
G1 X93.900 Y120.195 E142.73121
G1 X93.900 Y101.400 E144.23481
G0 F9000 X94.300 Y101.800
G1 F1200 X125.751 Y101.800 E146.75089
G1 X128.700 Y101.804 E146.98681
G1 X128.700 Y119.794 E148.42601
G1 X94.300 Y119.795 E151.17801
G1 X94.300 Y101.800 E152.61761
G0 F9000 X94.700 Y102.200
G1 F1200 X125.751 Y102.200 E155.10169
G1 X128.300 Y102.203 E155.30561
G1 X128.300 Y119.394 E156.68089
G1 X94.700 Y119.395 E159.36889
G1 X94.700 Y102.200 E160.74449
G0 F9000 X95.100 Y102.600
G1 F1200 X125.751 Y102.600 E163.19657
G1 X127.900 Y102.603 E163.36849
G1 X127.900 Y118.994 E164.67977
G1 X95.100 Y118.995 E167.30377
G1 X95.100 Y102.600 E168.61537
G0 F9000 X95.500 Y103.000
G1 F1200 X125.751 Y103.000 E171.03545
G1 X127.500 Y103.002 E171.17537
G1 X127.500 Y118.594 E172.42273
G1 X95.500 Y118.595 E174.98273
G1 X95.500 Y103.000 E176.23033
G0 F9000 X95.900 Y103.400
G1 F1200 X127.100 Y103.402 E178.72633
G1 X127.100 Y118.194 E179.90969
G1 X95.900 Y118.195 E182.40569
G1 X95.900 Y103.400 E183.58929
G0 F9000 X96.300 Y103.800
G1 F1200 X126.700 Y103.801 E186.02129
G1 X126.700 Y117.794 E187.14073
G1 X96.300 Y117.795 E189.57273
G1 X96.300 Y103.800 E190.69233
G0 F9000 X97.100 Y104.600
;TYPE:WALL-INNER
G1 F1200 X125.900 Y104.601 E192.99633
G1 X125.900 Y116.994 E193.98777
G1 X97.100 Y116.995 E196.29177
G1 X97.100 Y104.600 E197.28337
G0 F9000 X96.700 Y104.200
;TYPE:WALL-OUTER
G1 F1200 X126.300 Y104.201 E199.65137
G1 X126.300 Y117.394 E200.70681
G1 X96.700 Y117.395 E203.07481
G1 X96.700 Y104.200 E204.13041
G0 F9000 X97.239 Y104.876
;TYPE:SKIN
G1 F900 X109.217 Y116.854 E205.48556
G0 F9000 X108.651 Y116.854
G1 F900 X97.239 Y105.442 E206.77668
G0 F9000 X97.239 Y106.008
G1 F900 X108.086 Y116.854 E208.00382
G0 F9000 X107.520 Y116.854
G1 F900 X97.239 Y106.573 E209.16699
G0 F9000 X97.239 Y107.139
G1 F900 X106.954 Y116.854 E210.26611
G0 F9000 X106.389 Y116.854
G1 F900 X97.239 Y107.705 E211.30126
G0 F9000 X97.239 Y108.270
G1 F900 X105.823 Y116.854 E212.27243
G0 F9000 X105.257 Y116.854
G1 F900 X97.239 Y108.836 E213.17956
G0 F9000 X97.239 Y109.402
G1 F900 X104.692 Y116.854 E214.02272
G0 F9000 X104.126 Y116.854
G1 F900 X97.239 Y109.967 E214.80189
G0 F9000 X97.239 Y110.533
G1 F900 X103.560 Y116.854 E215.51703
G0 F9000 X102.995 Y116.854
G1 F900 X97.239 Y111.099 E216.16819
G0 F9000 X97.239 Y111.664
G1 F900 X102.429 Y116.854 E216.75537
G0 F9000 X101.863 Y116.854
G1 F900 X97.239 Y112.230 E217.27852
G0 F9000 X97.239 Y112.796
G1 F900 X101.297 Y116.854 E217.73763
G0 F9000 X100.732 Y116.854
G1 F900 X97.239 Y113.361 E218.13282
G0 F9000 X97.239 Y113.927
G1 F900 X100.166 Y116.854 E218.46397
G0 F9000 X109.783 Y116.854
G1 F900 X97.669 Y104.740 E219.83451
G0 F9000 X98.234 Y104.740
G1 F900 X110.348 Y116.854 E221.20506
G0 F9000 X110.914 Y116.854
G1 F900 X98.800 Y104.740 E222.57560
G0 F9000 X99.366 Y104.740
G1 F900 X111.480 Y116.854 E223.94614
G0 F9000 X112.046 Y116.854
G1 F900 X99.931 Y104.740 E225.31674
G0 F9000 X97.239 Y114.493
G1 F900 X99.600 Y116.854 E225.58386
G0 F9000 X99.035 Y116.854
G1 F900 X97.239 Y115.059 E225.78699
G0 F9000 X97.239 Y115.624
G1 F900 X98.469 Y116.854 E225.92615
G0 F9000 X97.903 Y116.854
G1 F900 X97.239 Y116.190 E226.00128
G0 F9000 X97.239 Y116.756
G1 F900 X97.338 Y116.854 E226.01242
G0 F9000 X100.497 Y104.740
G1 F900 X112.611 Y116.854 E227.38296
G0 F9000 X113.177 Y116.854
G1 F900 X101.063 Y104.740 E228.75351
G0 F9000 X101.628 Y104.740
G1 F900 X113.743 Y116.854 E230.12410
G0 F9000 X114.308 Y116.854
G1 F900 X102.194 Y104.740 E231.49465
G0 F9000 X102.760 Y104.740
G1 F900 X114.874 Y116.854 E232.86519
G0 F9000 X115.440 Y116.854
G1 F900 X103.325 Y104.740 E234.23579
G0 F9000 X103.891 Y104.740
G1 F900 X116.005 Y116.854 E235.60633
G0 F9000 X116.571 Y116.854
G1 F900 X104.457 Y104.740 E236.97687
G0 F9000 X105.023 Y104.740
G1 F900 X117.137 Y116.854 E238.34742
G0 F9000 X117.702 Y116.854
G1 F900 X105.588 Y104.740 E239.71796
G0 F9000 X106.154 Y104.740
G1 F900 X118.268 Y116.854 E241.08850
G0 F9000 X118.834 Y116.854
G1 F900 X106.720 Y104.740 E242.45904
G0 F9000 X107.285 Y104.740
G1 F900 X119.399 Y116.854 E243.82959
G0 F9000 X119.965 Y116.854
G1 F900 X107.851 Y104.740 E245.20013
G0 F9000 X108.417 Y104.740
G1 F900 X120.531 Y116.854 E246.57067
G0 F9000 X121.096 Y116.854
G1 F900 X108.982 Y104.740 E247.94122
G0 F9000 X109.548 Y104.740
G1 F900 X121.662 Y116.854 E249.31176
G0 F9000 X122.228 Y116.854
G1 F900 X110.114 Y104.740 E250.68230
G0 F9000 X110.679 Y104.740
G1 F900 X122.794 Y116.854 E252.05290
G0 F9000 X123.359 Y116.854
G1 F900 X111.245 Y104.740 E253.42344
G0 F9000 X111.811 Y104.740
G1 F900 X123.925 Y116.854 E254.79399
G0 F9000 X124.491 Y116.854
G1 F900 X112.377 Y104.740 E256.16453
G0 F9000 X112.943 Y104.740
G1 F900 X125.056 Y116.854 E257.53501
G0 F9000 X125.622 Y116.854
G1 F900 X113.509 Y104.740 E258.90550
G0 F9000 X114.074 Y104.740
G1 F900 X125.759 Y116.425 E260.22751
G0 F9000 X125.759 Y115.860
G1 F900 X114.640 Y104.740 E261.48553
G0 F9000 X115.206 Y104.740
G1 F900 X125.759 Y115.294 E262.67953
G0 F9000 X125.759 Y114.728
G1 F900 X115.771 Y104.740 E263.80954
G0 F9000 X116.337 Y104.740
G1 F900 X125.759 Y114.163 E264.87557
G0 F9000 X125.759 Y113.597
G1 F900 X116.903 Y104.740 E265.87757
G0 F9000 X117.468 Y104.740
G1 F900 X125.759 Y113.031 E266.81559
G0 F9000 X125.759 Y112.466
G1 F900 X118.034 Y104.740 E267.68963
G0 F9000 X118.600 Y104.740
G1 F900 X125.759 Y111.900 E268.49964
G0 F9000 X125.759 Y111.334
G1 F900 X119.165 Y104.740 E269.24566
G0 F9000 X119.731 Y104.740
G1 F900 X125.759 Y110.768 E269.92765
G0 F9000 X125.759 Y110.203
G1 F900 X120.297 Y104.740 E270.54567
G0 F9000 X120.862 Y104.740
G1 F900 X125.759 Y109.637 E271.09970
G0 F9000 X125.759 Y109.071
G1 F900 X121.428 Y104.740 E271.58969
G0 F9000 X121.994 Y104.740
G1 F900 X125.759 Y108.506 E272.01571
G0 F9000 X125.759 Y107.940
G1 F900 X122.559 Y104.740 E272.37775
G0 F9000 X123.125 Y104.740
G1 F900 X125.759 Y107.374 E272.67575
G0 F9000 X125.759 Y106.809
G1 F900 X123.691 Y104.740 E272.90978
G0 F9000 X124.257 Y104.740
G1 F900 X125.759 Y106.243 E273.07977
G0 F9000 X125.759 Y105.677
G1 F900 X124.822 Y104.740 E273.18578
G0 F9000 X125.388 Y104.740
G1 F900 X125.759 Y105.112 E273.22781
;LAYER:1
M106 S127
G0 F9000 X125.900 Y104.601 Z0.400
;TYPE:WALL-INNER
G1 F1500 X125.900 Y117.442 E274.25509
G1 X97.100 Y117.443 E276.55909
G1 X97.100 Y104.600 E277.58653
G1 X125.900 Y104.601 E279.89053
G0 F9000 X126.300 Y104.201
;TYPE:WALL-OUTER
G1 F1320 X126.300 Y117.842 E280.98181
G1 X96.700 Y117.843 E283.34981
G1 X96.700 Y104.200 E284.44125
G1 X126.300 Y104.201 E286.80925
G0 F9000 X125.758 Y104.757
;TYPE:SKIN
G1 F900 X113.214 Y117.301 E288.22844
G0 F9000 X112.649 Y117.301
G1 F900 X125.210 Y104.740 E289.64955
G0 F9000 X124.645 Y104.740
G1 F900 X112.083 Y117.301 E291.07072
G0 F9000 X111.517 Y117.301
G1 F900 X124.079 Y104.740 E292.49190
G0 F9000 X123.513 Y104.740
G1 F900 X110.952 Y117.301 E293.91301
G0 F9000 X110.386 Y117.301
G1 F900 X122.948 Y104.740 E295.33418
G0 F9000 X122.382 Y104.740
G1 F900 X109.820 Y117.301 E296.75535
G0 F9000 X109.255 Y117.301
G1 F900 X121.816 Y104.740 E298.17647
G0 F9000 X121.251 Y104.740
G1 F900 X108.689 Y117.301 E299.59764
G0 F9000 X108.123 Y117.301
G1 F900 X120.685 Y104.740 E301.01881
G0 F9000 X120.119 Y104.740
G1 F900 X107.558 Y117.301 E302.43993
G0 F9000 X106.992 Y117.301
G1 F900 X119.554 Y104.740 E303.86110
G0 F9000 X118.988 Y104.740
G1 F900 X106.426 Y117.301 E305.28227
G0 F9000 X105.860 Y117.301
G1 F900 X118.422 Y104.740 E306.70344
G0 F9000 X117.857 Y104.740
G1 F900 X105.295 Y117.301 E308.12461
G0 F9000 X104.729 Y117.301
G1 F900 X117.291 Y104.740 E309.54578
G0 F9000 X116.725 Y104.740
G1 F900 X104.163 Y117.301 E310.96696
G0 F9000 X103.598 Y117.301
G1 F900 X116.159 Y104.740 E312.38807
G0 F9000 X115.594 Y104.740
G1 F900 X103.032 Y117.301 E313.80924
G0 F9000 X102.466 Y117.301
G1 F900 X115.028 Y104.740 E315.23041
G0 F9000 X114.462 Y104.740
G1 F900 X101.901 Y117.301 E316.65153
G0 F9000 X101.335 Y117.301
G1 F900 X113.897 Y104.740 E318.07270
G0 F9000 X113.331 Y104.740
G1 F900 X100.769 Y117.301 E319.49387
G0 F9000 X100.204 Y117.301
G1 F900 X112.765 Y104.740 E320.91499
G0 F9000 X112.200 Y104.740
G1 F900 X99.638 Y117.301 E322.33616
G0 F9000 X99.072 Y117.301
G1 F900 X111.634 Y104.740 E323.75733
G0 F9000 X111.069 Y104.739
G1 F900 X98.507 Y117.301 E325.17856
G0 F9000 X97.941 Y117.301
G1 F900 X110.503 Y104.739 E326.59979
G0 F9000 X109.938 Y104.739
G1 F900 X97.375 Y117.301 E328.02107
G0 F9000 X97.239 Y116.872
G1 F900 X109.372 Y104.739 E329.39376
G0 F9000 X108.806 Y104.739
G1 F900 X97.239 Y116.306 E330.70242
G0 F9000 X97.239 Y115.740
G1 F900 X108.241 Y104.739 E331.94710
G0 F9000 X107.675 Y104.739
G1 F900 X97.239 Y115.174 E333.12774
G0 F9000 X97.239 Y114.609
G1 F900 X107.109 Y104.739 E334.24440
G0 F9000 X106.544 Y104.739
G1 F900 X97.239 Y114.043 E335.29709
G0 F9000 X97.239 Y113.477
G1 F900 X105.978 Y104.739 E336.28573
G0 F9000 X105.412 Y104.739
G1 F900 X97.239 Y112.912 E337.21040
G0 F9000 X97.239 Y112.346
G1 F900 X104.846 Y104.739 E338.07104
G0 F9000 X104.281 Y104.739
G1 F900 X97.239 Y111.780 E338.86769
G0 F9000 X97.239 Y111.215
G1 F900 X103.715 Y104.739 E339.60037
G0 F9000 X103.149 Y104.739
G1 F900 X97.239 Y110.649 E340.26901
G0 F9000 X97.239 Y110.083
G1 F900 X102.584 Y104.739 E340.87367
G0 F9000 X102.018 Y104.739
G1 F900 X97.239 Y109.518 E341.41435
G0 F9000 X97.239 Y108.952
G1 F900 X101.452 Y104.739 E341.89100
G0 F9000 X100.887 Y104.739
G1 F900 X97.239 Y108.386 E342.30367
G0 F9000 X97.239 Y107.821
G1 F900 X100.321 Y104.739 E342.65235
G0 F9000 X113.780 Y117.301
G1 F900 X125.758 Y105.323 E344.00751
G0 F9000 X125.758 Y105.889
G1 F900 X114.346 Y117.301 E345.29863
G0 F9000 X114.911 Y117.301
G1 F900 X125.758 Y106.454 E346.52583
G0 F9000 X125.758 Y107.020
G1 F900 X115.477 Y117.301 E347.68899
G0 F9000 X116.043 Y117.301
G1 F900 X125.758 Y107.586 E348.78812
G0 F9000 X125.758 Y108.151
G1 F900 X116.608 Y117.301 E349.82332
G0 F9000 X117.174 Y117.301
G1 F900 X125.758 Y108.717 E350.79449
G0 F9000 X125.758 Y109.283
G1 F900 X117.740 Y117.301 E351.70162
G0 F9000 X118.306 Y117.301
G1 F900 X125.758 Y109.849 E352.54472
G0 F9000 X125.758 Y110.414
G1 F900 X118.871 Y117.301 E353.32390
G0 F9000 X119.437 Y117.301
G1 F900 X125.758 Y110.980 E354.03904
G0 F9000 X125.758 Y111.546
G1 F900 X120.003 Y117.301 E354.69014
G0 F9000 X120.568 Y117.301
G1 F900 X125.758 Y112.111 E355.27732
G0 F9000 X125.758 Y112.677
G1 F900 X121.134 Y117.301 E355.80047
G0 F9000 X121.700 Y117.301
G1 F900 X125.758 Y113.243 E356.25958
G0 F9000 X125.758 Y113.808
G1 F900 X122.265 Y117.301 E356.65477
G0 F9000 X122.831 Y117.301
G1 F900 X125.758 Y114.374 E356.98592
G0 F9000 X125.758 Y114.940
G1 F900 X123.397 Y117.301 E357.25303
G0 F9000 X123.962 Y117.301
G1 F900 X125.758 Y115.505 E357.45623
G0 F9000 X125.758 Y116.071
G1 F900 X124.528 Y117.301 E357.59539
G0 F9000 X125.094 Y117.301
G1 F900 X125.758 Y116.637 E357.67051
G0 F9000 X125.758 Y117.202
G1 F900 X125.659 Y117.301 E357.68171
G0 F9000 X99.755 Y104.739
G1 F900 X97.239 Y107.255 E357.96636
G0 F9000 X97.239 Y106.689
G1 F900 X99.190 Y104.739 E358.18704
G0 F9000 X98.624 Y104.739
G1 F900 X97.239 Y106.123 E358.34368
G0 F9000 X97.239 Y105.558
G1 F900 X98.058 Y104.739 E358.43634
G0 F9000 X97.493 Y104.739
G1 F900 X97.239 Y104.992 E358.46502
;LAYER:2
M106 S255
G0 F9000 X97.100 Y104.600 Z0.600
;TYPE:WALL-INNER
G1 F1800 X125.900 Y104.601 E360.76902
G1 X125.900 Y117.711 E361.81782
G1 X97.100 Y117.712 E364.12182
G1 X97.100 Y104.600 E365.17078
G0 F9000 X96.700 Y104.200
;TYPE:WALL-OUTER
G1 F1500 X126.300 Y104.201 E367.53878
G1 X126.300 Y118.111 E368.65158
G1 X96.700 Y118.112 E371.01958
G1 X96.700 Y104.200 E372.13254
G0 F9000 X97.239 Y104.876
;TYPE:SKIN
G1 F900 X109.934 Y117.571 E373.56881
G0 F9000 X109.368 Y117.571
G1 F900 X97.239 Y105.442 E374.94105
G0 F9000 X97.239 Y106.008
G1 F900 X108.803 Y117.571 E376.24931
G0 F9000 X108.237 Y117.571
G1 F900 X97.239 Y106.573 E377.49359
G0 F9000 X97.239 Y107.139
G1 F900 X107.671 Y117.571 E378.67384
G0 F9000 X107.106 Y117.571
G1 F900 X97.239 Y107.705 E379.79011
G0 F9000 X97.239 Y108.270
G1 F900 X106.540 Y117.571 E380.84239
G0 F9000 X105.974 Y117.571
G1 F900 X97.239 Y108.836 E381.83065
G0 F9000 X97.239 Y109.402
G1 F900 X105.409 Y117.571 E382.75492
G0 F9000 X104.843 Y117.571
G1 F900 X97.239 Y109.967 E383.61521
G0 F9000 X97.239 Y110.533
G1 F900 X104.277 Y117.571 E384.41147
G0 F9000 X103.712 Y117.571
G1 F900 X97.239 Y111.099 E385.14375
G0 F9000 X97.239 Y111.664
G1 F900 X103.146 Y117.571 E385.81205
G0 F9000 X102.580 Y117.571
G1 F900 X97.239 Y112.230 E386.41632
G0 F9000 X97.239 Y112.796
G1 F900 X102.015 Y117.571 E386.95660
G0 F9000 X101.449 Y117.571
G1 F900 X97.239 Y113.361 E387.43291
G0 F9000 X97.239 Y113.927
G1 F900 X100.883 Y117.571 E387.84518
G0 F9000 X100.317 Y117.571
G1 F900 X97.239 Y114.493 E388.19342
G0 F9000 X97.239 Y115.059
G1 F900 X99.752 Y117.571 E388.47768
G0 F9000 X99.186 Y117.571
G1 F900 X97.239 Y115.624 E388.69795
G0 F9000 X97.239 Y116.190
G1 F900 X98.620 Y117.571 E388.85420
G0 F9000 X98.055 Y117.571
G1 F900 X97.239 Y116.756 E388.94646
G0 F9000 X97.239 Y117.321
G1 F900 X97.489 Y117.571 E388.97474
G0 F9000 X97.669 Y104.740
G1 F900 X110.500 Y117.571 E390.42641
G0 F9000 X111.065 Y117.571
G1 F900 X98.234 Y104.740 E391.87807
G0 F9000 X98.800 Y104.740
G1 F900 X111.631 Y117.571 E393.32973
G0 F9000 X112.197 Y117.571
G1 F900 X99.366 Y104.740 E394.78139
G0 F9000 X99.931 Y104.740
G1 F900 X112.763 Y117.571 E396.23311
G0 F9000 X113.328 Y117.571
G1 F900 X100.497 Y104.740 E397.68477
